IAMHAADICOOL/ee_tracking/outputs/policy_res_fs_filt6_figure_eight_clean_ep0.csv
t,error_m,ee_x,ee_y,ee_z,q0,q1,q2,q3,q4,q5,q6
0.000000000000000000e+00,5.968177484669814962e-05,3.070206344127655029e-01,1.859600655734539032e-03,4.864672422409057617e-01,2.320616352433462360e-03,-7.863420859372043381e-01,2.396857386678516964e-03,-2.354330585515138630e+00,1.730822543822380490e-03,1.570980514216634205e+00,7.849988837177768186e-01
1.666666666666666644e-02,2.329112779507069180e-04,3.070256710052490234e-01,3.832192160189151764e-03,4.876552820205688477e-01,4.766398263930072925e-03,-7.875589447495254802e-01,4.840993140410503569e-03,-2.352588324242787632e+00,3.723899515712624647e-03,1.570913636990107998e+00,7.850035963324748511e-01
3.333333333333333287e-02,5.151560226824218169e-04,3.070428669452667236e-01,5.910579115152359009e-03,4.888097345829010010e-01,7.332527693962160448e-03,-7.885735542986679336e-01,7.320749885393034589e-03,-2.350771371699188705e+00,5.968408580945005343e-03,1.570786930421038452e+00,7.850116344037915139e-01
5.000000000000000278e-02,8.786161931125912716e-04,3.070805370807647705e-01,8.062122389674186707e-03,4.899171888828277588e-01,9.970623202833154425e-03,-7.893306402254794962e-01,9.809044319970264963e-03,-2.348871215766231035e+00,8.419977189951327601e-03,1.570596089913854465e+00,7.850167227763191757e-01
6.666666666666666574e-02,1.298914998627397543e-03,3.071393668651580811e-01,1.025813166052103043e-02,4.909758567810058594e-01,1.263795503452762488e-02,-7.898176207101357260e-01,1.228812503153085996e-02,-2.346881411966525555e+00,1.103057244511113956e-02,1.570329955268364719e+00,7.850062900352088313e-01
8.333333333333332871e-02,1.750009914888867426e-03,3.072161972522735596e-01,1.247030310332775116e-02,4.919915497303009033e-01,1.529598130792075676e-02,-7.900453735816974632e-01,1.473369278139093595e-02,-2.344793909054400771e+00,1.375856655770252117e-02,1.569972743356877087e+00,7.849617653581734134e-01
1.000000000000000056e-01,2.205696719354920295e-03,3.073078095912933350e-01,1.467261649668216705e-02,4.929761588573455811e-01,1.790701318766108052e-02,-7.900363178868183844e-01,1.712230901024875199e-02,-2.342596045342462130e+00,1.657090103090294239e-02,1.569512220396074076e+00,7.848626477270954638e-01
1.166666666666666685e-01,2.642152607375916964e-03,3.074123859405517578e-01,1.684312149882316589e-02,4.939440190792083740e-01,2.043558374582972459e-02,-7.898154734524035492e-01,1.943552523874052945e-02,-2.340272852424986283e+00,1.944292536599869642e-02,1.568941796384529574e+00,7.846891665105989455e-01
1.333333333333333315e-01,3.041222411546550854e-03,3.075289726257324219e-01,1.896592788398265839e-02,4.949077963829040527e-01,2.285427113213998190e-02,-7.894046443495736920e-01,2.166039650499100924e-02,-2.337811419525666068e+00,2.235862146382419993e-02,1.568257585571815715e+00,7.844249217655218098e-01
1.499999999999999944e-01,3.393432373531722526e-03,3.076561987400054932e-01,2.103341929614543915e-02,4.958760738372802734e-01,2.514937518254737117e-02,-7.888219393110024180e-01,2.379206152916687675e-02,-2.335204904947961513e+00,2.530899851814453344e-02,1.567455391324654723e+00,7.840598181538648292e-01
1.666666666666666574e-01,3.696577778395602684e-03,3.077917098999023438e-01,2.304496057331562042e-02,4.968539774417877197e-01,2.731938929074861216e-02,-7.880840782299254332e-01,2.583228813668500545e-02,-2.332452654803315095e+00,2.829051304648897217e-02,1.566530780088707830e+00,7.835891183442070806e-01
1.833333333333333204e-01,3.952833355559268874e-03,3.079329133033752441e-01,2.500394172966480255e-02,4.978439509868621826e-01,2.936994014540818612e-02,-7.872063390779918679e-01,2.778669559475463111e-02,-2.329559101347790318e+00,3.130269369616939246e-02,1.565481138453669985e+00,7.830114455101444548e-01
2.000000000000000111e-01,4.166573917087806542e-03,3.080771267414093018e-01,2.691568993031978607e-02,4.988465607166290283e-01,3.131060699159199379e-02,-7.862028639769029770e-01,2.966232723868977156e-02,-2.326532261232376886e+00,3.434652206881895486e-02,1.564306505699157857e+00,7.823276153604220573e-01
2.166666666666666741e-01,4.343238682581146252e-03,3.082222938537597656e-01,2.878645248711109161e-02,4.998614490032196045e-01,3.315298028496785343e-02,-7.850872497243931436e-01,3.146638222939866086e-02,-2.323382773352892450e+00,3.742424375261688835e-02,1.563011935754923698e+00,7.815397908770780333e-01
2.333333333333333370e-01,4.488364392582558371e-03,3.083662390708923340e-01,3.062220849096775055e-02,5.008868575096130371e-01,3.490940743334437074e-02,-7.838715804607926385e-01,3.320565158888139773e-02,-2.320123171891433245e+00,4.053666829655922649e-02,1.561602102025405170e+00,7.806516810182213550e-01
2.500000000000000000e-01,4.607188427426957451e-03,3.085065484046936035e-01,3.242839127779006958e-02,5.019199848175048828e-01,3.659222700017999985e-02,-7.825664736892162798e-01,3.488651458007638317e-02,-2.316766841233558250e+00,4.368287969130318221e-02,1.560080772788499992e+00,7.796684083173573976e-01
2.666666666666666630e-01,4.704690104123539739e-03,3.086414933204650879e-01,3.421032801270484924e-02,5.029582977294921875e-01,3.821317554069117439e-02,-7.811822903344272095e-01,3.651516853425684772e-02,-2.313327403400771143e+00,4.686255380528984993e-02,1.558455459099628460e+00,7.785959823867830698e-01
2.833333333333333259e-01,4.785369735902201410e-03,3.087696433067321777e-01,3.597291558980941772e-02,5.039992332458496094e-01,3.978303212868038174e-02,-7.797287223450911631e-01,3.809758115083382302e-02,-2.309818231833865809e+00,5.007508129272814773e-02,1.556734596939334248e+00,7.774413469787818665e-01
2.999999999999999889e-01,4.853146118128646644e-03,3.088898658752441406e-01,3.772053867578506470e-02,5.050403475761413574e-01,4.131142793948044262e-02,-7.782147359836452116e-01,3.963934003996427702e-02,-2.306252071924407510e+00,5.331966070538354113e-02,1.554927336905105983e+00,7.762120611237254275e-01
3.166666666666666519e-01,4.911308113636485284e-03,3.090012669563293457e-01,3.945701569318771362e-02,5.060793757438659668e-01,4.280675403335142820e-02,-7.766485915747457502e-01,4.114547681092100423e-02,-2.302640931417056169e+00,5.659537992442179727e-02,1.553043206466376391e+00,7.749161235374369960e-01
3.333333333333333148e-01,4.962489276020701570e-03,3.091031908988952637e-01,4.118553549051284790e-02,5.071142911911010742e-01,4.427614977286673664e-02,-7.750378710332566090e-01,4.262032915345796702e-02,-2.298996022008009454e+00,5.990126191388689403e-02,1.551091859314407850e+00,7.735618042100350644e-01
3.499999999999999778e-01,5.008746102213946193e-03,3.091951608657836914e-01,4.290867224335670471e-02,5.081432461738586426e-01,4.572553772823569063e-02,-7.733895034853844885e-01,4.406749731393044128e-02,-2.295327634688251628e+00,6.323627337324612407e-02,1.549082988711438569e+00,7.721574405735976976e-01
3.666666666666666408e-01,5.051542744364197896e-03,3.092770576477050781e-01,4.462830349802970886e-02,5.091647505760192871e-01,4.715963212107507352e-02,-7.717097868601893174e-01,4.548960574298907544e-02,-2.291645033205996995e+00,6.659936451721321093e-02,1.547026254803981482e+00,7.707113090078564488e-01
3.833333333333333037e-01,5.091801442700550663e-03,3.093489110469818115e-01,4.634567722678184509e-02,5.101776123046875000e-01,4.858206757773046031e-02,-7.700044162587101892e-01,4.688829614737573259e-02,-2.287956492485117899e+00,6.998952116457737849e-02,1.544931172196613911e+00,7.692315368081451554e-01
4.000000000000000222e-01,5.130106232309881997e-03,3.094109594821929932e-01,4.806150868535041809e-02,5.111808180809020996e-01,4.999559145878400973e-02,-7.682784836801722639e-01,4.826440938726288266e-02,-2.284269428773668675e+00,7.340581118774237857e-02,1.542807012409592504e+00,7.677260439071760256e-01
4.166666666666666852e-01,5.166747077412972913e-03,3.094635605812072754e-01,4.977615550160408020e-02,5.121736526489257812e-01,5.140228400704167921e-02,-7.665365552002733063e-01,4.961822100189124118e-02,-2.280590525217061515e+00,7.684741490874803793e-02,1.540662699307266070e+00,7.662025072605689324e-01
4.333333333333333481e-01,5.202016920065392208e-03,3.095072209835052490e-01,5.148972198367118835e-02,5.131553411483764648e-01,5.280372763471078562e-02,-7.647827386819311402e-01,5.094962745979070284e-02,-2.276925846549970878e+00,8.031362166981886874e-02,1.538506734098733286e+00,7.646683596067354038e-01
4.500000000000000111e-01,5.236081863660674296e-03,3.095424473285675049e-01,5.320211127400398254e-02,5.141252279281616211e-01,5.420111585939692278e-02,-7.630207521770950851e-01,5.225826934879863189e-02,-2.273280969734437384e+00,8.380378644110918207e-02,1.536347119184996446e+00,7.631308798463979359e-01
4.666666666666666741e-01,5.268958126894881557e-03,3.095697462558746338e-01,5.491310358047485352e-02,5.150828957557678223e-01,5.559535480352012504e-02,-7.612539663032635850e-01,5.354362422526726117e-02,-2.269661012560494573e+00,8.731731056653699308e-02,1.534191356068677292e+00,7.615971144302587925e-01
4.833333333333333370e-01,5.300762967822158014e-03,3.095897138118743896e-01,5.662237107753753662e-02,5.160278081893920898e-01,5.698712817232193251e-02,-7.594854299066772230e-01,5.480506539023818208e-02,-2.266070681612038840e+00,9.085361301076409768e-02,1.532046448907279590e+00,7.600738270891079784e-01
5.000000000000000000e-01,5.331505400616132553e-03,3.096028566360473633e-01,5.832951143383979797e-02,5.169595479965209961e-01,5.837694661228601950e-02,-7.577179067307299176e-01,5.604190108142109716e-02,-2.262514312149354723e+00,9.441210637912074433e-02,1.529918909841958552e+00,7.585674694804213081e-01
5.166666666666666075e-01,5.361242605995636921e-03,3.096097707748413086e-01,6.003406271338462830e-02,5.178776979446411133e-01,5.976518507885707904e-02,-7.559538983700545556e-01,5.725340221025909671e-02,-2.258995918572179296e+00,9.799217904656483402e-02,1.527814766481301545e+00,7.570841632323682679e-01
5.333333333333333259e-01,5.389918543394893805e-03,3.096110224723815918e-01,6.173546612262725830e-02,5.187819600105285645e-01,6.115196013304736999e-02,-7.541956622706832425e-01,5.843879387474790188e-02,-2.255519123678490168e+00,1.015932020778845812e-01,1.525739619362677990e+00,7.556296324369398132e-01
5.500000000000000444e-01,5.417455824851378880e-03,3.096072375774383545e-01,6.343304365873336792e-02,5.196720361709594727e-01,6.253699833474316017e-02,-7.524451991858155386e-01,5.959725670806564207e-02,-2.252087122619128579e+00,1.052145563507447534e-01,1.523698683907680929e+00,7.542091442605880491e-01
5.666666666666666519e-01,5.443630650473109921e-03,3.095990121364593506e-01,6.512605398893356323e-02,5.205478072166442871e-01,6.391981372736395273e-02,-7.507042931445193634e-01,6.072800589345472150e-02,-2.248702822712813187e+00,1.088556445547581575e-01,1.521696727429518337e+00,7.528275838032754130e-01
5.833333333333333703e-01,5.468317933319738651e-03,3.095869421958923340e-01,6.681378185749053955e-02,5.214090347290039062e-01,6.529983830696141356e-02,-7.489745341075157992e-01,6.183035096595137364e-02,-2.245368922078636142e+00,1.125158947800258963e-01,1.519738060115007450e+00,7.514895102240067848e-01
5.999999999999999778e-01,5.491439677616856592e-03,3.095715641975402832e-01,6.849556416273117065e-02,5.222554206848144531e-01,6.667650041977370157e-02,-7.472573602375779389e-01,6.290373098362662951e-02,-2.242087958808349768e+00,1.161947503370897167e-01,1.517826530334541513e+00,7.501991838748129915e-01
6.166666666666666963e-01,5.512849137540927653e-03,3.095533847808837891e-01,7.017076760530471802e-02,5.230867862701416016e-01,6.804926147161736993e-02,-7.455540864938821066e-01,6.394773029086509020e-02,-2.238862327598445834e+00,1.198916522344341956e-01,1.515965550852859334e+00,7.489605755165886780e-01
6.333333333333333037e-01,5.532528845044702714e-03,3.095328807830810547e-01,7.183887064456939697e-02,5.239028334617614746e-01,6.941756970182065556e-02,-7.438658891771103843e-01,6.496206615409147456e-02,-2.235694423640950390e+00,1.236061654592476300e-01,1.514158237256312711e+00,7.477773008275206967e-01
6.500000000000000222e-01,5.550501573451359534e-03,3.095104098320007324e-01,7.349938154220581055e-02,5.247031450271606445e-01,7.078084441291614126e-02,-7.421937812901440168e-01,6.594659761991555902e-02,-2.232586634543313409e+00,1.273379902812269149e-01,1.512407472222957683e+00,7.466525471936725777e-01
6.666666666666666297e-01,5.566886103691149473e-03,3.094864487648010254e-01,7.515187561511993408e-02,5.254873037338256836e-01,7.213845838953454603e-02,-7.405385750736266370e-01,6.690133596921073178e-02,-2.229541234620807444e+00,1.310868401508246961e-01,1.510715853500265382e+00,7.455889817295473510e-01
6.833333333333333481e-01,5.581769451945844777e-03,3.094613254070281982e-01,7.679592072963714600e-02,5.262548327445983887e-01,7.348971276252930229e-02,-7.389009526475409650e-01,6.782621364563498623e-02,-2.226560302345821363e+00,1.348526714839438090e-01,1.509085191799678149e+00,7.445890205666254591e-01
6.999999999999999556e-01,5.594997077201897644e-03,3.094351291656494141e-01,7.843104749917984009e-02,5.270054340362548828e-01,7.483376214323522735e-02,-7.372816083752485872e-01,6.872099291156932854e-02,-2.223645516790973442e+00,1.386358523530538678e-01,1.507516122972530237e+00,7.436549680724892086e-01
7.166666666666666741e-01,5.606239162521063288e-03,3.094078600406646729e-01,8.005681633949279785e-02,5.277390480041503906e-01,7.616953591093290898e-02,-7.356814803197290198e-01,6.958526113604160401e-02,-2.220798074560846214e+00,1.424374116774618226e-01,1.506008734332479060e+00,7.427890430180609238e-01
7.333333333333332815e-01,5.615161557688019486e-03,3.093795776367187500e-01,8.167280256748199463e-02,5.284556746482849121e-01,7.749590321727956033e-02,-7.341015653345001057e-01,7.041856530684589832e-02,-2.218018912997689274e+00,1.462586780797025809e-01,1.504562812655302562e+00,7.419934184420885481e-01
7.500000000000000000e-01,5.621323289294489524e-03,3.093501627445220947e-01,8.327866345643997192e-02,5.291554331779479980e-01,7.881179006916574914e-02,-7.325427779831467090e-01,7.122051489517951250e-02,-2.215308861077229796e+00,1.501010912194869762e-01,1.503178024146097247e+00,7.412701847554877821e-01
7.666666666666666075e-01,5.624353953402710417e-03,3.093197047710418701e-01,8.487416803836822510e-02,5.298385620117187500e-01,8.011612759292052743e-02,-7.310057704964499914e-01,7.199086593789863486e-02,-2.212668188712971329e+00,1.539663195629275838e-01,1.501854055955898382e+00,7.406215461142781065e-01
7.833333333333333259e-01,5.623766742107753382e-03,3.092883527278900146e-01,8.645907044410705566e-02,5.305054783821105957e-01,8.140757678798264674e-02,-7.294908097548676862e-01,7.272903977048870983e-02,-2.210096665568476393e+00,1.578568390111105280e-01,1.500590305884896392e+00,7.400500840894640442e-01
8.000000000000000444e-01,5.619145810453266866e-03,3.092562854290008545e-01,8.803310245275497437e-02,5.311564803123474121e-01,8.268457153163294437e-02,-7.279977973788153145e-01,7.343411433224518448e-02,-2.207593929883525430e+00,1.617757894289132969e-01,1.499385788204031345e+00,7.395588085959090563e-01
8.166666666666666519e-01,5.610116692707102677e-03,3.092236816883087158e-01,8.959593623876571655e-02,5.317917466163635254e-01,8.394549231366216224e-02,-7.265263473893198709e-01,7.410501445599280979e-02,-2.205159766632010854e+00,1.657265139698082812e-01,1.498239246100214750e+00,7.391510290519188731e-01
8.333333333333333703e-01,5.596455416174235878e-03,3.091906905174255371e-01,9.114723652601242065e-02,5.324112176895141602e-01,8.518878964292181388e-02,-7.250758755445683157e-01,7.474067797184361095e-02,-2.202794214770717129e+00,1.697122547925991320e-01,1.497149239704183232e+00,7.388301617318735470e-01
8.499999999999999778e-01,5.577997606165324002e-03,3.091575801372528076e-01,9.268690645694732666e-02,5.330150127410888672e-01,8.641313471134118296e-02,-7.236460352834483967e-01,7.534022675252027845e-02,-2.200497533365429970e+00,1.737366131923485657e-01,1.496115268200802317e+00,7.385995708091225298e-01
8.666666666666666963e-01,5.554701777773867442e-03,3.091244995594024658e-01,9.421492367982864380e-02,5.336030721664428711e-01,8.761739964708009643e-02,-7.222365833118515877e-01,7.590304855281079788e-02,-2.198270241276496062e+00,1.778029040515778647e-01,1.495136724690821595e+00,7.384626140210670542e-01
8.833333333333333037e-01,5.526629340793450668e-03,3.090912997722625732e-01,9.573103487491607666e-02,5.341748595237731934e-01,8.880057127378826465e-02,-7.208468673818713146e-01,7.642880664348593311e-02,-2.196113004222003617e+00,1.819129630638446071e-01,1.494210852520950317e+00,7.384226999479871489e-01
9.000000000000000222e-01,5.493786222076296223e-03,3.090577423572540283e-01,9.723506867885589600e-02,5.347299575805664062e-01,8.996180413875137782e-02,-7.194762502898641721e-01,7.691752261951223524e-02,-2.194026472340056433e+00,1.860681126990983980e-01,1.493334975790519437e+00,7.384829568175838022e-01
9.166666666666666297e-01,5.456345035298588303e-03,3.090239465236663818e-01,9.872696548700332642e-02,5.352680087089538574e-01,9.110027944410439837e-02,-7.181240431248396838e-01,7.736962330240985952e-02,-2.192010999727831422e+00,1.902692861537411684e-01,1.492507769702916098e+00,7.386458832893209037e-01
9.333333333333333481e-01,5.414360359532419467e-03,3.089900612831115723e-01,1.002066582441329956e-01,5.357888340950012207e-01,9.221518396391843730e-02,-7.167893720815657899e-01,7.778586672288073656e-02,-2.190066747492936727e+00,1.945166859052148700e-01,1.491728079451802413e+00,7.389133901904612056e-01
9.499999999999999556e-01,5.368010009098304891e-03,3.089563250541687012e-01,1.016739979386329651e-01,5.362920761108398438e-01,9.330595358008759999e-02,-7.154714292632493589e-01,7.816694056964151871e-02,-2.188193916975128772e+00,1.988099610939404738e-01,1.490994726765698219e+00,7.392866168534578675e-01
9.666666666666666741e-01,5.317256972111140088e-03,3.089227974414825439e-01,1.031287908554077148e-01,5.367775559425354004e-01,9.437222017822584352e-02,-7.141695086707439133e-01,7.851346061911283758e-02,-2.186392730216798697e+00,2.031483356167952392e-01,1.490306449213193218e+00,7.397659596057947207e-01
9.833333333333332815e-01,5.262186920626221384e-03,3.088897168636322021e-01,1.045706942677497864e-01,5.372449159622192383e-01,9.541358589027333637e-02,-7.128829274549371986e-01,7.882581416708261957e-02,-2.184663320708696510e+00,2.075307392312324972e-01,1.489662031145229770e+00,7.403510913894032486e-01
1.000000000000000000e+00,5.202489636545584717e-03,3.088572919368743896e-01,1.059992164373397827e-01,5.376942157745361328e-01,9.642958516461636043e-02,-7.116110278607808981e-01,7.910407110052565527e-02,-2.183005584160625734e+00,2.119559904451148447e-01,1.489060386638693556e+00,7.410408012326998861e-01
1.016666666666666607e+00,5.138111503388342188e-03,3.088258504867553711e-01,1.074138283729553223e-01,5.381252169609069824e-01,9.741976841735432158e-02,-7.103531283312986000e-01,7.934817838904792420e-02,-2.181419335184050290e+00,2.164228676598617951e-01,1.488500426779794106e+00,7.418332462142424033e-01
1.033333333333333215e+00,5.068806805538274458e-03,3.087956011295318604e-01,1.088141947984695435e-01,5.385380387306213379e-01,9.838391402645323136e-02,-7.091085789081567059e-01,7.955834926581076272e-02,-2.179904362421439146e+00,2.209303252048150090e-01,1.487981029856020099e+00,7.427262734578931047e-01
1.050000000000000044e+00,4.994688453936816687e-03,3.087666332721710205e-01,1.102002784609794617e-01,5.389325022697448730e-01,9.932207139064702650e-02,-7.078767725294304869e-01,7.973523504142668306e-02,-2.178460513234255380e+00,2.254774782883335049e-01,1.487501040507877459e+00,7.437176274931340814e-01
1.066666666666666652e+00,4.915965417123567896e-03,3.087390363216400146e-01,1.115721985697746277e-01,5.393084287643432617e-01,1.002344352956417717e-01,-7.066571162828788610e-01,7.987981618365938563e-02,-2.177087697747537742e+00,2.300634386914870710e-01,1.487059307572454525e+00,7.448049960058507057e-01
1.083333333333333259e+00,4.833037808905695995e-03,3.087128698825836182e-01,1.129300892353057861e-01,5.396654009819030762e-01,1.011211882697223563e-01,-7.054487284778140355e-01,7.999318958758883102e-02,-2.175786427157145209e+00,2.346872831846636975e-01,1.486654663817817745e+00,7.459863533616772902e-01
1.100000000000000089e+00,4.746681462343499414e-03,3.086881637573242188e-01,1.142740920186042786e-01,5.400025248527526855e-01,1.019824781567431199e-01,-7.042505881401296408e-01,8.007655187062187596e-02,-2.174557560657462307e+00,2.393480186356662653e-01,1.486285898038589792e+00,7.472598540595044581e-01
1.116666666666666696e+00,4.657623718232346485e-03,3.086647987365722656e-01,1.156047657132148743e-01,5.403192043304443359e-01,1.028183796799471139e-01,-7.030617428492308418e-01,8.013136234212429876e-02,-2.173402059437204770e+00,2.440462436889465903e-01,1.485951741141149807e+00,7.486236801943315644e-01
1.133333333333333304e+00,4.566908540341397225e-03,3.086425960063934326e-01,1.169230490922927856e-01,5.406146645545959473e-01,1.036288022124591673e-01,-7.018814990249990782e-01,8.015927833131447633e-02,-2.172320966867010483e+00,2.487843537543616146e-01,1.485650944723190703e+00,7.500761573471911303e-01
1.149999999999999911e+00,4.475252909937754361e-03,3.086211979389190674e-01,1.182300224900245667e-01,5.408885478973388672e-01,1.044134086461009220e-01,-7.007094564650812041e-01,8.016192960156272307e-02,-2.171315347812539986e+00,2.535658255580187648e-01,1.485382308920885519e+00,7.516158449156296051e-01
1.166666666666666741e+00,4.383383048622145617e-03,3.086003363132476807e-01,1.195266693830490112e-01,5.411404371261596680e-01,1.051715801570239084e-01,-6.995454419308790861e-01,8.014071896888089186e-02,-2.170386239164426190e+00,2.583944512489665390e-01,1.485144620265230087e+00,7.532414604339733311e-01
1.183333333333333348e+00,4.291684369473858229e-03,3.085796535015106201e-01,1.208135783672332764e-01,5.413700342178344727e-01,1.059025157067119971e-01,-6.983892973063863252e-01,8.009662871290032515e-02,-2.169534485900038501e+00,2.632732785093213068e-01,1.484936123034938715e+00,7.549515589806096161e-01
1.199999999999999956e+00,4.200417871476805343e-03,3.085588514804840088e-01,1.220909655094146729e-01,5.415769815444946289e-01,1.066053669839025220e-01,-6.972408202194479987e-01,8.003022329753693709e-02,-2.168760743018252057e+00,2.682043094862625043e-01,1.484754711660275284e+00,7.567444237532723328e-01
1.216666666666666563e+00,4.109525810545624699e-03,3.085377514362335205e-01,1.233586892485618591e-01,5.417611598968505859e-01,1.072793501787322606e-01,-6.960997235594128529e-01,7.994168573709344028e-02,-2.168065429233985153e+00,2.731884146671414437e-01,1.484598083311545302e+00,7.586179972716370346e-01
1.233333333333333393e+00,4.019011800276688952e-03,3.085161745548248291e-01,1.246163249015808105e-01,5.419222116470336914e-01,1.079238263740606579e-01,-6.949655792558739886e-01,7.983090085583682827e-02,-2.167448698801780260e+00,2.782254055797927506e-01,1.484463820265148115e+00,7.605698510612752816e-01
1.250000000000000000e+00,3.928691866193432733e-03,3.084941208362579346e-01,1.258631795644760132e-01,5.420599579811096191e-01,1.085381535910506234e-01,-6.938376171492898203e-01,7.969746457174783916e-02,-2.166910642114844077e+00,2.833141998754077351e-01,1.484349473513892237e+00,7.625972456919807296e-01
1.266666666666666607e+00,3.838448493570401510e-03,3.084717392921447754e-01,1.270982325077056885e-01,5.421740412712097168e-01,1.091218631270522293e-01,-6.927147791718665237e-01,7.954044585854097571e-02,-2.166451105469180405e+00,2.884528082192529541e-01,1.484252437478912556e+00,7.646972952984595340e-01
1.283333333333333215e+00,3.748047765247534621e-03,3.084491789340972900e-01,1.283203512430191040e-01,5.422642230987548828e-01,1.096748876990664423e-01,-6.915960191871367568e-01,7.935859541198841960e-02,-2.166069508748828198e+00,2.936385413333472694e-01,1.484169861237124577e+00,7.668670265768070538e-01
1.300000000000000044e+00,3.657089819487365639e-03,3.084264397621154785e-01,1.295284032821655273e-01,5.423304438591003418e-01,1.101975502957514980e-01,-6.904802901900320977e-01,7.915052335527425487e-02,-2.165765067376713926e+00,2.988684494103927558e-01,1.484098671260653424e+00,7.691031725673567188e-01
1.316666666666666652e+00,3.565272145391292728e-03,3.084036111831665039e-01,1.307214200496673584e-01,5.423727035522460938e-01,1.106905250021442272e-01,-6.893665407228061204e-01,7.891485598135858370e-02,-2.165536878699036105e+00,3.041395384576137673e-01,1.484035694120077187e+00,7.714022003139363592e-01
1.333333333333333259e+00,3.472400469567685569e-03,3.083805739879608154e-01,1.318985521793365479e-01,5.423908829689025879e-01,1.111548262704572937e-01,-6.882537798660450790e-01,7.865039260135901766e-02,-2.165383989176040469e+00,3.094488104559796615e-01,1.483977758074973119e+00,7.737603880100634157e-01
1.350000000000000089e+00,3.378403721529477533e-03,3.083572685718536377e-01,1.330591887235641479e-01,5.423849225044250488e-01,1.115917122985113780e-01,-6.871410595053468739e-01,7.835615238875805189e-02,-2.165305400535977753e+00,3.147933403060977908e-01,1.483921810164489541e+00,7.761739376068580443e-01
1.366666666666666696e+00,3.283114637911658997e-03,3.083335161209106445e-01,1.342028379440307617e-01,5.423549413681030273e-01,1.120025879628882698e-01,-6.860274568541048223e-01,7.803137670659256175e-02,-2.165300065135084662e+00,3.201703446040652379e-01,1.483864997793455487e+00,7.786390864089053343e-01
1.383333333333333304e+00,3.186614000081298189e-03,3.083092272281646729e-01,1.353291720151901245e-01,5.423009395599365234e-01,1.123889196189198914e-01,-6.849120176663278103e-01,7.767548112968175600e-02,-2.165366849629361656e+00,3.255772264210542444e-01,1.483804572578026670e+00,7.811521819917971454e-01
1.399999999999999911e+00,3.088996347776271426e-03,3.082842230796813965e-01,1.364379823207855225e-01,5.422229766845703125e-01,1.127521911821828954e-01,-6.837937688710369333e-01,7.728805832467500192e-02,-2.165504574147398831e+00,3.310115781605288965e-01,1.483737946646576766e+00,7.837097404293086322e-01
1.416666666666666741e+00,2.990569853900381606e-03,3.082583248615264893e-01,1.375293582677841187e-01,5.421210527420043945e-01,1.130939744565934990e-01,-6.826716783420284651e-01,7.686926062329463294e-02,-2.165712194536562940e+00,3.364711246084393648e-01,1.483662610830991602e+00,7.863084562609904404e-01
1.433333333333333348e+00,2.892225296312512291e-03,3.082309961318969727e-01,1.386040747165679932e-01,5.419946312904357910e-01,1.134160003411445600e-01,-6.815443023298413117e-01,7.642110181497302479e-02,-2.165989159246447304e+00,3.419536677802000879e-01,1.483575853131303912e+00,7.889453161016465321e-01
1.449999999999999956e+00,2.795384364658479344e-03,3.082016706466674805e-01,1.396636515855789185e-01,5.418428182601928711e-01,1.137203936797318016e-01,-6.804097168808339591e-01,7.594716664776925141e-02,-2.166335032041210695e+00,3.474568187667007590e-01,1.483475242127028748e+00,7.916177032413905801e-01
1.466666666666666563e+00,2.701498139001562090e-03,3.081697821617126465e-01,1.407099366188049316e-01,5.416647195816040039e-01,1.140095261415420003e-01,-6.792656654736668465e-01,7.545189055755426033e-02,-2.166749216563408353e+00,3.529778490793567536e-01,1.483358861237852766e+00,7.943232300107349042e-01
1.483333333333333393e+00,2.611872192604882455e-03,3.081348538398742676e-01,1.417447328567504883e-01,5.414595007896423340e-01,1.142854947696729795e-01,-6.781098710793621587e-01,7.493988664636846986e-02,-2.167230766450809476e+00,3.585137790759565513e-01,1.483225345537106055e+00,7.970594849152123906e-01
1.500000000000000000e+00,2.527371411822531850e-03,3.080967068672180176e-01,1.427695453166961670e-01,5.412267446517944336e-01,1.145497859716387568e-01,-6.769402442103630291e-01,7.441547528694694713e-02,-2.167778357241485043e+00,3.640615068835846846e-01,1.483073818681514444e+00,7.998239118721708341e-01
1.516666666666666607e+00,2.448547165805661004e-03,3.080552816390991211e-01,1.437854915857315063e-01,5.409662127494812012e-01,1.148031676461394035e-01,-6.757549944211416193e-01,7.388243160983397340e-02,-2.168390338612010915e+00,3.696179281113615711e-01,1.482903774081228088e+00,8.026138650493284121e-01
1.533333333333333215e+00,2.375620802313468862e-03,3.080106675624847412e-01,1.447932124137878418e-01,5.406779050827026367e-01,1.150457155487809580e-01,-6.745526452797832029e-01,7.334387976249584495e-02,-2.169064796195851130e+00,3.751800442007062197e-01,1.482714950985774660e+00,8.054266931243844185e-01
1.550000000000000044e+00,2.308516688056532797e-03,3.079631328582763672e-01,1.457929909229278564e-01,5.403621196746826172e-01,1.152769335852396743e-01,-6.733319570361536721e-01,7.280220361043689137e-02,-2.169799655739716115e+00,3.807450347155301729e-01,1.482507112315916586e+00,8.082597922359455733e-01
1.566666666666666652e+00,2.247038211021841741e-03,3.079129755496978760e-01,1.467847079038619995e-01,5.400192141532897949e-01,1.154959186719873854e-01,-6.720917900637567444e-01,7.225894171564134494e-02,-2.170592798511313148e+00,3.863102769121833924e-01,1.482279756749822930e+00,8.111106201555773332e-01
1.583333333333333259e+00,2.190973590797264114e-03,3.078605234622955322e-01,1.477679014205932617e-01,5.396495461463928223e-01,1.157015513521970490e-01,-6.708310961226903180e-01,7.171494541863256134e-02,-2.171442066116434866e+00,3.918733398993025641e-01,1.482032116309973446e+00,8.139767263463406621e-01
1.600000000000000089e+00,2.140063049299337824e-03,3.078061640262603760e-01,1.487420499324798584e-01,5.392535924911499023e-01,1.158926391841863940e-01,-6.695488091350529913e-01,7.117055076529742175e-02,-2.172345237883911206e+00,3.974321565577369486e-01,1.481763161610988311e+00,8.168556327331588651e-01
1.616666666666666696e+00,2.093950207387593014e-03,3.077502548694610596e-01,1.497065275907516479e-01,5.388319492340087891e-01,1.160680153106775220e-01,-6.682437986108062944e-01,7.062570730399501950e-02,-2.173300059129278150e+00,4.029850777870787049e-01,1.481471609301490577e+00,8.197447744570385275e-01
1.633333333333333304e+00,2.052514179126778155e-03,3.076930940151214600e-01,1.506607085466384888e-01,5.383849740028381348e-01,1.162266188384442067e-01,-6.669149055378101876e-01,7.008005359946982427e-02,-2.174304300423408609e+00,4.085307154113054784e-01,1.481155987571581401e+00,8.226415926223040742e-01
1.649999999999999911e+00,2.015439310811040045e-03,3.076349794864654541e-01,1.516039371490478516e-01,5.379132628440856934e-01,1.163675434183664148e-01,-6.655609841290445194e-01,6.953296507090257761e-02,-2.175355783488714501e+00,4.140678423609609471e-01,1.480814685114307139e+00,8.255435877969602432e-01
1.666666666666666741e+00,1.982598012252241668e-03,3.075762093067169189e-01,1.525355577468872070e-01,5.374172329902648926e-01,1.164900598296021439e-01,-6.641809107380869381e-01,6.898359603459713885e-02,-2.176452415061152390e+00,4.195953309388144037e-01,1.480445996381670959e+00,8.284483502530471943e-01
1.683333333333333348e+00,1.953737583358312706e-03,3.075169920921325684e-01,1.534549146890640259e-01,5.368974208831787109e-01,1.165936276991528520e-01,-6.627736075221783985e-01,6.843091916698140764e-02,-2.177592189441635018e+00,4.251121242372566389e-01,1.480048160426399972e+00,8.313535774784994725e-01
1.699999999999999956e+00,1.928717849709811992e-03,3.074574768543243408e-01,1.543613672256469727e-01,5.363542437553405762e-01,1.166778955195233031e-01,-6.613380397353192386e-01,6.787376887949363169e-02,-2.178773200666332954e+00,4.306172250886781128e-01,1.479619401311955018e+00,8.342570852348958343e-01
1.716666666666666563e+00,1.907423270172929923e-03,3.073978722095489502e-01,1.552543044090270996e-01,5.357881188392639160e-01,1.167426930554769926e-01,-6.598732228113968201e-01,6.731088022393337533e-02,-2.179993635804452268e+00,4.361096963136559812e-01,1.479157968004214840e+00,8.371568146489551943e-01
1.733333333333333393e+00,1.889604206554423111e-03,3.073382973670959473e-01,1.561332345008850098e-01,5.351995825767517090e-01,1.167880164408047761e-01,-6.583781562169135348e-01,6.674103571495201837e-02,-2.181251684589024631e+00,4.415886317959077934e-01,1.478662021641976132e+00,8.400509115481062938e-01
1.750000000000000000e+00,1.875113416893346967e-03,3.072787821292877197e-01,1.569976955652236938e-01,5.345890522003173828e-01,1.168140127856830829e-01,-6.568518052068913482e-01,6.616312544490188241e-02,-2.182545521955303158e+00,4.470531395779769879e-01,1.478129637401542018e+00,8.429377294083680860e-01
1.766666666666666607e+00,1.863867995811571395e-03,3.072193562984466553e-01,1.578473299741744995e-01,5.339568853378295898e-01,1.168209583222887815e-01,-6.552931354216576798e-01,6.557611099583919578e-02,-2.183873346946287430e+00,4.525023413821742113e-01,1.477558895572823383e+00,8.458157763541815921e-01
1.783333333333333215e+00,1.855664211209045187e-03,3.071600198745727539e-01,1.586818546056747437e-01,5.333035588264465332e-01,1.168092335529246073e-01,-6.537011341026830458e-01,6.497899558699644917e-02,-2.185233401889587590e+00,4.579353804160254948e-01,1.476947958364165148e+00,8.486836774444280751e-01
1.800000000000000044e+00,1.850419651302446936e-03,3.071007728576660156e-01,1.595009863376617432e-01,5.326294302940368652e-01,1.167792878201620865e-01,-6.520748235429408846e-01,6.437079422106328774e-02,-2.186623991204575734e+00,4.633514293730591760e-01,1.476295123821144140e+00,8.515401450983552945e-01
1.816666666666666652e+00,1.847934624518842535e-03,3.070416450500488281e-01,1.603044867515563965e-01,5.319349765777587891e-01,1.167316166161863483e-01,-6.504132835808901225e-01,6.375051828943281707e-02,-2.188043489762685034e+00,4.687497041850820501e-01,1.475598857269196484e+00,8.543839642694723846e-01
1.833333333333333259e+00,1.848007461610275430e-03,3.069826662540435791e-01,1.610921323299407959e-01,5.312206745147705078e-01,1.166667480895009490e-01,-6.487156555984880946e-01,6.311717314816600588e-02,-2.189490357444884072e+00,4.741294744404571659e-01,1.474857815668880967e+00,8.572139919156391841e-01
1.849999999999999867e+00,1.850558341893044668e-03,3.069237172603607178e-01,1.618637591600418091e-01,5.304868817329406738e-01,1.165852509769288170e-01,-6.469811437095034368e-01,6.246977798732104847e-02,-2.190963043108855590e+00,4.794903007316760890e-01,1.474070267912696020e+00,8.600290423802690043e-01
1.866666666666666696e+00,1.855347862406373774e-03,3.068645894527435303e-01,1.626192778348922729e-01,5.297341346740722656e-01,1.164877646767339542e-01,-6.452090712249236581e-01,6.180733155948247431e-02,-2.192459985208135009e+00,4.848319471823973603e-01,1.473234095602691029e+00,8.628279441867531263e-01
1.883333333333333304e+00,1.862175946486686754e-03,3.068049848079681396e-01,1.633585989475250244e-01,5.289629697799682617e-01,1.163750003643734404e-01,-6.433988071191528713e-01,6.112879088375826331e-02,-2.193979631532965602e+00,4.901542361044452512e-01,1.472347014340104510e+00,8.656095263522918248e-01
1.899999999999999911e+00,1.870884373556234732e-03,3.067445755004882812e-01,1.640816777944564819e-01,5.281739234924316406e-01,1.162477082679315432e-01,-6.415494910137160556e-01,6.043301870027841666e-02,-2.195520292129985229e+00,4.954571077036819537e-01,1.471406141262033840e+00,8.683725550654854963e-01
1.916666666666666741e+00,1.881445123364866535e-03,3.066829442977905273e-01,1.647883951663970947e-01,5.273674726486206055e-01,1.161066989374319597e-01,-6.396600320132704853e-01,5.971876924439527279e-02,-2.197080172466031378e+00,5.007405054218586615e-01,1.470408238568444936e+00,8.711157002184597431e-01
1.933333333333333348e+00,1.893862649670819158e-03,3.066197633743286133e-01,1.654787063598632812e-01,5.265440940856933594e-01,1.159529851705918685e-01,-6.377291586901109310e-01,5.898462753951191906e-02,-2.198657390873711925e+00,5.060042758413700881e-01,1.469349983295622941e+00,8.738374877378140004e-01
1.949999999999999956e+00,1.908197665119076717e-03,3.065547347068786621e-01,1.661524623632431030e-01,5.257042646408081055e-01,1.157877361078726297e-01,-6.357555217866870390e-01,5.822900536412871364e-02,-2.200250030949235214e+00,5.112481463180194030e-01,1.468228237191787411e+00,8.765362823541684723e-01
1.966666666666666563e+00,1.924476014176015881e-03,3.064876198768615723e-01,1.668095886707305908e-01,5.248485207557678223e-01,1.156122050357938497e-01,-6.337378614324374881e-01,5.745029657402141166e-02,-2.201856230575274243e+00,5.164717403405639784e-01,1.467040286951704298e+00,8.792101912158328814e-01
1.983333333333333393e+00,1.942684957026161955e-03,3.064182698726654053e-01,1.674499958753585815e-01,5.239774584770202637e-01,1.154277007208555916e-01,-6.316749391599379981e-01,5.664695968291619949e-02,-2.203474211644256275e+00,5.216746678358967770e-01,1.465784035250572659e+00,8.818571613490681083e-01
2.000000000000000000e+00,1.963190204953156950e-03,3.063465058803558350e-01,1.680735796689987183e-01,5.230913162231445312e-01,1.152357602356997579e-01,-6.295651819912344571e-01,5.581745271736962555e-02,-2.205102366067136277e+00,5.268559223577634620e-01,1.464457094845864171e+00,8.844753336307896729e-01
2.016666666666666607e+00,1.986619012626718479e-03,3.062721192836761475e-01,1.686801612377166748e-01,5.221900939941406250e-01,1.150382514483129642e-01,-6.274066151148781634e-01,5.496011671442624369e-02,-2.206739309648404923e+00,5.320138442027744219e-01,1.463056827395602832e+00,8.870631648096025668e-01
2.033333333333333215e+00,2.012167107059517537e-03,3.061960339546203613e-01,1.692699342966079712e-01,5.212748050689697266e-01,1.148362396532876528e-01,-6.251983217658402259e-01,5.407309632535746424e-02,-2.208383734192556069e+00,5.371502827562641968e-01,1.461586250943442744e+00,8.896183556520120828e-01
2.049999999999999822e+00,2.039740484692847012e-03,3.061186671257019043e-01,1.698428094387054443e-01,5.203458666801452637e-01,1.146314235743971788e-01,-6.229388296259563695e-01,5.315443532456874676e-02,-2.210034594550312814e+00,5.422649174633349389e-01,1.460046118408110605e+00,8.921394784977935144e-01
2.066666666666666430e+00,2.069235060895771496e-03,3.060405552387237549e-01,1.703987270593643188e-01,5.194035768508911133e-01,1.144255816390995772e-01,-6.206269375015529555e-01,5.220217969590879720e-02,-2.211691072499550437e+00,5.473573931252979641e-01,1.458437802844451125e+00,8.946254267575777241e-01
2.083333333333333481e+00,2.100373285853547427e-03,3.059621453285217285e-01,1.709376126527786255e-01,5.184484124183654785e-01,1.142205599547732597e-01,-6.182618236767459807e-01,5.121442875521972637e-02,-2.213352539608596015e+00,5.524273090784678208e-01,1.456763185133384653e+00,8.970755210452325823e-01
2.100000000000000089e+00,2.132820406861419237e-03,3.058839738368988037e-01,1.714594662189483643e-01,5.174807906150817871e-01,1.140181714790022144e-01,-6.158430312079734570e-01,5.018942548690821098e-02,-2.215018615730522278e+00,5.574742506179476420e-01,1.455024533783690233e+00,8.994895014631288932e-01
2.116666666666666696e+00,2.166264943667381860e-03,3.058064579963684082e-01,1.719642430543899536e-01,5.165011286735534668e-01,1.138201292531424158e-01,-6.133704495702422266e-01,4.912561282237252330e-02,-2.216689172932044372e+00,5.624978082776892485e-01,1.453224399849033066e+00,9.018674850905867846e-01
2.133333333333333304e+00,2.200373822889292123e-03,3.057299554347991943e-01,1.724520027637481689e-01,5.155098438262939453e-01,1.136280010500752419e-01,-6.108442822893730417e-01,4.802166070666258335e-02,-2.218364309082581975e+00,5.674975849779468895e-01,1.451365525842695181e+00,9.042099175469935357e-01
2.149999999999999911e+00,2.234895865806141389e-03,3.056548833847045898e-01,1.729227751493453979e-01,5.145071744918823242e-01,1.134431200266175915e-01,-6.082648879264253017e-01,4.687658828625861085e-02,-2.220044265990920973e+00,5.724731758010077609e-01,1.449450834269006227e+00,9.065174596784615346e-01
2.166666666666666519e+00,2.269419332071016902e-03,3.055815398693084717e-01,1.733766794204711914e-01,5.134935975074768066e-01,1.132665678210210136e-01,-6.056327707487371148e-01,4.568976063307968877e-02,-2.221729395407364915e+00,5.774241658110479403e-01,1.447483345743465932e+00,9.087909282887172147e-01
2.183333333333333126e+00,2.303750657805793151e-03,3.055102825164794922e-01,1.738138049840927124e-01,5.124692320823669434e-01,1.130991859899415641e-01,-6.029486204947447359e-01,4.446080821484255791e-02,-2.223420129710398818e+00,5.823501342085255494e-01,1.445466083088496223e+00,9.110312673968129493e-01
2.200000000000000178e+00,2.337583660324459457e-03,3.054413199424743652e-01,1.742342859506607056e-01,5.114344358444213867e-01,1.129415853229093908e-01,-6.002132228516325885e-01,4.318956537804197887e-02,-2.225117004229959505e+00,5.872506785371603977e-01,1.443401938710182852e+00,9.132395722117561121e-01
2.216666666666666785e+00,2.370864620772390394e-03,3.053748309612274170e-01,1.746382862329483032e-01,5.103892087936401367e-01,1.127941756839333926e-01,-5.974271085470254095e-01,4.187614441391040304e-02,-2.226820780062832572e+00,5.921256106404877428e-01,1.441293370322454193e+00,9.154171524673976323e-01
2.233333333333333393e+00,2.403618010131162996e-03,3.053108751773834229e-01,1.750260442495346069e-01,5.093334913253784180e-01,1.126572365979685575e-01,-5.945907809385924114e-01,4.052088553128087994e-02,-2.228532262169690359e+00,5.969748755412532804e-01,1.439142351935591702e+00,9.175654209842315501e-01
2.250000000000000000e+00,2.435986915201723661e-03,3.052493929862976074e-01,1.753977388143539429e-01,5.082671642303466797e-01,1.125307563723301485e-01,-5.917047734518561253e-01,3.912421124487888008e-02,-2.230252440181429208e+00,6.017984769868207628e-01,1.436950615031125533e+00,9.196858330261518111e-01
2.266666666666666607e+00,2.468119272400161410e-03,3.051903843879699707e-01,1.757534444332122803e-01,5.071900486946105957e-01,1.124143417920961396e-01,-5.887696913986198988e-01,3.768651160518814852e-02,-2.231982525205093992e+00,6.065964719700119856e-01,1.434719850622445447e+00,9.217798416804625639e-01
2.283333333333333215e+00,2.500098151670168255e-03,3.051339089870452881e-01,1.760931015014648438e-01,5.061020255088806152e-01,1.123073245637715850e-01,-5.857863248392600752e-01,3.620809128048181613e-02,-2.233723663764151990e+00,6.113689272280447007e-01,1.432451684336334630e+00,9.238488077067654736e-01
2.299999999999999822e+00,2.531980207476840477e-03,3.050799369812011719e-01,1.764165610074996948e-01,5.050031542778015137e-01,1.122089220568436435e-01,-5.827555440268457065e-01,3.468913627593259857e-02,-2.235476793472040757e+00,6.161158895171604533e-01,1.430147422581811156e+00,9.258940069873994316e-01
2.316666666666666430e+00,2.564016052265118573e-03,3.050283193588256836e-01,1.767237037420272827e-01,5.038933157920837402e-01,1.121186055609796617e-01,-5.796777076961279196e-01,3.312963551594869799e-02,-2.237242533767493935e+00,6.208373093382603125e-01,1.427807169222175432e+00,9.279167892938362527e-01
2.333333333333333481e+00,2.595699990674375790e-03,3.049794137477874756e-01,1.770143806934356689e-01,5.027730464935302734e-01,1.120347408085927560e-01,-5.765535449355622122e-01,3.152941581857598985e-02,-2.239021107169682168e+00,6.255351506924289318e-01,1.425432527593864407e+00,9.299177617183790323e-01
2.350000000000000089e+00,2.627744270998265928e-03,3.049325048923492432e-01,1.772885024547576904e-01,5.016422271728515625e-01,1.119580550595652146e-01,-5.733828805843126375e-01,2.988816703984162673e-02,-2.240812303884704093e+00,6.302077006016310046e-01,1.423021016718424514e+00,9.318982266132455061e-01
2.366666666666666696e+00,2.660270580898764590e-03,3.048872351646423340e-01,1.775458753108978271e-01,5.005013942718505859e-01,1.118889810836704718e-01,-5.701660973808712063e-01,2.820544616977793337e-02,-2.242615143178358306e+00,6.348536703364857647e-01,1.420571111730101643e+00,9.338588348967030717e-01
2.383333333333333304e+00,2.693105667987948700e-03,3.048434555530548096e-01,1.777863204479217529e-01,4.993513822555541992e-01,1.118275559666745550e-01,-5.669040263432018056e-01,2.648066930649966774e-02,-2.244428269316379509e+00,6.394724266164928395e-01,1.418082351973211974e+00,9.357996909171871769e-01
2.399999999999999911e+00,2.725862731162675880e-03,3.048011958599090576e-01,1.780095696449279785e-01,4.981932640075683594e-01,1.117738358421620226e-01,-5.635976731286428398e-01,2.471313528205574747e-02,-2.246250203483485475e+00,6.440633680841549857e-01,1.415554652079389353e+00,9.377206777825636275e-01
2.416666666666666519e+00,2.758163189676425715e-03,3.047605752944946289e-01,1.782153993844985962e-01,4.970279932022094727e-01,1.117277903641966663e-01,-5.602481020712458681e-01,2.290209008340009234e-02,-2.248079604824220645e+00,6.486260371305502259e-01,1.412988390503311376e+00,9.396216100258905080e-01
2.433333333333333126e+00,2.789651767663612562e-03,3.047217130661010742e-01,1.784035116434097290e-01,4.958565533161163330e-01,1.116893325493515943e-01,-5.568564280792128729e-01,2.104679698005516505e-02,-2.249915312374469512e+00,6.531600810091738873e-01,1.410384256422383409e+00,9.415023396392323551e-01
2.450000000000000178e+00,2.819441689600148473e-03,3.046852946281433105e-01,1.785735636949539185e-01,4.946801066398620605e-01,1.116571293472240212e-01,-5.534241434027920015e-01,1.914660849993484945e-02,-2.251756353321405779e+00,6.576665661073255453e-01,1.407744273901635701e+00,9.433624119621598636e-01
2.466666666666666785e+00,2.847616000955236187e-03,3.046510815620422363e-01,1.787254661321640015e-01,4.934993088245391846e-01,1.116319495114846544e-01,-5.499522793131783605e-01,1.720101588939272272e-02,-2.253601927122451887e+00,6.621443022394565281e-01,1.405068468206423171e+00,9.452021546295520382e-01
2.483333333333333393e+00,2.874139871147546408e-03,3.046190142631530762e-01,1.788591742515563965e-01,4.923147559165954590e-01,1.116141877457305503e-01,-5.464420915105460130e-01,1.520971292251126726e-02,-2.255451349091871727e+00,6.665924862249739125e-01,1.402357346888689182e+00,9.470218753329685546e-01
2.500000000000000000e+00,2.898870255314297487e-03,3.045890927314758301e-01,1.789746135473251343e-01,4.911271929740905762e-01,1.116038189794499452e-01,-5.428950454331835651e-01,1.317260033903992246e-02,-2.257304041741015510e+00,6.710107353318977008e-01,1.399611856981870961e+00,9.488218244350401509e-01
2.516666666666666607e+00,2.921680432898676391e-03,3.045613169670104980e-01,1.790717989206314087e-01,4.899373054504394531e-01,1.116008263525020139e-01,-5.393126681584765603e-01,1.108973006309371331e-02,-2.259159495970477494e+00,6.753986697045702980e-01,1.396832967752717147e+00,9.506022836562657563e-01
2.533333333333333215e+00,2.942501014363683998e-03,3.045356273651123047e-01,1.791507452726364136e-01,4.887457787990570068e-01,1.116051963898986726e-01,-5.356965213496935885e-01,8.961253531029340913e-03,-2.261017253008421157e+00,6.797559224982466786e-01,1.394021672405771906e+00,9.523635391578821885e-01
2.549999999999999822e+00,2.961142975991376200e-03,3.045121431350708008e-01,1.792114824056625366e-01,4.875532388687133789e-01,1.116165299132473032e-01,-5.320482468601619441e-01,6.787385603255546157e-03,-2.262876901133560548e+00,6.840824559554955497e-01,1.391179196973682197e+00,9.541057702020727671e-01
2.566666666666666430e+00,2.977382402541555416e-03,3.044909834861755371e-01,1.792539060115814209e-01,4.863604605197906494e-01,1.116340000478992234e-01,-5.283695585155605556e-01,4.568405209134233577e-03,-2.264738112585960916e+00,6.883785706555064499e-01,1.388306956583253982e+00,9.558290419100077262e-01
2.583333333333333481e+00,2.991532177365110318e-03,3.044717609882354736e-01,1.792783141136169434e-01,4.851678013801574707e-01,1.116587496847683270e-01,-5.246618505429976320e-01,2.304603945084702024e-03,-2.266600551783844786e+00,6.926429768764994499e-01,1.385405272815121380e+00,9.575339035807006738e-01
2.600000000000000089e+00,3.003590356987735806e-03,3.044544458389282227e-01,1.792847663164138794e-01,4.839757680892944336e-01,1.116907473872108536e-01,-5.209266805828542957e-01,-3.727113088465268745e-06,-2.268463902026925272e+00,6.968753571744817910e-01,1.382475143556931796e+00,9.592205896725070069e-01
2.616666666666666696e+00,3.013537795558693735e-03,3.044389784336090088e-01,1.792733371257781982e-01,4.827849566936492920e-01,1.117299342520427646e-01,-5.171655797202577842e-01,-2.356304963583102669e-03,-2.270327872065238228e+00,7.010754083089495436e-01,1.379517553344467906e+00,9.608893152567564711e-01
2.633333333333333304e+00,3.021395854433582984e-03,3.044253587722778320e-01,1.792440712451934814e-01,4.815957844257354736e-01,1.117761938995986970e-01,-5.133800282507416934e-01,-4.752868783634920345e-03,-2.272192218175757006e+00,7.052428389901851391e-01,1.376533460730804403e+00,9.625402923906540842e-01
2.649999999999999911e+00,3.027102123315901592e-03,3.044136464595794678e-01,1.791969239711761475e-01,4.804087877273559570e-01,1.118290125315142408e-01,-5.095715021281421730e-01,-7.193117054310827277e-03,-2.274056632539126266e+00,7.093776026766543952e-01,1.373523820022881869e+00,9.641737459510734132e-01
2.666666666666666519e+00,3.030634370995604395e-03,3.044039607048034668e-01,1.791318058967590332e-01,4.792243242263793945e-01,1.118874322090987333e-01,-5.057413650023055984e-01,-9.676759986982879161e-03,-2.275921245539858084e+00,7.134799079555664836e-01,1.370489683433597117e+00,9.657897887196505993e-01
2.683333333333333126e+00,3.032606676144725469e-03,3.043958842754364014e-01,1.790488809347152710e-01,4.780422151088714600e-01,1.119523571479156543e-01,-5.018906542140150195e-01,-1.220357071533872441e-02,-2.277786677951521899e+00,7.175487178299518876e-01,1.367431477426779063e+00,9.673888696991720382e-01
2.700000000000000178e+00,3.033368855533569598e-03,3.043892383575439453e-01,1.789481937885284424e-01,4.768624603748321533e-01,1.120236795089619014e-01,-4.980204992472626602e-01,-1.477336331743282251e-02,-2.279653692469509885e+00,7.215837441678589759e-01,1.364349987444961387e+00,9.689711236341310707e-01
2.716666666666666785e+00,3.033500762518509877e-03,3.043835759162902832e-01,1.788297742605209351e-01,4.756850600242614746e-01,1.121013542779415728e-01,-4.941321417221666845e-01,-1.738592715204779343e-02,-2.281522863669665835e+00,7.255847002104958143e-01,1.361244598414347529e+00,9.705366003450448531e-01
2.733333333333333393e+00,3.033580463409887851e-03,3.043782114982604980e-01,1.786936074495315552e-01,4.745105206966400146e-01,1.121854192449233262e-01,-4.902272233798155021e-01,-2.004144757637129487e-02,-2.283394314254346913e+00,7.295514570523371489e-01,1.358113603623682719e+00,9.720851631335840626e-01
2.750000000000000000e+00,3.033919619247715978e-03,3.043727278709411621e-01,1.785393208265304565e-01,4.733396470546722412e-01,1.122746591173881814e-01,-4.863075630218348655e-01,-2.274037226474292725e-02,-2.285267797366884235e+00,7.334847352230279283e-01,1.354955006481949109e+00,9.736162222112537679e-01
2.766666666666666607e+00,3.035162883197103662e-03,3.043662309646606445e-01,1.783671230077743530e-01,4.721731245517730713e-01,1.123705180894923189e-01,-4.823746365381578194e-01,-2.548330641767701868e-02,-2.287142688677942459e+00,7.373837877985786049e-01,1.351766089967481710e+00,9.751294860892227856e-01
2.783333333333333215e+00,3.037604072236605758e-03,3.043582737445831299e-01,1.781768947839736938e-01,4.710117578506469727e-01,1.124730184710974468e-01,-4.784297131078920629e-01,-2.827086284405392475e-02,-2.289018193723151740e+00,7.412487401846384882e-01,1.348544609251900228e+00,9.766241236661855618e-01
2.799999999999999822e+00,3.041449049941002611e-03,3.043484985828399658e-01,1.779685467481613159e-01,4.698563814163208008e-01,1.125821507895482243e-01,-4.744738336100095544e-01,-3.110365071144728308e-02,-2.290893441727889890e+00,7.450797928639162349e-01,1.345288755538336600e+00,9.780991096365404536e-01
2.816666666666666430e+00,3.046713353426593485e-03,3.043369054794311523e-01,1.777418255805969238e-01,4.687076508998870850e-01,1.126978708994393480e-01,-4.705078740123910808e-01,-3.398265643628847060e-02,-2.292767648296232696e+00,7.488771654002051026e-01,1.341997309145384953e+00,9.795533995081886491e-01
2.833333333333333481e+00,3.053206405541496367e-03,3.043239116668701172e-01,1.774958074092864990e-01,4.675662517547607422e-01,1.128190939140446269e-01,-4.665325338298872415e-01,-3.691018855584516506e-02,-2.294640364566787216e+00,7.526415157546341161e-01,1.338669763800166779e+00,9.809860208249194802e-01
2.850000000000000089e+00,3.060884861602944200e-03,3.043098747730255127e-01,1.772296428680419922e-01,4.664326012134552002e-01,1.129463098755727618e-01,-4.625482170000608795e-01,-3.988941052320942732e-02,-2.296511347178560314e+00,7.563727468204715088e-01,1.335305773534110951e+00,9.823965783888639614e-01
2.866666666666666696e+00,3.069609976816428144e-03,3.042953312397003174e-01,1.769423037767410278e-01,4.653070867061614990e-01,1.130799283734860439e-01,-4.585550793005114256e-01,-4.292399760672335751e-02,-2.298380354196022601e+00,7.600708905631295975e-01,1.331905170597716292e+00,9.837848483869175986e-01
2.883333333333333304e+00,3.079139095418625960e-03,3.042809963226318359e-01,1.766327321529388428e-01,4.641900062561035156e-01,1.132203374579928146e-01,-4.545529943256487737e-01,-4.601785741644310451e-02,-2.300247007093870977e+00,7.637360499041832007e-01,1.328467946002251709e+00,9.851505686029422559e-01
2.899999999999999911e+00,3.089321562432364044e-03,3.042674660682678223e-01,1.762999296188354492e-01,4.630817174911499023e-01,1.133680356385165372e-01,-4.505417446241142820e-01,-4.917471576429110341e-02,-2.302110862607012365e+00,7.673684823410816813e-01,1.324994221512334924e+00,9.864935127013831906e-01
2.916666666666666519e+00,3.099916193428659678e-03,3.042553961277008057e-01,1.759432703256607056e-01,4.619825184345245361e-01,1.135239898424730276e-01,-4.465210885557989173e-01,-5.239786580618099182e-02,-2.303971452583329249e+00,7.709685087251004765e-01,1.321484276306923222e+00,9.878135714708285997e-01
2.933333333333333126e+00,3.110953966235208232e-03,3.042451143264770508e-01,1.755625158548355103e-01,4.608925879001617432e-01,1.136901647493957918e-01,-4.424907193404530870e-01,-5.569006232718664434e-02,-2.305828322533414632e+00,7.745363339803247316e-01,1.317938575842391824e+00,9.891108183262763420e-01
2.950000000000000178e+00,3.122494128701185957e-03,3.042368292808532715e-01,1.751578301191329956e-01,4.598121047019958496e-01,1.138688441540328666e-01,-4.384504647162605351e-01,-5.905339715317750593e-02,-2.307681079339769514e+00,7.780722140283181654e-01,1.314357792952888460e+00,9.903854339368002302e-01
2.966666666666666785e+00,3.134612905693492588e-03,3.042306900024414062e-01,1.747295409440994263e-01,4.587412774562835693e-01,1.140621142274522992e-01,-4.344002041889988286e-01,-6.248917797585810258e-02,-2.309529164964251979e+00,7.815767633614000287e-01,1.310742555827002720e+00,9.916375100908404461e-01
2.983333333333333393e+00,3.147515348256083294e-03,3.042265474796295166e-01,1.742784380912780762e-01,4.576803147792816162e-01,1.142727422701289436e-01,-4.303399768046533014e-01,-6.599797007680352490e-02,-2.311371943573372167e+00,7.850503405992125261e-01,1.307093431646054071e+00,9.928672181726780899e-01
3.000000000000000000e+00,3.161305466402003928e-03,3.042242825031280518e-01,1.738054007291793823e-01,4.566294848918914795e-01,1.145027489034848855e-01,-4.262701739134598378e-01,-6.957955565302920142e-02,-2.313209069284114516e+00,7.884937102333472447e-01,1.303411177642646912e+00,9.940747192654644238e-01
3.016666666666666607e+00,3.176281242946451568e-03,3.042234480381011963e-01,1.733115911483764648e-01,4.555889070034027100e-01,1.147547929484750151e-01,-4.221914823036271303e-01,-7.323309748527931373e-02,-2.315040383975134120e+00,7.919072754848686113e-01,1.299696659974763469e+00,9.952603530236662221e-01
3.033333333333333215e+00,3.192625290556397235e-03,3.042236864566802979e-01,1.727982014417648315e-01,4.545585215091705322e-01,1.150311856393758519e-01,-4.181042689311428862e-01,-7.695737667880545030e-02,-2.316865810269507886e+00,7.952913857962938815e-01,1.295950945651173525e+00,9.964244478681014705e-01
3.049999999999999822e+00,3.210287485775125457e-03,3.042249679565429688e-01,1.722662746906280518e-01,4.535379707813262939e-01,1.153333801728364666e-01,-4.140078063920931695e-01,-8.075096257867966920e-02,-2.318685255874327833e+00,7.986464467128755462e-01,1.292175262364230637e+00,9.975672271652191725e-01
3.066666666666666430e+00,3.229174989934031036e-03,3.042273819446563721e-01,1.717166006565093994e-01,4.525267481803894043e-01,1.156619233019997722e-01,-4.099009652663319625e-01,-8.461226281048762898e-02,-2.320498477140426008e+00,8.019729471639304164e-01,1.288370851111535043e+00,9.986889934808097502e-01
3.083333333333333481e+00,3.248979569562514269e-03,3.042311966419219971e-01,1.711498647928237915e-01,4.515244960784912109e-01,1.160168436778151457e-01,-4.057827012139110234e-01,-8.853954099128563682e-02,-2.322304970256739320e+00,8.052713845634057455e-01,1.284538853096698352e+00,9.997902594530214682e-01
3.100000000000000089e+00,3.269377814848622998e-03,3.042365312576293945e-01,1.705667972564697266e-01,4.505311548709869385e-01,1.163981617969831739e-01,-4.016525527476338953e-01,-9.253088619848992558e-02,-2.324103774222497698e+00,8.085420706280296299e-01,1.280680040929772057e+00,1.000871605535929021e+00
3.116666666666666696e+00,3.289914642202293633e-03,3.042435348033905029e-01,1.699679642915725708e-01,4.495472013950347900e-01,1.168054983652798556e-01,-3.975109334772852221e-01,-9.658421321202689813e-02,-2.325893379029029706e+00,8.117852972772408027e-01,1.276794770010553748e+00,1.001933473997025370e+00
3.133333333333333304e+00,3.310094907827442097e-03,3.042523562908172607e-01,1.693538427352905273e-01,4.485733807086944580e-01,1.172378784446811290e-01,-3.933589166201674758e-01,-1.006973370765496117e-01,-2.327672005750683226e+00,8.150014165920442810e-01,1.272883215997529627e+00,1.002976108252211729e+00
3.149999999999999911e+00,3.329588254076960505e-03,3.042630553245544434e-01,1.687248647212982178e-01,4.476101994514465332e-01,1.176943303631129700e-01,-3.891972710234046784e-01,-1.048680195200110687e-01,-2.329438170321862511e+00,8.181906271443032397e-01,1.268945546329843577e+00,1.003999830052982212e+00
3.166666666666666519e+00,3.347947442497899422e-03,3.042757809162139893e-01,1.680815517902374268e-01,4.466581642627716064e-01,1.181736380640990430e-01,-3.850267793181814113e-01,-1.090935305504544262e-01,-2.331190456201442274e+00,8.213532113107415711e-01,1.264981973634115908e+00,1.005004998198608668e+00
3.183333333333333126e+00,3.364901897172198515e-03,3.042903244495391846e-01,1.674246490001678467e-01,4.457177817821502686e-01,1.186753908723696682e-01,-3.808484967612379424e-01,-1.133710038606544762e-01,-2.332927478426968904e+00,8.244890474866080066e-01,1.260992628948284011e+00,1.005992068595367384e+00
3.200000000000000178e+00,3.380094879008238313e-03,3.043065667152404785e-01,1.667548567056655884e-01,4.447896182537078857e-01,1.191992502257270825e-01,-3.766639260368603304e-01,-1.176976212516500364e-01,-2.334647842269981233e+00,8.275979096350379871e-01,1.256977641576682680e+00,1.006961565481866661e+00
3.216666666666666785e+00,3.393220652404518606e-03,3.043243288993835449e-01,1.660727113485336304e-01,4.438744783401489258e-01,1.197446080477807540e-01,-3.724750106531012350e-01,-1.220708185785110284e-01,-2.336350174102561628e+00,8.306795873615876458e-01,1.252937151845729291e+00,1.007913811906334001e+00
3.233333333333333393e+00,3.403972441619661747e-03,3.043435215950012207e-01,1.653785854578018188e-01,4.429731965065002441e-01,1.203107246757660204e-01,-3.682840372102659243e-01,-1.264883958311437406e-01,-2.338033138827747326e+00,8.337338053149340178e-01,1.248871303287386159e+00,1.008848871352009846e+00
3.250000000000000000e+00,3.412055950812040422e-03,3.043641746044158936e-01,1.646725535392761230e-01,4.420867860317230225e-01,1.208962337668810089e-01,-3.640935483373486381e-01,-1.309483727032365319e-01,-2.339695347410919446e+00,8.367604089600970685e-01,1.244780351264556995e+00,1.009766354087654694e+00
3.266666666666666607e+00,3.417143577028465898e-03,3.043863773345947266e-01,1.639546900987625122e-01,4.412162303924560547e-01,1.214999941488004720e-01,-3.599061798570140636e-01,-1.354489588814316026e-01,-2.341335294616745166e+00,8.397589264307205870e-01,1.240664677549355721e+00,1.010665624412028007e+00
3.283333333333333215e+00,3.418949860638965162e-03,3.044103980064392090e-01,1.632247865200042725e-01,4.403624534606933594e-01,1.221204446648021524e-01,-3.557243844278258349e-01,-1.399886027671331246e-01,-2.342951332918227436e+00,8.427288083880127845e-01,1.236524626284075890e+00,1.011545648991135415e+00
3.299999999999999822e+00,3.417151277821565882e-03,3.044365346431732178e-01,1.624825745820999146e-01,4.395265579223632812e-01,1.227556685624534433e-01,-3.515505968827706829e-01,-1.445658043954481942e-01,-2.344541656482536318e+00,8.456696071128091408e-01,1.232360412643982883e+00,1.012405172625648886e+00
3.316666666666666430e+00,3.411440231018563612e-03,3.044650852680206299e-01,1.617278307676315308e-01,4.387095272541046143e-01,1.234037594833638646e-01,-3.473871631439496288e-01,-1.491788007557370288e-01,-2.346104319529254578e+00,8.485809241798939473e-01,1.228172030852241026e+00,1.013242645066748659e+00
3.333333333333333481e+00,3.401492879953684455e-03,3.044962584972381592e-01,1.609604209661483765e-01,4.379124343395233154e-01,1.240629632105809815e-01,-3.432363091284154621e-01,-1.538256861386362861e-01,-2.347637410796810986e+00,8.514623078195078243e-01,1.223959342726057331e+00,1.014056260441387858e+00
3.350000000000000089e+00,3.387043075933791544e-03,3.045302927494049072e-01,1.601801663637161255e-01,4.371361732482910156e-01,1.247311479825181230e-01,-3.391002480001086838e-01,-1.585044974700869080e-01,-2.349139169859239207e+00,8.543135653118663075e-01,1.219722134976904071e+00,1.014843984960255074e+00
3.366666666666666696e+00,3.367724865720906745e-03,3.045670390129089355e-01,1.593873351812362671e-01,4.363819658756256104e-01,1.254075935038839462e-01,-3.349815707602688541e-01,-1.632131318040226375e-01,-2.350607864637872080e+00,8.571346236581364186e-01,1.215459888174217351e+00,1.015603656196363058e+00
3.383333333333333304e+00,3.343118918923145000e-03,3.046065270900726318e-01,1.585820913314819336e-01,4.356509149074554443e-01,1.260911707899328993e-01,-3.308830240196407591e-01,-1.679495872604732098e-01,-2.352041993655969776e+00,8.599257672753635173e-01,1.211172063792255393e+00,1.016332984584634280e+00
3.399999999999999911e+00,3.312961042940171935e-03,3.046485781669616699e-01,1.577645987272262573e-01,4.349440634250640869e-01,1.267807284807032364e-01,-3.268072287986706903e-01,-1.727120131959702931e-01,-2.353440434265583026e+00,8.626873378183855801e-01,1.206858101659579630e+00,1.017029624779483665e+00
3.416666666666666519e+00,3.277093976985201960e-03,3.046931326389312744e-01,1.569348424673080444e-01,4.342621862888336182e-01,1.274750324616918118e-01,-3.227565354407286868e-01,-1.774988200579986908e-01,-2.354802532548925242e+00,8.654196325260600231e-01,1.202517495449048957e+00,1.017691336567127625e+00
3.433333333333333126e+00,3.235526621789990443e-03,3.047400414943695068e-01,1.560927480459213257e-01,4.336058795452117920e-01,1.281728463457205980e-01,-3.187329327448683580e-01,-1.823087142525688931e-01,-2.356128040283177238e+00,8.681228776015365023e-01,1.198149849678617151e+00,1.018316039234962611e+00
3.449999999999999734e+00,3.188403642250141768e-03,3.047892153263092041e-01,1.552381813526153564e-01,4.329753816127777100e-01,1.288729941036862725e-01,-3.147380424881023320e-01,-1.871406674878001719e-01,-2.357417023853954241e+00,8.707972387549401949e-01,1.193754882931775452e+00,1.018901844914518628e+00
3.466666666666666785e+00,3.135909471912701717e-03,3.048406243324279785e-01,1.543709337711334229e-01,4.323708713054656982e-01,1.295742409688173113e-01,-3.107731732673290059e-01,-1.919938643431860215e-01,-2.358669792082934258e+00,8.734428997355332402e-01,1.189332425176484964e+00,1.019447054113125972e+00
3.483333333333333393e+00,3.078411725079122259e-03,3.048941195011138916e-01,1.534908264875411987e-01,4.317922592163085938e-01,1.302755497682389629e-01,-3.068393688195112934e-01,-1.968675487018128611e-01,-2.359886917977993548e+00,8.760599173550026597e-01,1.184882433717032502e+00,1.019950039379702300e+00
3.500000000000000000e+00,3.016318860919913088e-03,3.049495220184326172e-01,1.525977253913879395e-01,4.312393665313720703e-01,1.309760829427381035e-01,-3.029373949720915449e-01,-2.017609646700395110e-01,-2.361069207098057010e+00,8.786482229599894556e-01,1.180404949506691281e+00,1.020409205799775121e+00
3.516666666666666607e+00,2.950090469646856825e-03,3.050067722797393799e-01,1.516913920640945435e-01,4.307118654251098633e-01,1.316744407944065720e-01,-2.990677518269996837e-01,-2.066732861048290737e-01,-2.362217538382733295e+00,8.812078927682172047e-01,1.175900025834556661e+00,1.020823207827161516e+00
3.533333333333333215e+00,2.880262237379554134e-03,3.050657212734222412e-01,1.507716178894042969e-01,4.302093684673309326e-01,1.323691953680156685e-01,-2.952307894518085840e-01,-2.116036359137328793e-01,-2.363332764286680376e+00,8.837390364571114931e-01,1.171367735233404428e+00,1.021190889136238900e+00
3.549999999999999822e+00,2.807253051715054119e-03,3.051264286041259766e-01,1.498380601406097412e-01,4.297316670417785645e-01,1.330584972944408306e-01,-2.914268688121883777e-01,-2.165510803621737701e-01,-2.364415640899615756e+00,8.862419629717145364e-01,1.166808189023504694e+00,1.021511113479559807e+00
3.566666666666666430e+00,2.731280207298012082e-03,3.051890134811401367e-01,1.488905102014541626e-01,4.292787909507751465e-01,1.337405208398233236e-01,-2.876566974679493627e-01,-2.215144579137861836e-01,-2.365466251866182201e+00,8.887172302306315386e-01,1.162221579916943748e+00,1.021782582305139853e+00
3.583333333333333481e+00,2.652387138831510064e-03,3.052536547183990479e-01,1.479288041591644287e-01,4.288510978221893311e-01,1.344135240882810833e-01,-2.839212858073281720e-01,-2.264924826284007708e-01,-2.366484244474263754e+00,8.911655261739543921e-01,1.157608160358877480e+00,1.022003765937022246e+00
3.600000000000000089e+00,2.570653183077395258e-03,3.053205907344818115e-01,1.469527035951614380e-01,4.284489452838897705e-01,1.350754949607281263e-01,-2.802217743219303503e-01,-2.314838022058635369e-01,-2.367469165455848845e+00,8.935876496609176378e-01,1.152968229019101010e+00,1.022173000679180710e+00
3.616666666666666696e+00,2.486165619062708030e-03,3.053900003433227539e-01,1.459620594978332520e-01,4.280727207660675049e-01,1.357246875647929174e-01,-2.765592767567813803e-01,-2.364870480334420044e-01,-2.368420632141195359e+00,8.959842690474019156e-01,1.148302094888277169e+00,1.022288628247504993e+00
3.633333333333333304e+00,2.399168654463800995e-03,3.054619431495666504e-01,1.449567675590515137e-01,4.277226328849792480e-01,1.363596385242175912e-01,-2.729347841633517624e-01,-2.415008823479599664e-01,-2.369338436254805114e+00,8.983559020335082357e-01,1.143610066683452331e+00,1.022349063764013577e+00
3.649999999999999911e+00,2.310045066866928381e-03,3.055364191532135010e-01,1.439367383718490601e-01,4.273987114429473877e-01,1.369785431434817069e-01,-2.693492488306660770e-01,-2.465237337406372686e-01,-2.370222978377603873e+00,9.007031186915233079e-01,1.138892476949763699e+00,1.022353712314297836e+00
3.666666666666666519e+00,2.219354682870041968e-03,3.056131303310394287e-01,1.429020166397094727e-01,4.271008968353271484e-01,1.375799355883840225e-01,-2.658035540877237701e-01,-2.515539199668080927e-01,-2.371075036206711673e+00,9.030263898556640800e-01,1.134149670488432404e+00,1.022302724424024589e+00
3.683333333333333126e+00,2.127660375928667070e-03,3.056918978691101074e-01,1.418526619672775269e-01,4.268289804458618164e-01,1.381623041663424534e-01,-2.622984933555245202e-01,-2.565897339044549974e-01,-2.371895611441501739e+00,9.053262339287573290e-01,1.129382027585510206e+00,1.022196676106598590e+00
3.699999999999999734e+00,2.035617877606930252e-03,3.057723343372344971e-01,1.407888531684875488e-01,4.265827238559722900e-01,1.387245162525607700e-01,-2.588347641317287340e-01,-2.616295222674474008e-01,-2.372685788074787805e+00,9.076030741468428253e-01,1.124589902931962371e+00,1.022036436931767600e+00
3.716666666666666785e+00,1.943854793543363683e-03,3.058542013168334961e-01,1.397106945514678955e-01,4.263619780540466309e-01,1.392653393664944894e-01,-2.554131218417779459e-01,-2.666716999905361374e-01,-2.373446591093267166e+00,9.098575370627109971e-01,1.119773655525862388e+00,1.021823129262221519e+00
3.733333333333333393e+00,1.853261306615179137e-03,3.059369325637817383e-01,1.386183053255081177e-01,4.261664748191833496e-01,1.397838195597239375e-01,-2.520340467726442379e-01,-2.717147647217634243e-01,-2.374178977067777030e+00,9.120894328099358184e-01,1.114932909007901429e+00,1.021557929613044813e+00
3.750000000000000000e+00,1.764254547754074776e-03,3.060205578804016113e-01,1.375119239091873169e-01,4.259962439537048340e-01,1.402789643578822021e-01,-2.486985711840963564e-01,-2.767573203779033486e-01,-2.374883872834765874e+00,9.143003460962888518e-01,1.110069024219737743e+00,1.021242109598093473e+00
3.766666666666666607e+00,1.677601957470701600e-03,3.061048090457916260e-01,1.363917142152786255e-01,4.258511364459991455e-01,1.407499850387767537e-01,-2.454073650157705955e-01,-2.817981079922051157e-01,-2.375562177715611067e+00,9.164908847453773211e-01,1.105182516098199841e+00,1.020876784112338287e+00
3.783333333333333215e+00,1.594176992371820669e-03,3.061893582344055176e-01,1.352578252553939819e-01,4.257310330867767334e-01,1.411964228721184489e-01,-2.421611644174125055e-01,-2.868361521406274095e-01,-2.376214706717203029e+00,9.186613580867596385e-01,1.100273763417987993e+00,1.020463137672968257e+00
3.799999999999999822e+00,1.514978020635872075e-03,3.062739670276641846e-01,1.341102868318557739e-01,4.256358444690704346e-01,1.416177258657402571e-01,-2.389606749072255287e-01,-2.918706937931624390e-01,-2.376842191770114354e+00,9.208120045625519667e-01,1.095343164472279307e+00,1.020002424890136483e+00
3.816666666666666430e+00,1.441097278541005272e-03,3.063584566116333008e-01,1.329490989446640015e-01,4.255654513835906982e-01,1.420134306699564475e-01,-2.358064905281379020e-01,-2.969011765315961449e-01,-2.377445213060809248e+00,9.229432115647627777e-01,1.090391238312233613e+00,1.019495929556450742e+00
3.833333333333333481e+00,1.373815501044241055e-03,3.064428269863128662e-01,1.317740678787231445e-01,4.255198538303375244e-01,1.423824082365727495e-01,-2.326990803978977729e-01,-3.019271332802151986e-01,-2.378024272074736878e+00,9.250557266385597277e-01,1.085418612961992935e+00,1.018944941846689822e+00
3.850000000000000089e+00,1.314387972512123760e-03,3.065270483493804932e-01,1.305851787328720093e-01,4.254989326000213623e-01,1.427239839319822678e-01,-2.296387715982399214e-01,-3.069480583163671228e-01,-2.378579775987312850e+00,9.271502727567472180e-01,1.080425927076464010e+00,1.018350733967525734e+00
3.866666666666666696e+00,1.264058506988476136e-03,3.066110312938690186e-01,1.293824911117553711e-01,4.255025088787078857e-01,1.430375653987643048e-01,-2.266257484975789382e-01,-3.119632351438344497e-01,-2.379112340880458643e+00,9.292274778033425831e-01,1.075413792632510690e+00,1.017714432998217733e+00
3.883333333333333304e+00,1.223972459376749568e-03,3.066945672035217285e-01,1.281661242246627808e-01,4.255303442478179932e-01,1.433226950354344609e-01,-2.236601030942828028e-01,-3.169718116241561079e-01,-2.379622660206195395e+00,9.312879250563271816e-01,1.070382828988875490e+00,1.017036992547569962e+00
3.899999999999999911e+00,1.194990405877257742e-03,3.067775070667266846e-01,1.269362419843673706e-01,4.255821406841278076e-01,1.435788088232626547e-01,-2.207418752790147598e-01,-3.219728608400101999e-01,-2.380111401034596508e+00,9.333322625432997066e-01,1.065333690352165741e+00,1.016319188268697493e+00
3.916666666666666519e+00,1.177544353570825816e-03,3.068596422672271729e-01,1.256931424140930176e-01,4.256576597690582275e-01,1.438058556025353651e-01,-2.178710845237789295e-01,-3.269654216526710622e-01,-2.380579111718221341e+00,9.353610346436781464e-01,1.060267019435181979e+00,1.015561629936849064e+00
3.933333333333333126e+00,1.171685437129973278e-03,3.069409132003784180e-01,1.244371086359024048e-01,4.257567226886749268e-01,1.440047244967059548e-01,-2.150480014057653821e-01,-3.319495918946065438e-01,-2.381026381183318996e+00,9.373751991244584358e-01,1.055184098890997735e+00,1.014764846040723034e+00
3.949999999999999734e+00,1.177091255761135912e-03,3.070211112499237061e-01,1.231684610247612000e-01,4.258792400360107422e-01,1.441732778990783004e-01,-2.122723228377515758e-01,-3.369222721181812097e-01,-2.381453153633851016e+00,9.393752310400153016e-01,1.050084886527767880e+00,1.013928992133317442e+00
3.966666666666666785e+00,1.193314015971840610e-03,3.071001470088958740e-01,1.218870803713798523e-01,4.260248541831970215e-01,1.443123089325080433e-01,-2.095439750481730978e-01,-3.418845160181060439e-01,-2.381859884469293753e+00,9.413613611467690490e-01,1.044970166028806213e+00,1.013054328419763506e+00
3.983333333333333393e+00,1.219732157779577662e-03,3.071782290935516357e-01,1.205927729606628418e-01,4.261934161186218262e-01,1.444217443143296087e-01,-2.068627388861748739e-01,-3.468367325679240221e-01,-2.382246519524113371e+00,9.433340713439412051e-01,1.039840734068465888e+00,1.012141009320885576e+00
4.000000000000000000e+00,1.255460963287392470e-03,3.072552680969238281e-01,1.192853078246116638e-01,4.263847172260284424e-01,1.445014477737885661e-01,-2.042281164861413922e-01,-3.517792518642132715e-01,-2.382612779761481114e+00,9.452932078579554531e-01,1.034696759276386935e+00,1.011189252110542336e+00
4.016666666666666607e+00,1.299501892442324683e-03,3.073316216468811035e-01,1.179646551609039307e-01,4.265987277030944824e-01,1.445514153085921960e-01,-2.016401039771431869e-01,-3.567122058723011802e-01,-2.382958243467065529e+00,9.472400286339757169e-01,1.029539571789130026e+00,1.010199601280700410e+00
4.033333333333333215e+00,1.350879054455991941e-03,3.074074089527130127e-01,1.166307851672172546e-01,4.268354773521423340e-01,1.445716312022447270e-01,-1.990984781129533365e-01,-3.616355554393739791e-01,-2.383282448366042416e+00,9.491751404995608654e-01,1.024369870759123335e+00,1.009172671627561968e+00
4.049999999999999822e+00,1.408378984840997225e-03,3.074826598167419434e-01,1.152838990092277527e-01,4.270948171615600586e-01,1.445627813076900414e-01,-1.966030280815004305e-01,-3.665491286375399116e-01,-2.383584889883834101e+00,9.510990513703355687e-01,1.019188353726296015e+00,1.008109173517743873e+00
4.066666666666666430e+00,1.470997899630384223e-03,3.075574040412902832e-01,1.139241382479667664e-01,4.273766875267028809e-01,1.445251829578219904e-01,-1.941535144139554248e-01,-3.714526707821619866e-01,-2.383865101546631227e+00,9.530123320077638072e-01,1.013995697355475345e+00,1.007009829428495706e+00
4.083333333333333037e+00,1.537700906540800895e-03,3.076314628124237061e-01,1.125515848398208618e-01,4.276808798313140869e-01,1.444591828126472743e-01,-1.917493914965576474e-01,-3.763458672478184885e-01,-2.384122655263267276e+00,9.549147714041982260e-01,1.008791923104850330e+00,1.005875251661903835e+00
4.099999999999999645e+00,1.607769093398851582e-03,3.077050745487213135e-01,1.111665293574333191e-01,4.280073940753936768e-01,1.443652937891141685e-01,-1.893906281576000217e-01,-3.812283748041021547e-01,-2.384357134894893093e+00,9.568077305050904924e-01,1.003578390107586316e+00,1.004706201017232958e+00
4.116666666666666252e+00,1.680129198149245317e-03,3.077778220176696777e-01,1.097691431641578674e-01,4.283558428287506104e-01,1.442442374486248569e-01,-1.870764283879101098e-01,-3.860998372566709635e-01,-2.384568170056023728e+00,9.586903723074832184e-01,9.983546597543453416e-01,1.003503138751237644e+00
4.133333333333332860e+00,1.754505935953624453e-03,3.078501224517822266e-01,1.083596497774124146e-01,4.287263154983520508e-01,1.440960678195885580e-01,-1.848069008040117700e-01,-3.909598910652676840e-01,-2.384755375406752087e+00,9.605647522036705466e-01,9.931225677521413608e-01,1.002266807671198023e+00
4.150000000000000355e+00,1.830009156792861743e-03,3.079215586185455322e-01,1.069381982088088989e-01,4.291183948516845703e-01,1.439214127137938004e-01,-1.825812114202406966e-01,-3.958081969430067848e-01,-2.384918534055678663e+00,9.624301096358525154e-01,9.878817348283854827e-01,1.000997730029646871e+00
4.166666666666666963e+00,1.906480130672130345e-03,3.079925477504730225e-01,1.055049747228622437e-01,4.295320212841033936e-01,1.437201348117854438e-01,-1.803993401386189965e-01,-4.006444839359112886e-01,-2.385057620981358095e+00,9.642886905229075545e-01,9.826340249952931760e-01,9.996970928059959460e-01
4.183333333333333570e+00,1.983368666702904366e-03,3.080629706382751465e-01,1.040601357817649841e-01,4.299668371677398682e-01,1.434923472919127363e-01,-1.782606946636457190e-01,-4.054684875015557854e-01,-2.385173067215946130e+00,9.661414019265091024e-01,9.773801801880231954e-01,9.983663052194017284e-01
4.200000000000000178e+00,2.060073628356853901e-03,3.081327378749847412e-01,1.026039198040962219e-01,4.304223656654357910e-01,1.432382913018849790e-01,-1.761646464949282176e-01,-4.102799161604938627e-01,-2.385265482933804027e+00,9.679891848961997836e-01,9.721209265962356127e-01,9.970069299486806758e-01
4.216666666666666785e+00,2.135962162306146318e-03,3.082016408443450928e-01,1.011366918683052063e-01,4.308981597423553467e-01,1.429585057296750839e-01,-1.741104800581756429e-01,-4.150783343764777311e-01,-2.385335453798651528e+00,9.698327866669977926e-01,9.668569532009302359e-01,9.956204594840613042e-01
4.233333333333333393e+00,2.210500656470768162e-03,3.082695007324218750e-01,9.965865314006805420e-02,4.313937425613403320e-01,1.426544535508049716e-01,-1.720974816278962594e-01,-4.198645384049071172e-01,-2.385383327614925886e+00,9.716726868774614445e-01,9.615888882164396190e-01,9.942082435181373024e-01
4.250000000000000000e+00,2.283196062499172427e-03,3.083361387252807617e-01,9.817020595073699951e-02,4.319087266921997070e-01,1.423254393244806348e-01,-1.701251326326506386e-01,-4.246368437352855962e-01,-2.385409700384908849e+00,9.735097933214006405e-01,9.563175147041450552e-01,9.927714792099908703e-01
4.266666666666666607e+00,2.353651139265996312e-03,3.084013760089874268e-01,9.667164832353591919e-02,4.324427545070648193e-01,1.419721703237509236e-01,-1.681933028254090912e-01,-4.293949187176554494e-01,-2.385414851740863096e+00,9.753442742038028745e-01,9.510436746214113723e-01,9.913115203894283800e-01
4.283333333333333215e+00,2.421618444755184018e-03,3.084650039672851562e-01,9.516334533691406250e-02,4.329956769943237305e-01,1.415965070859127595e-01,-1.663025213044351247e-01,-4.341395645968287864e-01,-2.385399222924435847e+00,9.771768835964806943e-01,9.457690277299632964e-01,9.898299311320404303e-01
4.299999999999999822e+00,2.486897601148409329e-03,3.085267841815948486e-01,9.364535659551620483e-02,4.335672855377197266e-01,1.411982807681989860e-01,-1.644527438942282038e-01,-4.388700134758381499e-01,-2.385362425636186945e+00,9.790069538365280266e-01,9.404935884482668040e-01,9.883280897647834795e-01
4.316666666666666430e+00,2.549521194154317962e-03,3.085865676403045654e-01,9.211785346269607544e-02,4.341576397418975830e-01,1.407771039977644689e-01,-1.626442050566002939e-01,-4.435851203844402568e-01,-2.385303977724129609e+00,9.808346404100697358e-01,9.352179519350917181e-01,9.868074534745145954e-01
4.333333333333333037e+00,2.609483401421391034e-03,3.086443543434143066e-01,9.058113396167755127e-02,4.347666501998901367e-01,1.403372343356432406e-01,-1.608779155896233881e-01,-4.482882083568994758e-01,-2.385224172136962917e+00,9.826609754141890640e-01,9.299442836526838896e-01,9.852696493558139590e-01
4.349999999999999645e+00,2.666721548094305120e-03,3.086999058723449707e-01,8.903528749942779541e-02,4.353942573070526123e-01,1.398760695880865712e-01,-1.591535186452477935e-01,-4.529761185129051460e-01,-2.385122264502163247e+00,9.844856408782560742e-01,9.246724169518081293e-01,9.837157723888207972e-01
4.366666666666666252e+00,2.721358691467210423e-03,3.087533116340637207e-01,8.748051524162292480e-02,4.360404014587402344e-01,1.393967842007232116e-01,-1.574714486252757339e-01,-4.576512781312557787e-01,-2.384998078861473747e+00,9.863093402691267553e-01,9.194039332226553451e-01,9.821470773029249424e-01
4.383333333333332860e+00,2.773360233134111730e-03,3.088044226169586182e-01,8.591681718826293945e-02,4.367049336433410645e-01,1.388989631766352761e-01,-1.558312850641480340e-01,-4.623129118963754669e-01,-2.384850819484888529e+00,9.881317584635980200e-01,9.141389476882024745e-01,9.805644434408222754e-01
4.400000000000000355e+00,2.822920724722636967e-03,3.088533580303192139e-01,8.434434980154037476e-02,4.373878240585327148e-01,1.383831665638101394e-01,-1.542328601391972365e-01,-4.669608130667706747e-01,-2.384679476273126930e+00,9.899535495581787137e-01,9.088783086533358535e-01,9.789687688026500467e-01
4.416666666666666963e+00,2.870009415025103882e-03,3.089000582695007324e-01,8.276322484016418457e-02,4.380888640880584717e-01,1.378488013243660548e-01,-1.526758616864589413e-01,-4.715940647525639351e-01,-2.384483880803987876e+00,9.917751512690242688e-01,9.036228046492942312e-01,9.773608020294263232e-01
4.433333333333333570e+00,2.914766217731536418e-03,3.089446127414703369e-01,8.117355406284332275e-02,4.388079345226287842e-01,1.372976631398977465e-01,-1.511599730381525397e-01,-4.762138860361404546e-01,-2.384263390415073847e+00,9.935970526638249201e-01,8.983733954588244419e-01,9.757411106000145606e-01
4.450000000000000178e+00,2.957149037458440058e-03,3.089870512485504150e-01,7.957545667886734009e-02,4.395447075366973877e-01,1.367290043273561295e-01,-1.496846521174799993e-01,-4.808191571210026494e-01,-2.384017603291109122e+00,9.954198823579215594e-01,8.931308711040136794e-01,9.741101288072318010e-01
4.466666666666666785e+00,2.997275023069749435e-03,3.090274333953857422e-01,7.796904444694519043e-02,4.402990341186523438e-01,1.361447689735987565e-01,-1.482493421715626314e-01,-4.854111950972180289e-01,-2.383745784212910834e+00,9.972439240544349603e-01,8.878960796394876898e-01,9.724681993347552567e-01
4.483333333333333393e+00,3.035186779366609924e-03,3.090658485889434814e-01,7.635440677404403687e-02,4.410706162452697754e-01,1.355453806594317800e-01,-1.468532919688316229e-01,-4.899899405425335308e-01,-2.383447101988580563e+00,9.990694730802642809e-01,8.826698325887619712e-01,9.708157002751451881e-01
4.500000000000000000e+00,3.070963167364190987e-03,3.091024160385131836e-01,7.473170757293701172e-02,4.418591856956481934e-01,1.349314703340567800e-01,-1.454956138560877799e-01,-4.945551776726314075e-01,-2.383120532093815136e+00,1.000896765626805740e+00,8.774529619906488165e-01,9.691529503866854744e-01
4.516666666666666607e+00,3.104632988372608548e-03,3.091372549533843994e-01,7.310120761394500732e-02,4.426644146442413330e-01,1.343037009661905146e-01,-1.441752506478250762e-01,-4.991065172173647646e-01,-2.382765096492594825e+00,1.002726072792713863e+00,8.722462835580739871e-01,9.674802548694616533e-01
4.533333333333333215e+00,3.136098034417572015e-03,3.091704249382019043e-01,7.146324217319488525e-02,4.434858560562133789e-01,1.336627507516016666e-01,-1.428909441000646430e-01,-5.036434005114546197e-01,-2.382379989363743178e+00,1.004557789586754124e+00,8.670505475646284044e-01,9.657979366318335535e-01
4.549999999999999822e+00,3.165404980532125247e-03,3.092021048069000244e-01,6.981809437274932861e-02,4.443231225013732910e-01,1.330091455535706568e-01,-1.416412654511305935e-01,-5.081653648279433888e-01,-2.381964383344020053e+00,1.006392422150984345e+00,8.618664632508136192e-01,9.641063485167384872e-01
4.566666666666666430e+00,3.192562821669747784e-03,3.092324733734130859e-01,6.816596537828445435e-02,4.451757371425628662e-01,1.323433797301522830e-01,-1.404247234911260300e-01,-5.126720803228042023e-01,-2.381517431473674229e+00,1.008230497152358129e+00,8.566947130563591362e-01,9.624058352460620469e-01
4.583333333333333037e+00,3.217607106395304391e-03,3.092616498470306396e-01,6.650708615779876709e-02,4.460433125495910645e-01,1.316660537666199671e-01,-1.392398363671905337e-01,-5.171633064392388013e-01,-2.381038270392340284e+00,1.010072505303966306e+00,8.515359468476169091e-01,9.606967117426328251e-01
4.599999999999999645e+00,3.240620230555274570e-03,3.092898726463317871e-01,6.484158337116241455e-02,4.469253718852996826e-01,1.309775201184392168e-01,-1.380851734282274035e-01,-5.216388407840472086e-01,-2.380526060816371636e+00,1.011918967468109720e+00,8.463908108599432767e-01,9.589792783736496018e-01
4.616666666666666252e+00,3.261643539901846155e-03,3.093172311782836914e-01,6.316963583230972290e-02,4.478215277194976807e-01,1.302783392358715653e-01,-1.369593724518999023e-01,-5.260985405758659139e-01,-2.379980031518135863e+00,1.013770341644982365e+00,8.412599177438642162e-01,9.572538196853992432e-01
4.633333333333332860e+00,3.280670309686488980e-03,3.093437850475311279e-01,6.149164959788322449e-02,4.487313926219940186e-01,1.295696191443963807e-01,-1.358612617179684179e-01,-5.305422552586910312e-01,-2.379399857826333342e+00,1.015627239509106161e+00,8.361438895323349829e-01,9.555206915729526074e-01
4.650000000000000355e+00,3.297486029022005799e-03,3.093694150447845459e-01,5.980836600065231323e-02,4.496545195579528809e-01,1.288536068636094989e-01,-1.347899155248004632e-01,-5.349699282838776826e-01,-2.378785380350207923e+00,1.017490231061282113e+00,8.310433429594027421e-01,9.537802560082134784e-01
4.666666666666666963e+00,3.311959516152773904e-03,3.093939423561096191e-01,5.812058970332145691e-02,4.505906403064727783e-01,1.281343161015267851e-01,-1.337446287805665324e-01,-5.393829032984449601e-01,-2.378136370965854951e+00,1.019359564643872451e+00,8.259588435165873266e-01,9.520328232815842284e-01
4.683333333333333570e+00,3.323884628566075097e-03,3.094171881675720215e-01,5.642931163311004639e-02,4.515393972396850586e-01,1.274136890303365355e-01,-1.327249805459486676e-01,-5.437801312930703457e-01,-2.377452924212943408e+00,1.021235903537400125e+00,8.208911396871363397e-01,9.502788682885994209e-01
4.700000000000000178e+00,3.333214700981921956e-03,3.094390034675598145e-01,5.473538860678672791e-02,4.525005817413330078e-01,1.266947972930377586e-01,-1.317306358173594705e-01,-5.481620098167112598e-01,-2.376734998399249843e+00,1.023119575437462903e+00,8.158409406710086520e-01,9.485187522080678058e-01
4.716666666666666785e+00,3.339967193077966485e-03,3.094592988491058350e-01,5.303951352834701538e-02,4.534739553928375244e-01,1.259805075417558540e-01,-1.307611863281390452e-01,-5.525291966724311665e-01,-2.375982391399035887e+00,1.025011165237680322e+00,8.108089035103773767e-01,9.467523964105510892e-01
4.733333333333333393e+00,3.344347014299541704e-03,3.094781041145324707e-01,5.134223029017448425e-02,4.544593691825866699e-01,1.252733761894679054e-01,-1.298160821412429056e-01,-5.568825179994281172e-01,-2.375194699292619394e+00,1.026911521096844915e+00,8.057956417776238611e-01,9.449792212048709894e-01
4.750000000000000000e+00,3.346846390358069762e-03,3.094957172870635986e-01,4.964385181665420532e-02,4.554567337036132812e-01,1.245754750865727262e-01,-1.288946306886215309e-01,-5.612229785671049020e-01,-2.374371139202966052e+00,1.028821771292802945e+00,8.008018083380677998e-01,9.431984408037737966e-01
4.766666666666666607e+00,3.348104823898384163e-03,3.095124959945678711e-01,4.794429615139961243e-02,4.564660191535949707e-01,1.238877690192012881e-01,-1.279959969279734489e-01,-5.655517037938377900e-01,-2.373510698382938156e+00,1.030743257301562243e+00,7.958280718647694485e-01,9.414092496771720997e-01
4.783333333333333215e+00,3.348841472920477923e-03,3.095289170742034912e-01,4.624325037002563477e-02,4.574871361255645752e-01,1.232106582605510953e-01,-1.271191883355070884e-01,-5.698699407125809024e-01,-2.372612274185791126e+00,1.032677303389853973e+00,7.908750710599271594e-01,9.396109290159222471e-01
4.799999999999999822e+00,3.349704658160364106e-03,3.095454275608062744e-01,4.454025253653526306e-02,4.585199058055877686e-01,1.225439862812778141e-01,-1.262630724990549125e-01,-5.741788929261067986e-01,-2.371674821203264560e+00,1.034625156720970107e+00,7.859434137625450623e-01,9.378029638892331210e-01
4.816666666666666430e+00,3.351381795025389337e-03,3.095624744892120361e-01,4.283463954925537109e-02,4.595642089843750000e-01,1.218868923833708734e-01,-1.254264470331047654e-01,-5.784796699697933864e-01,-2.370697314340287853e+00,1.036588033665992059e+00,7.810336924660059577e-01,9.359851196772410731e-01
4.833333333333333037e+00,3.354480955197062901e-03,3.095805346965789795e-01,4.112567380070686340e-02,4.606198072433471680e-01,1.212380077502196035e-01,-1.246080428089789277e-01,-5.827731985228644662e-01,-2.369678865012290636e+00,1.038567067565955959e+00,7.761464794107796328e-01,9.341574758701660652e-01
4.849999999999999645e+00,3.359421798099787235e-03,3.095999360084533691e-01,3.941262885928153992e-02,4.616864025592803955e-01,1.205957379512930805e-01,-1.238065276728813197e-01,-5.870601886489985599e-01,-2.368618852302297739e+00,1.040563255478110793e+00,7.712823204122576382e-01,9.323204285569933747e-01
4.866666666666666252e+00,3.366440093800639188e-03,3.096209466457366943e-01,3.769491985440254211e-02,4.627635478973388672e-01,1.199585102934179331e-01,-1.230205277776705575e-01,-5.913410295684278228e-01,-2.367516973979612249e+00,1.042577441376975278e+00,7.664417393565936543e-01,9.304746688647974606e-01
4.883333333333332860e+00,3.375648257858257072e-03,3.096437156200408936e-01,3.597200289368629456e-02,4.638507962226867676e-01,1.193243815604018571e-01,-1.222486726770710130e-01,-5.956157701806579219e-01,-2.366373279538171115e+00,1.044610414837242152e+00,7.616252694178974325e-01,9.286211687112901902e-01
4.900000000000000355e+00,3.386989686362766074e-03,3.096683323383331299e-01,3.424352779984474182e-02,4.649475514888763428e-01,1.186917314497403092e-01,-1.214896229214479512e-01,-5.998841981341062057e-01,-2.365188107679875085e+00,1.046662809118168003e+00,7.568334234296277829e-01,9.267610933562906439e-01
4.916666666666666963e+00,3.400361007504348887e-03,3.096947968006134033e-01,3.250929340720176697e-02,4.660532772541046143e-01,1.180589517158007890e-01,-1.207421078553615051e-01,-6.041457821967914921e-01,-2.363962060224311656e+00,1.048735183361565015e+00,7.520667185375603525e-01,9.248957531068595639e-01
4.933333333333333570e+00,3.415462722132794286e-03,3.097229599952697754e-01,3.076922893524169922e-02,4.671673178672790527e-01,1.174245399334317985e-01,-1.200049374772422933e-01,-6.083997346804375095e-01,-2.362695943030369783e+00,1.050828021663003708e+00,7.473256806215664572e-01,9.230265346314348029e-01
4.950000000000000178e+00,3.432064809328751447e-03,3.097527325153350830e-01,2.902340888977050781e-02,4.682890474796295166e-01,1.167886831821072918e-01,-1.192769932352486795e-01,-6.126464026759330661e-01,-2.361390555865802821e+00,1.052941429145046737e+00,7.426107419192725656e-01,9.211547584637833630e-01
4.966666666666666785e+00,3.449894914210878231e-03,3.097839355468750000e-01,2.727201767265796661e-02,4.694178700447082520e-01,1.161487705547890326e-01,-1.185572595758018766e-01,-6.168833600780125881e-01,-2.360047206039098899e+00,1.055076039290424816e+00,7.379225403770269809e-01,9.192818708327542554e-01
4.983333333333333393e+00,3.468507372174557679e-03,3.098162710666656494e-01,2.551526203751564026e-02,4.705530405044555664e-01,1.155050930407008764e-01,-1.178447720578787439e-01,-6.211108252678355646e-01,-2.358667150128938239e+00,1.057231868520103202e+00,7.332615565564102322e-01,9.174091133122092012e-01
5.000000000000000000e+00,3.487662753978305018e-03,3.098495900630950928e-01,2.375343441963195801e-02,4.716939330101013184e-01,1.148554104843380053e-01,-1.171387061091101328e-01,-6.253265048381646540e-01,-2.357252052887462312e+00,1.059409420209425079e+00,7.286284637751481164e-01,9.155378210688750462e-01
5.016666666666666607e+00,3.506955829015827308e-03,3.098835647106170654e-01,2.198684774339199066e-02,4.728398621082305908e-01,1.141989749761382900e-01,-1.164383126706895616e-01,-6.295294403160457408e-01,-2.355803481967899682e+00,1.061608873499033878e+00,7.240238459072246835e-01,9.136691987983222019e-01
5.033333333333333215e+00,3.526093231586233372e-03,3.099179267883300781e-01,2.021583542227745056e-02,4.739902317523956299e-01,1.135351751988964153e-01,-1.157429142171871178e-01,-6.337187305270858273e-01,-2.354322982206593196e+00,1.063830369151036681e+00,7.194482958261664285e-01,9.118043928137576914e-01
5.049999999999999822e+00,3.544799216432690300e-03,3.099524378776550293e-01,1.844074763357639313e-02,4.751444160938262939e-01,1.128635203823485228e-01,-1.150518937511449125e-01,-6.378935226249641266e-01,-2.352812037562010961e+00,1.066073995372253114e+00,7.149024143131654796e-01,9.099444878495001054e-01
5.066666666666666430e+00,3.562849589157663938e-03,3.099868893623352051e-01,1.666195131838321686e-02,4.763018190860748291e-01,1.121836347764511438e-01,-1.143646729995216049e-01,-6.420530005796530881e-01,-2.351272042215364788e+00,1.068339786595271956e+00,7.103868110054575302e-01,9.080904875709735480e-01
5.083333333333333037e+00,3.580027320238419932e-03,3.100210130214691162e-01,1.487982366234064102e-02,4.774619340896606445e-01,1.114952370770496970e-01,-1.136807008105428923e-01,-6.461963920521881510e-01,-2.349704289366170595e+00,1.070627721689498157e+00,7.059020967768019350e-01,9.062433102003194518e-01
5.099999999999999645e+00,3.596154681583186869e-03,3.100546002388000488e-01,1.309478003531694412e-02,4.786242246627807617e-01,1.107982530073669258e-01,-1.129994921588982765e-01,-6.503229901718681205e-01,-2.348110038241976394e+00,1.072937699812321455e+00,7.014489020511013306e-01,9.044038213290920281e-01
5.116666666666666252e+00,3.611044122064766600e-03,3.100874423980712891e-01,1.130726188421249390e-02,4.797881245613098145e-01,1.100927930684009043e-01,-1.123206214389019103e-01,-6.544321663137203648e-01,-2.346490484301432033e+00,1.075269545015326900e+00,6.970278616966558705e-01,9.025728298143360639e-01
5.133333333333332860e+00,3.624614740394235032e-03,3.101193606853485107e-01,9.517711587250232697e-03,4.809532165527343750e-01,1.093790895941008645e-01,-1.116436892795123342e-01,-6.585233843436226753e-01,-2.344846724470109223e+00,1.077623018577265945e+00,6.926396138941615099e-01,9.007510709935919735e-01
5.150000000000000355e+00,3.636763443978941173e-03,3.101502060890197754e-01,7.726550567895174026e-03,4.821189939975738525e-01,1.086574364659832204e-01,-1.109682899144254914e-01,-6.625962117960851883e-01,-2.343179748785160665e+00,1.079997824265662043e+00,6.882847995264952390e-01,8.989391932766920279e-01
5.166666666666666963e+00,3.647430425242296787e-03,3.101798295974731445e-01,5.934157874435186386e-03,4.832850396633148193e-01,1.079281440051498703e-01,-1.102939940320698253e-01,-6.666503229271598663e-01,-2.341490436621328719e+00,1.082393616039093232e+00,6.839640541087974590e-01,8.971377583778417097e-01
5.183333333333333570e+00,3.656533109030887189e-03,3.102081120014190674e-01,4.140866920351982117e-03,4.844508469104766846e-01,1.071915058655602687e-01,-1.096203248107414235e-01,-6.706854972317923824e-01,-2.339779558567216533e+00,1.084810004178751175e+00,6.796780108582862745e-01,8.953472515317331126e-01
5.200000000000000178e+00,3.664093602584554514e-03,3.102350234985351562e-01,2.346961293369531631e-03,4.856159687042236328e-01,1.064477792734603578e-01,-1.089467558207749265e-01,-6.747016111271812999e-01,-2.338047779141763538e+00,1.087246560072863577e+00,6.754272945504338210e-01,8.935680980178500876e-01
5.216666666666666785e+00,3.670077651229919271e-03,3.102604746818542480e-01,5.526641616597771645e-04,4.867799580097198486e-01,1.056971044894241957e-01,-1.082725997324791717e-01,-6.786986601818508769e-01,-2.336295861342374547e+00,1.089702864722056130e+00,6.712125234376317140e-01,8.918006595452437901e-01
5.233333333333333393e+00,3.674444419145831125e-03,3.102844655513763428e-01,-1.241854741238057613e-03,4.879421889781951904e-01,1.049395229466971585e-01,-1.075970151009793263e-01,-6.826767574479373213e-01,-2.334524655465907372e+00,1.092178512780210609e+00,6.670343024791028919e-01,8.900452781455047147e-01
5.250000000000000000e+00,3.677210194198423602e-03,3.103070259094238281e-01,-3.036482259631156921e-03,4.891020953655242920e-01,1.041749796421661128e-01,-1.069191023477424063e-01,-6.866361036398375139e-01,-2.332735003180811617e+00,1.094673108540044737e+00,6.628932121200074024e-01,8.883023040371232915e-01
5.266666666666666607e+00,3.678339049041569504e-03,3.103281259536743164e-01,-4.831172060221433640e-03,4.902591109275817871e-01,1.034032824477543189e-01,-1.062379211070946933e-01,-6.905769835804561607e-01,-2.330927759949191103e+00,1.097186258621031030e+00,6.587898069846365168e-01,8.865721251356453170e-01
5.283333333333333215e+00,3.677823961304147165e-03,3.103477656841278076e-01,-6.625920999795198441e-03,4.914126694202423096e-01,1.026241642146080851e-01,-1.055525514842576423e-01,-6.944997268413425351e-01,-2.329103717186986611e+00,1.099717567541268926e+00,6.547246174389844686e-01,8.848551693670592133e-01
5.299999999999999822e+00,3.675756255256896858e-03,3.103660345077514648e-01,-8.420744910836219788e-03,4.925622344017028809e-01,1.018373339960046281e-01,-1.048621187636480517e-01,-6.984046626821500681e-01,-2.327263568489122303e+00,1.102266631406524588e+00,6.506981524257705596e-01,8.831519082068932658e-01
5.316666666666666430e+00,3.672204073677955757e-03,3.103829622268676758e-01,-1.021565403789281845e-02,4.937073290348052979e-01,1.010425170993043964e-01,-1.041658063268624812e-01,-7.022920876553078173e-01,-2.325407918393275430e+00,1.104833020938839283e+00,6.467108939973733595e-01,8.814628538289630555e-01
5.333333333333333037e+00,3.667198049011455904e-03,3.103985190391540527e-01,-1.201063208281993866e-02,4.948475062847137451e-01,1.002394856012768648e-01,-1.034628421732716186e-01,-7.061622436102046318e-01,-2.323537300267517480e+00,1.107416270956201876e+00,6.427633055741491797e-01,8.797885540528729287e-01
5.349999999999999645e+00,3.660883575467563551e-03,3.104127943515777588e-01,-1.380563154816627502e-02,4.959823191165924072e-01,9.942807430391552292e-02,-1.027524924780485877e-01,-7.100153053300102268e-01,-2.321652192417087424e+00,1.110015875288279386e+00,6.388558331643883204e-01,8.781295850748844778e-01
5.366666666666666252e+00,3.653390485108089832e-03,3.104258179664611816e-01,-1.560056116431951523e-02,4.971114099025726318e-01,9.860818417885261478e-02,-1.020340550484465231e-01,-7.138513789921114849e-01,-2.319753039119334836e+00,1.112631276374621336e+00,6.349889036582541113e-01,8.764865431097654813e-01
5.383333333333332860e+00,3.644809726344315579e-03,3.104376196861267090e-01,-1.739529892802238464e-02,4.982343018054962158e-01,9.777978400134462733e-02,-1.013068543440314856e-01,-7.176705238527099073e-01,-2.317840261844570371e+00,1.115261866467861074e+00,6.311629243226491992e-01,8.748600248981285299e-01
5.400000000000000355e+00,3.635321131765750606e-03,3.104482591152191162e-01,-1.918976195156574249e-02,4.993506968021392822e-01,9.694299426511877871e-02,-1.005702520097190855e-01,-7.214730429400763034e-01,-2.315914193086332507e+00,1.117907136613231822e+00,6.273782928255103863e-01,8.732504312745599240e-01
5.416666666666666963e+00,3.625099236548486644e-03,3.104578256607055664e-01,-2.098389901220798492e-02,5.004602074623107910e-01,9.609803548059123179e-02,-9.982362641835193506e-02,-7.252594060573577250e-01,-2.313975131340517244e+00,1.120566601500491366e+00,6.236353850134247478e-01,8.716580730075488281e-01
5.433333333333333570e+00,3.614308151094446954e-03,3.104663491249084473e-01,-2.277765609323978424e-02,5.015625953674316406e-01,9.524520923194450261e-02,-9.906636906992945246e-02,-7.290301620196711907e-01,-2.312023378251776951e+00,1.123239762819476129e+00,6.199345550544803629e-01,8.700832460428586934e-01
5.450000000000000178e+00,3.603077015039265075e-03,3.104738891124725342e-01,-2.457095682621002197e-02,5.026574134826660156e-01,9.438488516426550567e-02,-9.829788476179288081e-02,-7.327858724575558869e-01,-2.310059272663656404e+00,1.125926081206758633e+00,6.162761352630558020e-01,8.685262917536313854e-01
5.466666666666666785e+00,3.591597751751783411e-03,3.104805052280426025e-01,-2.636368945240974426e-02,5.037444233894348145e-01,9.351750417842209784e-02,-9.751758735473897710e-02,-7.365270612419205776e-01,-2.308083202972170067e+00,1.128624953631175432e+00,6.126604384770026890e-01,8.669876433371077606e-01
5.483333333333333393e+00,3.580000869290200002e-03,3.104862570762634277e-01,-2.815568633377552032e-02,5.048231482505798340e-01,9.264358954046943151e-02,-9.672488491323255611e-02,-7.402541839710076177e-01,-2.306095622422481561e+00,1.131335699584530285e+00,6.090877563260161942e-01,8.654678495196910237e-01
