IAMHAADICOOL/ee_tracking/outputs/policy_res_fs_filt6_figure_eight_unc_ep0.csv
t,error_m,ee_x,ee_y,ee_z,q0,q1,q2,q3,q4,q5,q6
0.000000000000000000e+00,2.124516912751344896e-03,3.070428073406219482e-01,6.367821333697065711e-05,4.852454066276550293e-01,9.692313125381735140e-05,-7.848448478383960314e-01,-3.493381894412030759e-05,-2.355943466226861904e+00,2.135341348404942718e-04,1.570963643495854711e+00,7.849575023053719791e-01
1.666666666666666644e-02,4.171298129393094696e-03,3.070980012416839600e-01,9.522312757326290011e-05,4.854079782962799072e-01,-8.774358449121041252e-05,-7.849086040818981092e-01,1.060763414584030349e-04,-2.355666046384234935e+00,4.137174671894357073e-04,1.571100203555871655e+00,7.850106211241932863e-01
3.333333333333333287e-02,6.242084485000566792e-03,3.070663511753082275e-01,1.268160849576815963e-04,4.855262041091918945e-01,4.496910511700962919e-05,-7.852370898721418024e-01,5.087439885981338340e-05,-2.355642890360510222e+00,4.551348543546041492e-04,1.571173202945600478e+00,7.851145333158072726e-01
5.000000000000000278e-02,6.849477198552276699e-03,3.070377111434936523e-01,1.468523521907627583e-03,4.863111376762390137e-01,1.503970225697883649e-03,-7.862420301921220211e-01,1.857989495621167149e-03,-2.354630781551434460e+00,1.897025950923395465e-03,1.571161098087137331e+00,7.850657079722035414e-01
6.666666666666666574e-02,7.286816303376703746e-03,3.070397078990936279e-01,3.050678409636020660e-03,4.870467782020568848e-01,3.575723005259208703e-03,-7.870489620597643787e-01,3.805663276507180361e-03,-2.353597522992228352e+00,3.362001643864997221e-03,1.571178163013907447e+00,7.850537938940856941e-01
8.333333333333332871e-02,7.407399547839643716e-03,3.071225285530090332e-01,4.756475798785686493e-03,4.881612360477447510e-01,5.667733152020456439e-03,-7.879467374546963443e-01,5.939845740086152973e-03,-2.351830033837184253e+00,5.074465828958344034e-03,1.571251656739106162e+00,7.849608538781928102e-01
1.000000000000000056e-01,7.567060452026601498e-03,3.071435689926147461e-01,6.531247403472661972e-03,4.891100227832794189e-01,8.024213082003701231e-03,-7.887454069323616146e-01,7.776999805849095504e-03,-2.350319111387984883e+00,7.177743083957605942e-03,1.571170035467908788e+00,7.852134992435312322e-01
1.166666666666666685e-01,7.420334359148609941e-03,3.071872293949127197e-01,8.588049560785293579e-03,4.901990890502929688e-01,1.047924391107244411e-02,-7.895845242977287404e-01,1.014709087433274780e-02,-2.348545062603752509e+00,9.625778131798058343e-03,1.571151516332687237e+00,7.853446943631332555e-01
1.333333333333333315e-01,7.297920367544826446e-03,3.072196841239929199e-01,1.064375042915344238e-02,4.912584125995635986e-01,1.321103486882597294e-02,-7.904391624919663295e-01,1.225297752320405990e-02,-2.346859551708613267e+00,1.206113317188300255e-02,1.571214192040781166e+00,7.853581776690166105e-01
1.499999999999999944e-01,7.069595558878441488e-03,3.072762489318847656e-01,1.292275357991456985e-02,4.922461807727813721e-01,1.607813647835432819e-02,-7.908883869555025647e-01,1.452640224595463242e-02,-2.345025669222110309e+00,1.507280620402839943e-02,1.571100374443906489e+00,7.857790939106511496e-01
1.666666666666666574e-01,6.949235556899171530e-03,3.072436451911926270e-01,1.505255885422229767e-02,4.932563900947570801e-01,1.917366657085960852e-02,-7.915350781754559861e-01,1.632397961568974112e-02,-2.343239371850470043e+00,1.778290584256443652e-02,1.570795895528873887e+00,7.862404095322234054e-01
1.833333333333333204e-01,6.639887453340962559e-03,3.073094785213470459e-01,1.737689599394798279e-02,4.943737685680389404e-01,2.229055652820580852e-02,-7.919960465086789414e-01,1.811306762929603895e-02,-2.341160799014028626e+00,2.135654648353225299e-02,1.570756239308817248e+00,7.861782394310891098e-01
2.000000000000000111e-01,6.441331994828936036e-03,3.073673546314239502e-01,1.962248980998992920e-02,4.954414367675781250e-01,2.508338021714547061e-02,-7.922694627297043324e-01,1.992116624739017142e-02,-2.339036740573111395e+00,2.498192758915944098e-02,1.570564085969937240e+00,7.867174251445845368e-01
2.166666666666666741e-01,6.132214417224087291e-03,3.074734807014465332e-01,2.180941961705684662e-02,4.967076480388641357e-01,2.795238367793565978e-02,-7.925213995189211991e-01,2.152827299140295039e-02,-2.336493036755541652e+00,2.849261240443283494e-02,1.570412376098133000e+00,7.871475004420503963e-01
2.333333333333333370e-01,5.974756027019571814e-03,3.075613081455230713e-01,2.412763610482215881e-02,4.977353513240814209e-01,3.103146181182875329e-02,-7.925110140807302139e-01,2.328492061531450136e-02,-2.334282186850093144e+00,3.207870883527100953e-02,1.570269986275188323e+00,7.877189950794040163e-01
2.500000000000000000e-01,5.908057894601719505e-03,3.076588809490203857e-01,2.637553028762340546e-02,4.987399876117706299e-01,3.392257506330406680e-02,-7.924233134795336531e-01,2.501265270941377059e-02,-2.332079032278826958e+00,3.563071046738147674e-02,1.570167742980109971e+00,7.885575371067412576e-01
2.666666666666666630e-01,5.777972037670870906e-03,3.077228963375091553e-01,2.864512056112289429e-02,4.998361170291900635e-01,3.703760261244074675e-02,-7.923901326154231262e-01,2.641940083704714601e-02,-2.329705166268166483e+00,3.944543804216862903e-02,1.569937756758410963e+00,7.894872014010458905e-01
2.833333333333333259e-01,5.758908211075175650e-03,3.077711760997772217e-01,3.090831451117992401e-02,5.008503198623657227e-01,4.005335320530700044e-02,-7.922372203923385703e-01,2.811492440002913082e-02,-2.327406137204325987e+00,4.290639241015748589e-02,1.569653595100339638e+00,7.900935074727671870e-01
2.999999999999999889e-01,5.706016776492479209e-03,3.077801167964935303e-01,3.337073698639869690e-02,5.019041895866394043e-01,4.346650989507409857e-02,-7.921001504592604103e-01,2.996142252408137349e-02,-2.325020196992679367e+00,4.647123630910231923e-02,1.569314193085647791e+00,7.908806057780083387e-01
3.166666666666666519e-01,5.527817607033295999e-03,3.077538609504699707e-01,3.567134216427803040e-02,5.031565427780151367e-01,4.654136764829601425e-02,-7.923028303755106361e-01,3.175122205074308590e-02,-2.322440744217058484e+00,4.983178199057475277e-02,1.568990234351993696e+00,7.916884164426990500e-01
3.333333333333333148e-01,5.590210375658787902e-03,3.076955080032348633e-01,3.796857595443725586e-02,5.042039155960083008e-01,4.959417794532743062e-02,-7.921677065138673646e-01,3.368566803488440287e-02,-2.320010865254904076e+00,5.297768846408157373e-02,1.568399380955517453e+00,7.925761791410675938e-01
3.499999999999999778e-01,5.543090607309042114e-03,3.076204657554626465e-01,4.016989842057228088e-02,5.053876042366027832e-01,5.270097041284094175e-02,-7.921291584710566935e-01,3.517678566550386243e-02,-2.317356646075057203e+00,5.627420801965721947e-02,1.567721915426701917e+00,7.930800406055222851e-01
3.666666666666666408e-01,5.454544469553458154e-03,3.074944913387298584e-01,4.246862232685089111e-02,5.066648721694946289e-01,5.579477129165277133e-02,-7.923735696939088191e-01,3.691498451480045712e-02,-2.314706458380088705e+00,5.964665069525107444e-02,1.567163284639850662e+00,7.938750791389577177e-01
3.833333333333333037e-01,5.374406034585442124e-03,3.073928356170654297e-01,4.448543488979339600e-02,5.078911781311035156e-01,5.839231044136605070e-02,-7.926428352342510530e-01,3.863468815161967551e-02,-2.312198207617498724e+00,6.243073687660806448e-02,1.566737445988886535e+00,7.945828434408551688e-01
4.000000000000000222e-01,5.426953928758077375e-03,3.074197769165039062e-01,4.662145674228668213e-02,5.090422034263610840e-01,6.134243784283942291e-02,-7.922090293024112162e-01,4.008153958185052546e-02,-2.309413570483539235e+00,6.562637326507156366e-02,1.566334629997313765e+00,7.957127675028539127e-01
4.166666666666666852e-01,5.510095545912254214e-03,3.073605298995971680e-01,4.866790771484375000e-02,5.101309418678283691e-01,6.396772396764056900e-02,-7.919759648589500545e-01,4.178464941921581494e-02,-2.306848040970395530e+00,6.848546981511588472e-02,1.565808354336891695e+00,7.968110337934909415e-01
4.333333333333333481e-01,5.703566910841490964e-03,3.073033392429351807e-01,5.064575001597404480e-02,5.110667943954467773e-01,6.658581927432913328e-02,-7.913103650249652121e-01,4.327985044382916258e-02,-2.304257698758562789e+00,7.135465226511274184e-02,1.564929372064456592e+00,7.974982573702407151e-01
4.500000000000000111e-01,5.884704956282938403e-03,3.072558641433715820e-01,5.265032127499580383e-02,5.120292305946350098e-01,6.901471347916364463e-02,-7.908234625605735646e-01,4.478969196968216049e-02,-2.301799040063587043e+00,7.458947032334969918e-02,1.564368623419254867e+00,7.982280680344179258e-01
4.666666666666666741e-01,5.958327284322695837e-03,3.072037398815155029e-01,5.462607741355895996e-02,5.130996704101562500e-01,7.160806701417332665e-02,-7.903663268460221492e-01,4.627271770658602373e-02,-2.299118109859398018e+00,7.745875420644837694e-02,1.563761250989792906e+00,7.991497482813303410e-01
4.833333333333333370e-01,6.246893259711944549e-03,3.071905076503753662e-01,5.655371397733688354e-02,5.138846039772033691e-01,7.406865804104401096e-02,-7.895735172207619668e-01,4.775898062016284418e-02,-2.296837764580759167e+00,8.029551914394612855e-02,1.563259956224851033e+00,7.997021562448267673e-01
5.000000000000000000e-01,6.297117722628778509e-03,3.072624504566192627e-01,5.830363184213638306e-02,5.148324370384216309e-01,7.597398461228689615e-02,-7.886347936292877892e-01,4.915674820657599253e-02,-2.294116740445348857e+00,8.316841295045883375e-02,1.562715259084642705e+00,8.002485103206061767e-01
5.166666666666666075e-01,6.380157209770524751e-03,3.073186874389648438e-01,6.003142148256301880e-02,5.157167911529541016e-01,7.810904972419292769e-02,-7.876015661680120239e-01,5.039344271217593985e-02,-2.291453523476781662e+00,8.586098821029090888e-02,1.562085614217438412e+00,8.007455261467597563e-01
5.333333333333333259e-01,6.474375173586665970e-03,3.073560893535614014e-01,6.150527670979499817e-02,5.164256095886230469e-01,7.971055356538817027e-02,-7.867124573205038773e-01,5.133919908550282907e-02,-2.289288121681293475e+00,8.866187140334706729e-02,1.561542699843951443e+00,8.010397243040533466e-01
5.500000000000000444e-01,6.495703271377325366e-03,3.073506653308868408e-01,6.301292777061462402e-02,5.172375440597534180e-01,8.117438777274224582e-02,-7.860167716003589877e-01,5.236878685134407907e-02,-2.287025586334074045e+00,9.168246569307775262e-02,1.560957569593529382e+00,8.011922744107276007e-01
5.666666666666666519e-01,6.510746854267772388e-03,3.074186146259307861e-01,6.449709087610244751e-02,5.180466175079345703e-01,8.224105312935788004e-02,-7.850157086338630519e-01,5.380085403013008805e-02,-2.284533172565972770e+00,9.444874764782434928e-02,1.560335138474554517e+00,8.015510019780344164e-01
5.833333333333333703e-01,6.710976224933465524e-03,3.074061572551727295e-01,6.598660349845886230e-02,5.186483263969421387e-01,8.371271525133980318e-02,-7.839327715022705867e-01,5.496313349058897652e-02,-2.282385693248035086e+00,9.715039702775851715e-02,1.559477418613545163e+00,8.017053886620402192e-01
5.999999999999999778e-01,6.587162136849706619e-03,3.073688447475433350e-01,6.743364781141281128e-02,5.195803046226501465e-01,8.486139221394925491e-02,-7.832588706638164977e-01,5.605218595045706464e-02,-2.279830660879951676e+00,1.002048304551282076e-01,1.558635858828901100e+00,8.012996915604611026e-01
6.166666666666666963e-01,6.541857977049289445e-03,3.073085844516754150e-01,6.882561743259429932e-02,5.204024910926818848e-01,8.617500848346754116e-02,-7.823442303220996541e-01,5.685401792717670322e-02,-2.277298790139440143e+00,1.032433221642603816e-01,1.557473137983611089e+00,8.010465979732949160e-01
6.333333333333333037e-01,6.563051304229179476e-03,3.073436617851257324e-01,7.018919289112091064e-02,5.211506485939025879e-01,8.719082434906638701e-02,-7.814058532683716418e-01,5.788496251808254028e-02,-2.275000836010942162e+00,1.061738890678461666e-01,1.556834597517646523e+00,8.007285550727141210e-01
6.500000000000000222e-01,6.453059865090855426e-03,3.074572384357452393e-01,7.133604586124420166e-02,5.219933986663818359e-01,8.813818306527183843e-02,-7.802171172894891704e-01,5.850886403077073389e-02,-2.272319507294033425e+00,1.087878147097092879e-01,1.556012796856437230e+00,8.003246952546564374e-01
6.666666666666666297e-01,6.159609827318837487e-03,3.075896799564361572e-01,7.266129553318023682e-02,5.230732560157775879e-01,8.930342443813304998e-02,-7.792699361962378557e-01,5.922596837452850232e-02,-2.269383137032874309e+00,1.117107540175550917e-01,1.555564913772153668e+00,8.002293809887870424e-01
6.833333333333333481e-01,6.069561888409785201e-03,3.076045215129852295e-01,7.386445254087448120e-02,5.239249467849731445e-01,9.007956032174603556e-02,-7.783909999114089207e-01,5.994870185664113310e-02,-2.266884237134557445e+00,1.147213641259859224e-01,1.554694898057857211e+00,8.001516575786975505e-01
6.999999999999999556e-01,5.792361369609626102e-03,3.076362609863281250e-01,7.524310052394866943e-02,5.249843597412109375e-01,9.117395025305212453e-02,-7.774786237170127068e-01,6.102655641149996868e-02,-2.263905749168960035e+00,1.174175335024063849e-01,1.553877228046626424e+00,7.999118846993032994e-01
7.166666666666666741e-01,5.423836864941434903e-03,3.077214956283569336e-01,7.649284601211547852e-02,5.261385440826416016e-01,9.238642926677673173e-02,-7.765290539982364626e-01,6.161992321824569241e-02,-2.260751999604372564e+00,1.200971037725245133e-01,1.553126579157682041e+00,7.995570820125910139e-01
7.333333333333332815e-01,5.312289460201130228e-03,3.077656030654907227e-01,7.778584212064743042e-02,5.270341038703918457e-01,9.339605147231570814e-02,-7.755937644712218582e-01,6.233075026433650828e-02,-2.258177305029975823e+00,1.231549251307819531e-01,1.552475638600049335e+00,7.993450844082163886e-01
7.500000000000000000e-01,5.135960723614374328e-03,3.077842593193054199e-01,7.926198840141296387e-02,5.279685258865356445e-01,9.478309969295117821e-02,-7.745884633333831593e-01,6.327689341615129470e-02,-2.255451139506541747e+00,1.261000029386816212e-01,1.551803477488645777e+00,7.992488037818482605e-01
7.666666666666666075e-01,5.015773784909045158e-03,3.076983690261840820e-01,8.081966638565063477e-02,5.288029313087463379e-01,9.628079721840698824e-02,-7.735679667446873076e-01,6.427543050157948079e-02,-2.252853118299793955e+00,1.292315081701106150e-01,1.550780049454935750e+00,7.992234415549855919e-01
7.833333333333333259e-01,4.890434041632806504e-03,3.076315522193908691e-01,8.236332237720489502e-02,5.296284556388854980e-01,9.777986580122552396e-02,-7.727368010252769759e-01,6.518145757701686305e-02,-2.250493297589053476e+00,1.324575536888915051e-01,1.550143965803156387e+00,7.995653305050623993e-01
8.000000000000000444e-01,4.924729296442454003e-03,3.075866103172302246e-01,8.388935029506683350e-02,5.302771925926208496e-01,9.937555006101196631e-02,-7.718087278740994872e-01,6.611296809709750477e-02,-2.248470752302616393e+00,1.354346278161028261e-01,1.549696396205276328e+00,7.993046292919354645e-01
8.166666666666666519e-01,4.997755284840427713e-03,3.075978159904479980e-01,8.545318245887756348e-02,5.308657884597778320e-01,1.010843335582139318e-01,-7.705788074520566466e-01,6.702839898953046049e-02,-2.246383647693493746e+00,1.384057533470583190e-01,1.549277913781517135e+00,7.993616367004275913e-01
8.333333333333333703e-01,5.094020005923713228e-03,3.074496090412139893e-01,8.696006983518600464e-02,5.314027667045593262e-01,1.027624581569170081e-01,-7.695759411339867517e-01,6.781437322735811568e-02,-2.244459784610237651e+00,1.414733535587567592e-01,1.548346646785120573e+00,7.994870670425425763e-01
8.499999999999999778e-01,5.173989538404632008e-03,3.074291348457336426e-01,8.842666447162628174e-02,5.319562554359436035e-01,1.040020200198899930e-01,-7.684310334118231722e-01,6.894597910049996004e-02,-2.242455842381256836e+00,1.443252568124095137e-01,1.547806183515937573e+00,7.997298801642014343e-01
8.666666666666666963e-01,5.096189991015661995e-03,3.073287904262542725e-01,8.997389674186706543e-02,5.326278209686279297e-01,1.055122966180588179e-01,-7.674897308671633223e-01,7.003092139436097041e-02,-2.240323857678669484e+00,1.472491776016554843e-01,1.547162455797004288e+00,7.998616863532186372e-01
8.833333333333333037e-01,4.990372893103881512e-03,3.072912693023681641e-01,9.139128029346466064e-02,5.333393216133117676e-01,1.069417552276466093e-01,-7.664981300874704750e-01,7.078079040899369623e-02,-2.238128120880253480e+00,1.502129531969774723e-01,1.546623136407925037e+00,8.000204754106712279e-01
9.000000000000000222e-01,5.031422916123606467e-03,3.071910142898559570e-01,9.303374588489532471e-02,5.338243246078491211e-01,1.083155341484147716e-01,-7.652555641865064207e-01,7.206851114349820120e-02,-2.236166185342280510e+00,1.534428877545295777e-01,1.545884935547692463e+00,7.999971703355865937e-01
9.166666666666666297e-01,4.981640792673139653e-03,3.072083890438079834e-01,9.449352324008941650e-02,5.344251394271850586e-01,1.097089147169800355e-01,-7.642447433391403866e-01,7.290241145690493085e-02,-2.234290044177833501e+00,1.565058657066139280e-01,1.545808666949422872e+00,8.002126680079676424e-01
9.333333333333333481e-01,4.753339614664994772e-03,3.072206676006317139e-01,9.620906412601470947e-02,5.351293683052062988e-01,1.110453624725662725e-01,-7.630665883977628683e-01,7.422244908842044742e-02,-2.232052074715848100e+00,1.599554069421063041e-01,1.545680764230509485e+00,8.002484643700008560e-01
9.499999999999999556e-01,4.757430732698725469e-03,3.072214126586914062e-01,9.777779132127761841e-02,5.356042385101318359e-01,1.125708295286883959e-01,-7.618111722131314378e-01,7.514830160802472847e-02,-2.230258261341685699e+00,1.631773388139729497e-01,1.545500145439905104e+00,8.008400966401292287e-01
9.666666666666666741e-01,4.528738488933167425e-03,3.072648346424102783e-01,9.931743144989013672e-02,5.363001823425292969e-01,1.139964929547653549e-01,-7.606575725838053970e-01,7.581746314496468075e-02,-2.228142098755936384e+00,1.667817369225708390e-01,1.545453991184130516e+00,8.009829072888803303e-01
9.833333333333332815e-01,4.503428676608610577e-03,3.073649406433105469e-01,1.007791459560394287e-01,5.367841720581054688e-01,1.150236502088883700e-01,-7.592508753217777073e-01,7.669556723800327602e-02,-2.226282748703613645e+00,1.702502145614245843e-01,1.545423929302123245e+00,8.014892557769226489e-01
1.000000000000000000e+00,4.308370915317509021e-03,3.074125647544860840e-01,1.022113710641860962e-01,5.374215841293334961e-01,1.162425425171150356e-01,-7.580305311492115949e-01,7.725508620667188853e-02,-2.224234662035775134e+00,1.738479767056071157e-01,1.545254273821743185e+00,8.018752810243984230e-01
1.016666666666666607e+00,4.134639682729625287e-03,3.075368106365203857e-01,1.038225516676902771e-01,5.379861593246459961e-01,1.175823672830968725e-01,-7.565593185718738622e-01,7.822886435922658810e-02,-2.222212961072248749e+00,1.773282893509986746e-01,1.545468006796278271e+00,8.024413710260286381e-01
1.033333333333333215e+00,3.967355512799111000e-03,3.076328039169311523e-01,1.054645553231239319e-01,5.385186672210693359e-01,1.189567735077073085e-01,-7.551440105904563271e-01,7.906471580249849196e-02,-2.220337419159793324e+00,1.811708980031583316e-01,1.545707735865909704e+00,8.026542861726158051e-01
1.050000000000000044e+00,3.776612666016888713e-03,3.077194690704345703e-01,1.070522218942642212e-01,5.390658378601074219e-01,1.202074503890518120e-01,-7.538204082362506275e-01,8.009025526029257824e-02,-2.218456274504614356e+00,1.846075455945625776e-01,1.545960019522323980e+00,8.032932065225627527e-01
1.066666666666666652e+00,3.618787335632442891e-03,3.077687621116638184e-01,1.085692122578620911e-01,5.395614504814147949e-01,1.212918843332816687e-01,-7.525006848621113020e-01,8.083086999751208646e-02,-2.216690833443519359e+00,1.884990394149214377e-01,1.545970985566520017e+00,8.039747625407916987e-01
1.083333333333333259e+00,3.487087789029846927e-03,3.078438341617584229e-01,1.102039217948913574e-01,5.400078296661376953e-01,1.225791181155331810e-01,-7.511589500614276327e-01,8.172716698745755015e-02,-2.215078623282982218e+00,1.923606286531479859e-01,1.546342274854545673e+00,8.048732677429862870e-01
1.100000000000000089e+00,3.257756398835844665e-03,3.078462481498718262e-01,1.117543950676918030e-01,5.405275821685791016e-01,1.239136552075103259e-01,-7.501000883777461103e-01,8.261394943040516192e-02,-2.213455887793087662e+00,1.958079758397441583e-01,1.546599165936474174e+00,8.058233979226191446e-01
1.116666666666666696e+00,3.100523071698764975e-03,3.077768385410308838e-01,1.133891493082046509e-01,5.409418940544128418e-01,1.250451708511636506e-01,-7.491015577717781149e-01,8.379691666030232577e-02,-2.212059819327771404e+00,1.995034723475281602e-01,1.546756111131953437e+00,8.066705327981859019e-01
1.133333333333333304e+00,3.093037468145876101e-03,3.077249526977539062e-01,1.149290055036544800e-01,5.411899089813232422e-01,1.264401308136512969e-01,-7.478790669488499798e-01,8.472537605947870476e-02,-2.210842980124058776e+00,2.028201386609019830e-01,1.546800242917419244e+00,8.074148639762682711e-01
1.149999999999999911e+00,2.942724922560132749e-03,3.077520430088043213e-01,1.164008602499961853e-01,5.415808558464050293e-01,1.275409548127706683e-01,-7.465799455795437689e-01,8.533748394843303220e-02,-2.209361008683421002e+00,2.067344387172404818e-01,1.546890651319014376e+00,8.085387295731200075e-01
1.166666666666666741e+00,2.753981242616062620e-03,3.077837824821472168e-01,1.177894249558448792e-01,5.419830083847045898e-01,1.286048329640772925e-01,-7.454001601842195068e-01,8.590133944013744749e-02,-2.207948059513954231e+00,2.104035387470969132e-01,1.547069239229496462e+00,8.091998728446631040e-01
1.183333333333333348e+00,2.654879096725011427e-03,3.078213930130004883e-01,1.191021054983139038e-01,5.422600507736206055e-01,1.295834761435787075e-01,-7.441347013702283020e-01,8.633086272990508903e-02,-2.206744006136313274e+00,2.141128083921105540e-01,1.547167487681365250e+00,8.102071745126677715e-01
1.199999999999999956e+00,2.558535772176890807e-03,3.078784942626953125e-01,1.203031986951828003e-01,5.425063967704772949e-01,1.306275827863446204e-01,-7.427183128700800552e-01,8.646367001751088799e-02,-2.205487941302002763e+00,2.177092167487526542e-01,1.547060943312136061e+00,8.114009491937362872e-01
1.216666666666666563e+00,2.503169164374769405e-03,3.079609870910644531e-01,1.214350014925003052e-01,5.427038669586181641e-01,1.313483005913081147e-01,-7.414846446856656614e-01,8.682511197190370678e-02,-2.204482608162437351e+00,2.210825558547591108e-01,1.547241853026602776e+00,8.124995218707056210e-01
1.233333333333333393e+00,2.555088421917116760e-03,3.080828785896301270e-01,1.225006580352783203e-01,5.428040623664855957e-01,1.316734342347368192e-01,-7.402845897880830917e-01,8.716504036986061354e-02,-2.203772709961377085e+00,2.248080033492405316e-01,1.547591657945107224e+00,8.136029935226153365e-01
1.250000000000000000e+00,2.615182451377319819e-03,3.081527650356292725e-01,1.234915703535079956e-01,5.428920388221740723e-01,1.318051761584486670e-01,-7.390549951820118979e-01,8.754728435954009513e-02,-2.202965061457460738e+00,2.284204179132636736e-01,1.547506258933883494e+00,8.149615081493184476e-01
1.266666666666666607e+00,2.722081998503548834e-03,3.082236051559448242e-01,1.246280819177627563e-01,5.428953170776367188e-01,1.325026322020362579e-01,-7.376514236121823886e-01,8.799886676983920131e-02,-2.202228862959012545e+00,2.317388060428332841e-01,1.547593715629641542e+00,8.160038201877426456e-01
1.283333333333333215e+00,2.897812014020875217e-03,3.082767128944396973e-01,1.256513446569442749e-01,5.428298115730285645e-01,1.329297900450292502e-01,-7.363732409351144703e-01,8.831768081789981295e-02,-2.201739630602287168e+00,2.352273954181205995e-01,1.547615307839393273e+00,8.172730301752920701e-01
1.300000000000000044e+00,3.161756561214231279e-03,3.083674907684326172e-01,1.267086863517761230e-01,5.426505208015441895e-01,1.336191790387243616e-01,-7.346817141260716388e-01,8.849784570797301908e-02,-2.201191213627881282e+00,2.386924993417203766e-01,1.547466699354306252e+00,8.183865391486961904e-01
1.316666666666666652e+00,3.173142413801399719e-03,3.083744943141937256e-01,1.279380023479461670e-01,5.426312685012817383e-01,1.345695351745380686e-01,-7.333906364175218906e-01,8.878711699910538102e-02,-2.200655270819576792e+00,2.424268529450479548e-01,1.547615122928873044e+00,8.195715840066779556e-01
1.333333333333333259e+00,3.185784639080972702e-03,3.084497749805450439e-01,1.291840374469757080e-01,5.426098108291625977e-01,1.351969898036922690e-01,-7.319642063731159887e-01,8.923047898010807999e-02,-2.200066922763108668e+00,2.464070842773048164e-01,1.547894306339875348e+00,8.204189268994794837e-01
1.350000000000000089e+00,3.254309879085084175e-03,3.083966374397277832e-01,1.304754167795181274e-01,5.424028038978576660e-01,1.358193379795777089e-01,-7.305852661300784590e-01,8.995432506750990209e-02,-2.199783143667831897e+00,2.502317837195713324e-01,1.547826895076362064e+00,8.215527092420529254e-01
1.366666666666666696e+00,3.252183966277066244e-03,3.083630800247192383e-01,1.317704468965530396e-01,5.422644019126892090e-01,1.364370521769961986e-01,-7.292498440921250102e-01,9.065217857837729043e-02,-2.199422554087533843e+00,2.541047301565229621e-01,1.547880397692054544e+00,8.226702479927342493e-01
1.383333333333333304e+00,3.155257013040560672e-03,3.083187639713287354e-01,1.331970244646072388e-01,5.421618223190307617e-01,1.370020801418521394e-01,-7.278630124638602039e-01,9.169675069781099697e-02,-2.198926979369038026e+00,2.580373808633825150e-01,1.547976140103244802e+00,8.236877439613087271e-01
1.399999999999999911e+00,3.122981120144241712e-03,3.081739246845245361e-01,1.347241997718811035e-01,5.419121384620666504e-01,1.378825099239289198e-01,-7.264691637517517453e-01,9.262451317851844168e-02,-2.198748493540566784e+00,2.622898211671826907e-01,1.547913784385481106e+00,8.248414306632129156e-01
1.416666666666666741e+00,3.178349257201579063e-03,3.081121742725372314e-01,1.361532807350158691e-01,5.416294932365417480e-01,1.385537017679885075e-01,-7.251486513719346272e-01,9.352308986305617189e-02,-2.198772061082385765e+00,2.664379881015587204e-01,1.548242527953516801e+00,8.263182610450714449e-01
1.433333333333333348e+00,3.148825249209086154e-03,3.079917132854461670e-01,1.375446915626525879e-01,5.414178967475891113e-01,1.391504583372568937e-01,-7.240485474006820299e-01,9.443942807406102702e-02,-2.198769897512813376e+00,2.705275078482002327e-01,1.548461003561057758e+00,8.278052111692195680e-01
1.449999999999999956e+00,3.058392123566984391e-03,3.078191876411437988e-01,1.388825476169586182e-01,5.412505865097045898e-01,1.396140629544794787e-01,-7.231276157732170473e-01,9.519786930077198117e-02,-2.198815341761267916e+00,2.749034841712446053e-01,1.548520519473643997e+00,8.289127466961310198e-01
1.466666666666666563e+00,3.008457163244798727e-03,3.076745867729187012e-01,1.401628255844116211e-01,5.410394072532653809e-01,1.398212118889042010e-01,-7.222379486960394113e-01,9.604229346786458121e-02,-2.198986915910392526e+00,2.792555709943450593e-01,1.548675569535210350e+00,8.304448911044497450e-01
1.483333333333333393e+00,2.964546002044751282e-03,3.075775206089019775e-01,1.412747651338577271e-01,5.408019423484802246e-01,1.400223579861124279e-01,-7.212338478974583689e-01,9.657859362663701042e-02,-2.199128421728879346e+00,2.833457329178180051e-01,1.548691140227101526e+00,8.314542881435281751e-01
1.500000000000000000e+00,2.752299334026208754e-03,3.074804544448852539e-01,1.423714309930801392e-01,5.407152175903320312e-01,1.400371486831744339e-01,-7.204208769838432724e-01,9.719875707645427021e-02,-2.199096037700411621e+00,2.874745094317591732e-01,1.548775695685616238e+00,8.326579745915955177e-01
1.516666666666666607e+00,2.588181065356201516e-03,3.073312640190124512e-01,1.435524076223373413e-01,5.405623316764831543e-01,1.401413806080972768e-01,-7.196894388752133054e-01,9.791216547307712847e-02,-2.199283805932503721e+00,2.917732934905637454e-01,1.548931571277957886e+00,8.344445437525968012e-01
1.533333333333333215e+00,2.534102260056221231e-03,3.072110712528228760e-01,1.446924358606338501e-01,5.402829647064208984e-01,1.402666014281640783e-01,-7.186559360344637604e-01,9.847907787926359069e-02,-2.199517837768918405e+00,2.961037494460501129e-01,1.548880618984957325e+00,8.356414229127173687e-01
1.550000000000000044e+00,2.205513053641190106e-03,3.072488903999328613e-01,1.455524265766143799e-01,5.402389764785766602e-01,1.400821866923737946e-01,-7.177127479643821140e-01,9.864368472713667957e-02,-2.199394512855342043e+00,3.001568464513824086e-01,1.549030811676767261e+00,8.370461702685482175e-01
1.566666666666666652e+00,2.093880202829253613e-03,3.071964681148529053e-01,1.465228945016860962e-01,5.399639606475830078e-01,1.402052883137735184e-01,-7.168578130967629969e-01,9.888509134863510130e-02,-2.199850522872526692e+00,3.042855848121984730e-01,1.549319910185539717e+00,8.386414684924061724e-01
1.583333333333333259e+00,1.815403484039420897e-03,3.070277869701385498e-01,1.475218832492828369e-01,5.398341417312622070e-01,1.402780146294169694e-01,-7.160100549423102922e-01,9.901968271404734678e-02,-2.199929157972682514e+00,3.088319489010784014e-01,1.548917308629697009e+00,8.401142730384008050e-01
1.600000000000000089e+00,1.739074515080932509e-03,3.070580661296844482e-01,1.484324187040328979e-01,5.394884347915649414e-01,1.403506224456358698e-01,-7.147561791637033757e-01,9.901822641451304974e-02,-2.200294801654764321e+00,3.131350122987165974e-01,1.549036592245603083e+00,8.415678552379326494e-01
1.616666666666666696e+00,1.469793245417338632e-03,3.070120513439178467e-01,1.493673771619796753e-01,5.393175482749938965e-01,1.404804663526580955e-01,-7.137733271127337797e-01,9.915864652261782708e-02,-2.200417478450578113e+00,3.172143799640558259e-01,1.549047533125410325e+00,8.433405366780608592e-01
1.633333333333333304e+00,1.285290154054766687e-03,3.070489764213562012e-01,1.501766294240951538e-01,5.390683412551879883e-01,1.406153756605408867e-01,-7.127971030739759239e-01,9.895898682400393331e-02,-2.200831851879195611e+00,3.213167142969186596e-01,1.549364760809014196e+00,8.448618729723966769e-01
1.649999999999999911e+00,1.330309226159757377e-03,3.071449100971221924e-01,1.509168446063995361e-01,5.386216640472412109e-01,1.403919492646067413e-01,-7.115656623787145474e-01,9.888656582521829219e-02,-2.201462569701812200e+00,3.254200849627160164e-01,1.549614306975013234e+00,8.461824557091729426e-01
1.666666666666666741e+00,1.224840862862133783e-03,3.071685731410980225e-01,1.516338139772415161e-01,5.383981466293334961e-01,1.401271580785766191e-01,-7.106515049734638545e-01,9.869654302670868851e-02,-2.201846606723377509e+00,3.297006269965235825e-01,1.549672486854631437e+00,8.478162390342907084e-01
1.683333333333333348e+00,1.338910733898490604e-03,3.073485791683197021e-01,1.523270010948181152e-01,5.380257964134216309e-01,1.398902384418491129e-01,-7.092785723471339843e-01,9.840052099304780198e-02,-2.202303696185106130e+00,3.339385843673346455e-01,1.550001338376234106e+00,8.494520522091284498e-01
1.699999999999999956e+00,1.458902804011946849e-03,3.074850142002105713e-01,1.530729681253433228e-01,5.376220345497131348e-01,1.394467580697968390e-01,-7.078785641080782565e-01,9.827076377003413077e-02,-2.202788572381390697e+00,3.384866810549942429e-01,1.550129849810234495e+00,8.509631918088431668e-01
1.716666666666666563e+00,1.583807847390231562e-03,3.075569868087768555e-01,1.537790000438690186e-01,5.373316407203674316e-01,1.393848878671110347e-01,-7.067599201602561276e-01,9.785260166844379770e-02,-2.203252361097462586e+00,3.428169190254958809e-01,1.550255127144631651e+00,8.526396405271471357e-01
1.733333333333333393e+00,1.701134175092978724e-03,3.076163530349731445e-01,1.545558422803878784e-01,5.368615388870239258e-01,1.392389684945638806e-01,-7.054346175645165307e-01,9.765770873694049059e-02,-2.203926839685237837e+00,3.472579790213836115e-01,1.550303900773016386e+00,8.541939237523623607e-01
1.750000000000000000e+00,1.593853088901212673e-03,3.075537681579589844e-01,1.555256545543670654e-01,5.365459322929382324e-01,1.393392293266189075e-01,-7.043225036869977806e-01,9.779951916436889492e-02,-2.204359519634919717e+00,3.516575497756954660e-01,1.550278131731241960e+00,8.559129411096135787e-01
1.766666666666666607e+00,1.589447658215628178e-03,3.076052069664001465e-01,1.564240604639053345e-01,5.359377861022949219e-01,1.390630589314349186e-01,-7.027871447159956819e-01,9.807179534329170389e-02,-2.205120438736213551e+00,3.560587071721649233e-01,1.550320514695625151e+00,8.575711150567814078e-01
1.783333333333333215e+00,1.767602050762918237e-03,3.076031506061553955e-01,1.571064740419387817e-01,5.354259610176086426e-01,1.390511057824961871e-01,-7.015931781144267854e-01,9.770170914519592242e-02,-2.205955788215540281e+00,3.602339482113623981e-01,1.550187419107126763e+00,8.592733696855363590e-01
1.800000000000000044e+00,1.838336721613680795e-03,3.074122965335845947e-01,1.578369438648223877e-01,5.348526835441589355e-01,1.391220186868539210e-01,-7.006602200869767039e-01,9.751906873354583560e-02,-2.206986493240330915e+00,3.643106271946079944e-01,1.549640383563639645e+00,8.606996416879706402e-01
1.816666666666666652e+00,1.658994731172469365e-03,3.072346746921539307e-01,1.588011831045150757e-01,5.340860486030578613e-01,1.392996739744845336e-01,-6.994764711072614105e-01,9.779748419008992000e-02,-2.208282224282482886e+00,3.685513102680506581e-01,1.549448760358998811e+00,8.625354137848464386e-01
1.833333333333333259e+00,1.587922841564109273e-03,3.072040081024169922e-01,1.596542149782180786e-01,5.331965684890747070e-01,1.392413309486210948e-01,-6.978969697022565644e-01,9.801989780931537333e-02,-2.209577704310498270e+00,3.726425428150599295e-01,1.549341926187330021e+00,8.642973687793353843e-01
1.849999999999999867e+00,1.506970025064454472e-03,3.071257174015045166e-01,1.605196744203567505e-01,5.322082042694091797e-01,1.392168436578633262e-01,-6.962141027688346639e-01,9.800389659220345995e-02,-2.211081039213130151e+00,3.772500749872076398e-01,1.548985505862806811e+00,8.661811543895853172e-01
1.866666666666666696e+00,1.384704578614823212e-03,3.071456253528594971e-01,1.614563316106796265e-01,5.312405824661254883e-01,1.392486745132505699e-01,-6.943862941673211164e-01,9.833464535599842349e-02,-2.212416220528063970e+00,3.813965375514168921e-01,1.549078158685957440e+00,8.677173813123792989e-01
1.883333333333333304e+00,1.348426366442175657e-03,3.071447014808654785e-01,1.623885482549667358e-01,5.301358699798583984e-01,1.394075286653709000e-01,-6.922451730410668080e-01,9.850217458901248946e-02,-2.213806301934202470e+00,3.856354670072921764e-01,1.548824898097170166e+00,8.693264729210556929e-01
1.899999999999999911e+00,1.433416882457427734e-03,3.070766329765319824e-01,1.632405519485473633e-01,5.290452837944030762e-01,1.396611416126220806e-01,-6.904472959449802216e-01,9.847708168967063413e-02,-2.215438321300508662e+00,3.897848073098252875e-01,1.548608186153770605e+00,8.711481375989327258e-01
1.916666666666666741e+00,1.411652015952603173e-03,3.069244623184204102e-01,1.641967296600341797e-01,5.280639529228210449e-01,1.398899740017264248e-01,-6.888444964293963801e-01,9.875132224361049538e-02,-2.216924631538348400e+00,3.939600520706645903e-01,1.548317743575667871e+00,8.731851461939009740e-01
1.933333333333333348e+00,1.560987735750814665e-03,3.067744374275207520e-01,1.651550382375717163e-01,5.269491076469421387e-01,1.398344966084310026e-01,-6.871098795835404172e-01,9.931286401602962277e-02,-2.218546631798413493e+00,3.980971270372596904e-01,1.547955439101275532e+00,8.750645390280263891e-01
1.949999999999999956e+00,1.861466964702960082e-03,3.066127598285675049e-01,1.661389470100402832e-01,5.257410407066345215e-01,1.400202580170449018e-01,-6.852181935210012176e-01,9.985685381710319997e-02,-2.220234704525384739e+00,4.020282938594426092e-01,1.547573597076414842e+00,8.765085773356134924e-01
1.966666666666666563e+00,2.146153424300011395e-03,3.065211772918701172e-01,1.669065207242965698e-01,5.245961546897888184e-01,1.398234110072576752e-01,-6.834462674891016443e-01,1.001828001002901536e-01,-2.221899438985120767e+00,4.058753937775999021e-01,1.547171023729514650e+00,8.782714888261095032e-01
1.983333333333333393e+00,2.366798483947636558e-03,3.063399791717529297e-01,1.678453832864761353e-01,5.235315561294555664e-01,1.399296736314418199e-01,-6.819185388885463661e-01,1.006839932713633479e-01,-2.223596895164912546e+00,4.098337825444796634e-01,1.546977202961908882e+00,8.799906711316397567e-01
2.000000000000000000e+00,2.410263146577550607e-03,3.062410950660705566e-01,1.687476933002471924e-01,5.226483345031738281e-01,1.400688841120133199e-01,-6.801336955236930715e-01,1.010683975384016747e-01,-2.224693087512036982e+00,4.136022679260620283e-01,1.546599258180755276e+00,8.815350137035663503e-01
2.016666666666666607e+00,2.746664788482547706e-03,3.060903251171112061e-01,1.694782376289367676e-01,5.214487314224243164e-01,1.400052738977030087e-01,-6.785091582168316648e-01,1.012219466756066194e-01,-2.226638809600033575e+00,4.174838598830589720e-01,1.546209810219927983e+00,8.834478157226434147e-01
2.033333333333333215e+00,3.019333173109412134e-03,3.060578107833862305e-01,1.702515482902526855e-01,5.202736854553222656e-01,1.400528209514033950e-01,-6.764933869662257404e-01,1.013250844094319147e-01,-2.228304626725869486e+00,4.213686863796270443e-01,1.545978315812386317e+00,8.851079847267165901e-01
2.049999999999999822e+00,3.328161763424818641e-03,3.059099614620208740e-01,1.709640473127365112e-01,5.190786719322204590e-01,1.397327058836512481e-01,-6.749315295298715656e-01,1.015667971938304659e-01,-2.230324249741186815e+00,4.254416560506216194e-01,1.545619825084590504e+00,8.865756825151407394e-01
2.066666666666666430e+00,3.543997036890447847e-03,3.057498633861541748e-01,1.717103868722915649e-01,5.179919600486755371e-01,1.395857500655322547e-01,-6.733091989511160724e-01,1.017203960097231158e-01,-2.232070773288184373e+00,4.295170613795248338e-01,1.545118318540172453e+00,8.884702380450993919e-01
2.083333333333333481e+00,3.621782140521045794e-03,3.056198656558990479e-01,1.723466962575912476e-01,5.170130729675292969e-01,1.390690275679698773e-01,-6.718488175009522667e-01,1.018602873327495856e-01,-2.233710103078757392e+00,4.336376811914198215e-01,1.544560046928138419e+00,8.901511846385132820e-01
2.100000000000000089e+00,3.742450968639070025e-03,3.054744005203247070e-01,1.730298995971679688e-01,5.160047411918640137e-01,1.384110273126231694e-01,-6.703637792256433858e-01,1.022306294843556562e-01,-2.235373383072016384e+00,4.378153582390804099e-01,1.543987635905251343e+00,8.916090789870104727e-01
2.116666666666666696e+00,3.823703822917504450e-03,3.054179549217224121e-01,1.735887974500656128e-01,5.149533152580261230e-01,1.377065279359017680e-01,-6.687016251854058790e-01,1.022894954993035926e-01,-2.237072460319547762e+00,4.419820764265423030e-01,1.543445621921567312e+00,8.934274142761843285e-01
2.133333333333333304e+00,3.676624555177015335e-03,3.053728044033050537e-01,1.741580367088317871e-01,5.141643285751342773e-01,1.370349483576104033e-01,-6.673976564653730792e-01,1.023815008075437544e-01,-2.238485766487791295e+00,4.460436903801174302e-01,1.543153145272608828e+00,8.952108109549270498e-01
2.149999999999999911e+00,3.630810001156850597e-03,3.054270744323730469e-01,1.748682856559753418e-01,5.132656693458557129e-01,1.366435416639672773e-01,-6.654794843949043415e-01,1.025081502127928035e-01,-2.239748081272284530e+00,4.502034463536573883e-01,1.543012074985061766e+00,8.968069339564754827e-01
2.166666666666666519e+00,3.298172169544459024e-03,3.054804503917694092e-01,1.752599328756332397e-01,5.125776529312133789e-01,1.358551040926150311e-01,-6.641245959553943035e-01,1.023646688289256146e-01,-2.240895370755723093e+00,4.538962916729069041e-01,1.542676449918823245e+00,8.984864036268096488e-01
2.183333333333333126e+00,3.175792978594075330e-03,3.054105341434478760e-01,1.757761240005493164e-01,5.117703080177307129e-01,1.355241805943470934e-01,-6.626375949604692561e-01,1.020563180938410391e-01,-2.242252928280723090e+00,4.578751845686620525e-01,1.542076144964005247e+00,8.998671868803720386e-01
2.200000000000000178e+00,3.056311561316125448e-03,3.053579628467559814e-01,1.764241904020309448e-01,5.110700726509094238e-01,1.351006573302231673e-01,-6.612042482537093813e-01,1.020410951784524595e-01,-2.243455786809152475e+00,4.621031349271217947e-01,1.541705529633864424e+00,9.014275883004850831e-01
2.216666666666666785e+00,3.083656802615792128e-03,3.052271008491516113e-01,1.770279854536056519e-01,5.102446675300598145e-01,1.346595750245797030e-01,-6.597910008814193983e-01,1.021061403129607525e-01,-2.244851095145525388e+00,4.660656806744494784e-01,1.541080861515915057e+00,9.029463681065662550e-01
2.233333333333333393e+00,2.778845523402577195e-03,3.052227795124053955e-01,1.772514432668685913e-01,5.095466375350952148e-01,1.339455011051612909e-01,-6.584603199543201946e-01,1.014753034894241984e-01,-2.246076897486214197e+00,4.697289764146496127e-01,1.540250692017882894e+00,9.044187790957198825e-01
2.250000000000000000e+00,2.767730025455795821e-03,3.051713705062866211e-01,1.777442842721939087e-01,5.087015628814697266e-01,1.334440190105821156e-01,-6.568407345979341283e-01,1.013467220277057129e-01,-2.247383800551423061e+00,4.735237807411667443e-01,1.539568926636012192e+00,9.059795429816985823e-01
2.266666666666666607e+00,2.459144217654758279e-03,3.052967786788940430e-01,1.778989881277084351e-01,5.078380107879638672e-01,1.324845650182938928e-01,-6.549417470151469578e-01,1.004859295266717356e-01,-2.248689136499859575e+00,4.775981424976613043e-01,1.538634411454597117e+00,9.075886445162482108e-01
2.283333333333333215e+00,2.342660765258512690e-03,3.053055107593536377e-01,1.781933754682540894e-01,5.069659948348999023e-01,1.317108920847082365e-01,-6.532045547241289718e-01,9.994131123884755774e-02,-2.250062215184048586e+00,4.815729790746529071e-01,1.537689500921039176e+00,9.091589895845481051e-01
2.299999999999999822e+00,2.346528418336207757e-03,3.052504062652587891e-01,1.785975247621536255e-01,5.063188672065734863e-01,1.311723385196433556e-01,-6.516591621763055953e-01,9.944312482082470761e-02,-2.251082327358557400e+00,4.855952777323440106e-01,1.536656427576690520e+00,9.106532099194993846e-01
2.316666666666666430e+00,2.129663739014881364e-03,3.053722381591796875e-01,1.787278354167938232e-01,5.054565668106079102e-01,1.302269058580829142e-01,-6.497077357105728312e-01,9.846916100098705715e-02,-2.252402100147964159e+00,4.897338667871090623e-01,1.535618419333475204e+00,9.121030541491190746e-01
2.333333333333333481e+00,2.027152638754554839e-03,3.053900301456451416e-01,1.788522899150848389e-01,5.045081973075866699e-01,1.294365188004832357e-01,-6.476260766296021432e-01,9.759181742574536689e-02,-2.253653603504586656e+00,4.934166327370696492e-01,1.534091756140438356e+00,9.134893725536684661e-01
2.350000000000000089e+00,1.906192170133127551e-03,3.054135739803314209e-01,1.788896024227142334e-01,5.035223960876464844e-01,1.285380162120332570e-01,-6.455678666398572130e-01,9.654447051712858330e-02,-2.255052033363173170e+00,4.971684138299801159e-01,1.532496908213114795e+00,9.148435027550351206e-01
2.366666666666666696e+00,1.893668776400672313e-03,3.054357767105102539e-01,1.790042370557785034e-01,5.026214718818664551e-01,1.278899926996245329e-01,-6.434941032453179721e-01,9.545565536238009852e-02,-2.256292677265768543e+00,5.009478279620416252e-01,1.530985007946610299e+00,9.163918855287279674e-01
2.383333333333333304e+00,1.865304059939758155e-03,3.055102229118347168e-01,1.790112704038619995e-01,5.017354488372802734e-01,1.271467861858588677e-01,-6.413998797401015972e-01,9.417445190990161863e-02,-2.257519420653919084e+00,5.046558966598486684e-01,1.529467282843917530e+00,9.178088293870817482e-01
2.399999999999999911e+00,1.839032841363152969e-03,3.054989874362945557e-01,1.789849698543548584e-01,5.006154179573059082e-01,1.266012401235823426e-01,-6.393258730014702573e-01,9.279247824810765710e-02,-2.259267537281760774e+00,5.081934138818088309e-01,1.527932092361426575e+00,9.190982650777017593e-01
2.416666666666666519e+00,1.841832004065948377e-03,3.054163455963134766e-01,1.790856122970581055e-01,4.993432462215423584e-01,1.262087743913536675e-01,-6.368680660235465085e-01,9.169752339492191762e-02,-2.260967251377483223e+00,5.115883670517830106e-01,1.526079990328270464e+00,9.201732706817333796e-01
2.433333333333333126e+00,1.746983141779736085e-03,3.054904639720916748e-01,1.791235506534576416e-01,4.981274008750915527e-01,1.255154878595046708e-01,-6.342744765248953254e-01,9.060938988474427636e-02,-2.262513264243022348e+00,5.150507268143605932e-01,1.524536615257566785e+00,9.213453541359696297e-01
2.450000000000000178e+00,1.816526823454320304e-03,3.054686188697814941e-01,1.791623234748840332e-01,4.970461130142211914e-01,1.249943395176546374e-01,-6.319257385748534572e-01,8.935343670500538182e-02,-2.263957974370049531e+00,5.185523590896341517e-01,1.522724404164613299e+00,9.223810301811290469e-01
2.466666666666666785e+00,1.754848119197776040e-03,3.055196404457092285e-01,1.791826635599136353e-01,4.958043098449707031e-01,1.246050937002166625e-01,-6.290059823346170198e-01,8.791772109844532557e-02,-2.265367932508085769e+00,5.219995691736614152e-01,1.520788483654085033e+00,9.237380633872502855e-01
2.483333333333333393e+00,1.871497655094589646e-03,3.054603338241577148e-01,1.792523115873336792e-01,4.947283267974853516e-01,1.240908167786501370e-01,-6.266468202567536672e-01,8.689532341540587290e-02,-2.266705585087857244e+00,5.251988908296012504e-01,1.518893288289570487e+00,9.247119359623134915e-01
2.500000000000000000e+00,1.962385684467434638e-03,3.053679168224334717e-01,1.792123913764953613e-01,4.935041964054107666e-01,1.237975802344978699e-01,-6.241144293568653412e-01,8.533463699850726836e-02,-2.268350951259616721e+00,5.284995912552158392e-01,1.516731677192814542e+00,9.258102318942583731e-01
2.516666666666666607e+00,1.946069535053949855e-03,3.052529692649841309e-01,1.794754117727279663e-01,4.921167492866516113e-01,1.236807307841448211e-01,-6.211234511821861481e-01,8.428272563608256440e-02,-2.270049924485864956e+00,5.321527919325800271e-01,1.514737914250915418e+00,9.267301002321063352e-01
2.533333333333333215e+00,2.001936991847854015e-03,3.051387965679168701e-01,1.794290542602539062e-01,4.907010495662689209e-01,1.231898397407288903e-01,-6.184151709396098484e-01,8.286082683298465201e-02,-2.272020738621607361e+00,5.355417344800916801e-01,1.512538883305778903e+00,9.279607678209368382e-01
2.549999999999999822e+00,1.992815184702913765e-03,3.051055073738098145e-01,1.794380694627761841e-01,4.892466366291046143e-01,1.226192451378074477e-01,-6.154649707392183533e-01,8.162410712794000711e-02,-2.273921067040335142e+00,5.389623324936889670e-01,1.510582808144838252e+00,9.290738751910103677e-01
2.566666666666666430e+00,2.088476493034843555e-03,3.050353825092315674e-01,1.794782727956771851e-01,4.882021844387054443e-01,1.222862781055824855e-01,-6.128998467163668806e-01,8.007078732782271779e-02,-2.275297127923833429e+00,5.426383816892292877e-01,1.508421925457032131e+00,9.299377761491955940e-01
2.583333333333333481e+00,2.165671741081059455e-03,3.049589991569519043e-01,1.795689910650253296e-01,4.870820939540863037e-01,1.219082335173278103e-01,-6.101924939661544922e-01,7.876005012552847462e-02,-2.276689284317454209e+00,5.462050976290346860e-01,1.506278114316926819e+00,9.311120310575966563e-01
2.600000000000000089e+00,2.273841327527816470e-03,3.048034608364105225e-01,1.796087175607681274e-01,4.856909811496734619e-01,1.214597729941685467e-01,-6.074590332742891841e-01,7.749398391835350675e-02,-2.278655304191548492e+00,5.496719082405535639e-01,1.504104653663505875e+00,9.319602697385488410e-01
2.616666666666666696e+00,2.291728939040557807e-03,3.047738969326019287e-01,1.796056330204010010e-01,4.844089746475219727e-01,1.206885454622638465e-01,-6.044844589379254618e-01,7.621725232991537202e-02,-2.280262970475707363e+00,5.533356885111074819e-01,1.501876205512932216e+00,9.326250099919033421e-01
2.633333333333333304e+00,2.334232798508101975e-03,3.047114610671997070e-01,1.796665191650390625e-01,4.831421375274658203e-01,1.203016600667503599e-01,-6.015955421171171880e-01,7.497471640230513046e-02,-2.281847150131572022e+00,5.566506169276724814e-01,1.499855149582463909e+00,9.336157954990027541e-01
2.649999999999999911e+00,2.431219622438576464e-03,3.045939505100250244e-01,1.798607558012008667e-01,4.819198548793792725e-01,1.201466656518929144e-01,-5.986893114774126667e-01,7.371361391503238047e-02,-2.283421785232038204e+00,5.603243508889397262e-01,1.497794496412204301e+00,9.345466949670100387e-01
2.666666666666666519e+00,2.518537849297913626e-03,3.045027256011962891e-01,1.799165904521942139e-01,4.806444644927978516e-01,1.199568388725890666e-01,-5.956014765196344651e-01,7.213197214638782107e-02,-2.285010795436182462e+00,5.638767045178323389e-01,1.495492709786558239e+00,9.355419746177274787e-01
2.683333333333333126e+00,2.556651558124256943e-03,3.044674694538116455e-01,1.798807680606842041e-01,4.794911146163940430e-01,1.195163629566913938e-01,-5.930211583399063180e-01,7.058447602975999324e-02,-2.286728553360014793e+00,5.673505236702917065e-01,1.493683635638153318e+00,9.363436688286490561e-01
2.700000000000000178e+00,2.613968897843838707e-03,3.044131696224212646e-01,1.797755807638168335e-01,4.783585667610168457e-01,1.189641981680142208e-01,-5.901877807993503033e-01,6.893660050129049588e-02,-2.288179836469077078e+00,5.707310366836049198e-01,1.491296515000570810e+00,9.368127204120234586e-01
2.716666666666666785e+00,2.625384446756854305e-03,3.043976128101348877e-01,1.796972304582595825e-01,4.770318865776062012e-01,1.183389689113310689e-01,-5.871069320927295720e-01,6.775530161547402286e-02,-2.289700610947342341e+00,5.735290270661476120e-01,1.489208336610426509e+00,9.376323857414474716e-01
2.733333333333333393e+00,2.638668036558790547e-03,3.044094443321228027e-01,1.796328872442245483e-01,4.761379361152648926e-01,1.178496309646885620e-01,-5.844439203227369539e-01,6.609932716690139487e-02,-2.290796115630644891e+00,5.769579796390752469e-01,1.487049172104488060e+00,9.379874825318157416e-01
2.750000000000000000e+00,2.632000909858918034e-03,3.044533133506774902e-01,1.795646399259567261e-01,4.751348495483398438e-01,1.174764154476552885e-01,-5.814715195921411617e-01,6.425069321193256633e-02,-2.291994468036563148e+00,5.805113170187544691e-01,1.484879796823448839e+00,9.390061886995396678e-01
2.766666666666666607e+00,2.786357025470288795e-03,3.043339252471923828e-01,1.794126182794570923e-01,4.741231799125671387e-01,1.170828046163827213e-01,-5.788991364082378688e-01,6.248485942911944507e-02,-2.293364493004615756e+00,5.835751606071830633e-01,1.482378491663210340e+00,9.396424694870627592e-01
2.783333333333333215e+00,3.014276020716338562e-03,3.042294979095458984e-01,1.795158535242080688e-01,4.732465744018554688e-01,1.168895363614472355e-01,-5.762706350166844071e-01,6.104087104150696802e-02,-2.294458634103703876e+00,5.870331181037231616e-01,1.480129124990228862e+00,9.399828161956202965e-01
2.799999999999999822e+00,3.173065911203453923e-03,3.041380643844604492e-01,1.794503778219223022e-01,4.722118675708770752e-01,1.164911243269675795e-01,-5.734809261879053599e-01,5.944359022672686399e-02,-2.295762136617311544e+00,5.902232749966251912e-01,1.477708312533229540e+00,9.410595143302143972e-01
2.816666666666666430e+00,3.369040127047336422e-03,3.039994835853576660e-01,1.793536990880966187e-01,4.711619019508361816e-01,1.162023825035287533e-01,-5.709592381216583856e-01,5.763452351790288725e-02,-2.297397482566745808e+00,5.935322629325320287e-01,1.475433657929510201e+00,9.417034069176239974e-01
2.833333333333333481e+00,3.625081108536687934e-03,3.038076758384704590e-01,1.793594360351562500e-01,4.700503647327423096e-01,1.160994241628602736e-01,-5.681871245350397226e-01,5.589660589899496379e-02,-2.299008151842468539e+00,5.969279121671781096e-01,1.472968012537874793e+00,9.427146405676326557e-01
2.850000000000000089e+00,3.678406898453803493e-03,3.037618100643157959e-01,1.792730242013931274e-01,4.687687456607818604e-01,1.158253054636539242e-01,-5.649577586764384929e-01,5.414669491366658899e-02,-2.300640655722039352e+00,6.000878935460836061e-01,1.470744847843773906e+00,9.436297779047531087e-01
2.866666666666666696e+00,3.644307644059020367e-03,3.037390708923339844e-01,1.790096461772918701e-01,4.674167037010192871e-01,1.155831143066073929e-01,-5.616803001571990528e-01,5.207210826331135772e-02,-2.302358398616289659e+00,6.028236473187967848e-01,1.468457449454924513e+00,9.446437562269572874e-01
2.883333333333333304e+00,3.669649942224287396e-03,3.037204742431640625e-01,1.788288205862045288e-01,4.661404490470886230e-01,1.153832502257458037e-01,-5.584889668300709875e-01,5.004219703210693176e-02,-2.304059297851821508e+00,6.058512917289765598e-01,1.466321207990705311e+00,9.452298828747525139e-01
2.899999999999999911e+00,3.661305435587012755e-03,3.037114441394805908e-01,1.785679161548614502e-01,4.648206532001495361e-01,1.150659270461615868e-01,-5.552088410281346142e-01,4.779040407738580076e-02,-2.305893501126166090e+00,6.090424355968881986e-01,1.464052792095327016e+00,9.459311720947517488e-01
2.916666666666666519e+00,3.746220630820579559e-03,3.036473393440246582e-01,1.784054785966873169e-01,4.633159935474395752e-01,1.149587763714864236e-01,-5.515337733086073113e-01,4.579472989356270229e-02,-2.307749118978795533e+00,6.119298560715308311e-01,1.461692048743221672e+00,9.467287727923103802e-01
2.933333333333333126e+00,3.791215371009974602e-03,3.036451935768127441e-01,1.781639158725738525e-01,4.618641734123229980e-01,1.146110226398031479e-01,-5.478797802287073138e-01,4.378324316735639210e-02,-2.309510058809668198e+00,6.147866612523741336e-01,1.459368307010569632e+00,9.473451460502222421e-01
2.950000000000000178e+00,3.777422873876614632e-03,3.037225604057312012e-01,1.778288632631301880e-01,4.603219628334045410e-01,1.140599745309421043e-01,-5.439188359067788081e-01,4.144908809496719582e-02,-2.311440692544635578e+00,6.180414002751657421e-01,1.457001794191545185e+00,9.479473236346548370e-01
2.966666666666666785e+00,3.821441964433816302e-03,3.037549555301666260e-01,1.774172037839889526e-01,4.588137269020080566e-01,1.137898459910130639e-01,-5.402639571246046213e-01,3.881066310006906633e-02,-2.313514178003437838e+00,6.209964129140167488e-01,1.454751392156492074e+00,9.482114642712352603e-01
2.983333333333333393e+00,3.692801370528855757e-03,3.039051592350006104e-01,1.768188625574111938e-01,4.574503600597381592e-01,1.130138888239793915e-01,-5.366334122067911716e-01,3.618854871723845706e-02,-2.315185379733787574e+00,6.236527258180608602e-01,1.452355593397176348e+00,9.485771761604258057e-01
3.000000000000000000e+00,3.698596237567426843e-03,3.039729893207550049e-01,1.763318926095962524e-01,4.561392664909362793e-01,1.124493950950716664e-01,-5.331454414377536644e-01,3.356886338548169257e-02,-2.316936696295487152e+00,6.265752962742747734e-01,1.449930611692628046e+00,9.489353369259526660e-01
3.016666666666666607e+00,3.453939737794442782e-03,3.041762113571166992e-01,1.756405681371688843e-01,4.550378024578094482e-01,1.114321543323002622e-01,-5.299633614063310461e-01,3.084376740504024897e-02,-2.318391086978424998e+00,6.292807466733797428e-01,1.447619215040368390e+00,9.493374290997218523e-01
3.033333333333333215e+00,3.240798578480183923e-03,3.042696118354797363e-01,1.750197708606719971e-01,4.541707932949066162e-01,1.106760336748398021e-01,-5.270041761037785877e-01,2.793663229889469315e-02,-2.319563460701211444e+00,6.322042046898731504e-01,1.444801901666621147e+00,9.497104726813192510e-01
3.049999999999999822e+00,2.953351835644746435e-03,3.044644296169281006e-01,1.742111146450042725e-01,4.531950652599334717e-01,1.096308775032424215e-01,-5.238945463377782108e-01,2.481358547333941192e-02,-2.320887990553854419e+00,6.349720285558028143e-01,1.442119522294246670e+00,9.499688129360199795e-01
3.066666666666666430e+00,2.623381124880295491e-03,3.046854436397552490e-01,1.733380854129791260e-01,4.523223042488098145e-01,1.084292001807231759e-01,-5.209699349435585880e-01,2.162066991277189140e-02,-2.322141560934415150e+00,6.377636354336979618e-01,1.439437182264524440e+00,9.502041986308460420e-01
3.083333333333333481e+00,2.352201055776905175e-03,3.048709332942962646e-01,1.726376861333847046e-01,4.515175521373748779e-01,1.075299576334254464e-01,-5.178535827486527854e-01,1.846662842421333342e-02,-2.323186016143609312e+00,6.408675952829107070e-01,1.436581958862555686e+00,9.501952362453954803e-01
3.100000000000000089e+00,2.080557118802766909e-03,3.051166236400604248e-01,1.717013120651245117e-01,4.506846666336059570e-01,1.061970527388279018e-01,-5.150249376711322213e-01,1.522101297035150826e-02,-2.324443158726961833e+00,6.436164887572859428e-01,1.433952335576306414e+00,9.503234867134885411e-01
3.116666666666666696e+00,1.886527846686235702e-03,3.052534461021423340e-01,1.709804534912109375e-01,4.500310719013214111e-01,1.051677836263710947e-01,-5.122593292903517836e-01,1.234661902856757851e-02,-2.325246835848416627e+00,6.462977764949737747e-01,1.430986962651699113e+00,9.506658389033459944e-01
3.133333333333333304e+00,1.740965207271090616e-03,3.055182695388793945e-01,1.700669378042221069e-01,4.492486417293548584e-01,1.041948934016035389e-01,-5.091450576292110286e-01,8.766320881175933624e-03,-2.326254520474283272e+00,6.490842777898003790e-01,1.428146138200826476e+00,9.506256140548489109e-01
3.149999999999999911e+00,1.577418310425417278e-03,3.057603836059570312e-01,1.693847179412841797e-01,4.485186636447906494e-01,1.033672543099339175e-01,-5.060348201351470010e-01,5.671049948703356380e-03,-2.327113001484527377e+00,6.520244962496557495e-01,1.425514006164634528e+00,9.507571462385197014e-01
3.166666666666666519e+00,1.580271295118869509e-03,3.058958053588867188e-01,1.686342656612396240e-01,4.476782381534576416e-01,1.025596018225757994e-01,-5.029864396663346060e-01,2.460426208200673648e-03,-2.328275919781939596e+00,6.547841562372549440e-01,1.422667821315241499e+00,9.505166690252218054e-01
3.183333333333333126e+00,1.535919440496899113e-03,3.060407340526580811e-01,1.679651737213134766e-01,4.468618929386138916e-01,1.017400448760751308e-01,-4.997393115925733986e-01,-5.500087020510018021e-04,-2.329226963208765433e+00,6.576051136414992060e-01,1.419708250872208533e+00,9.504386460008596993e-01
3.200000000000000178e+00,1.687959935437662604e-03,3.061918616294860840e-01,1.670819669961929321e-01,4.461240470409393311e-01,1.008246646883840525e-01,-4.967930613029787890e-01,-3.897901001161200099e-03,-2.330159431524740477e+00,6.600069716469681991e-01,1.416652550671028576e+00,9.502611433438857835e-01
3.216666666666666785e+00,1.658368706611071646e-03,3.061625957489013672e-01,1.665536612272262573e-01,4.454131722450256348e-01,1.003993090445967351e-01,-4.936759144863921422e-01,-6.910041563239743487e-03,-2.331028053147069290e+00,6.629002672716315381e-01,1.413215934115133354e+00,9.501418644221465426e-01
3.233333333333333393e+00,1.728546481132473998e-03,3.060230314731597900e-01,1.658954769372940063e-01,4.445130825042724609e-01,9.991612861345833263e-02,-4.906962432992445500e-01,-1.004410316043477004e-02,-2.332405302652603929e+00,6.654311781797015435e-01,1.409732618194900367e+00,9.503402604788523389e-01
3.250000000000000000e+00,1.684632229972229771e-03,3.059027791023254395e-01,1.654060035943984985e-01,4.436968266963958740e-01,9.980548482119880327e-02,-4.876182295406463751e-01,-1.308669049737472972e-02,-2.333527360888471680e+00,6.680704227330535039e-01,1.406384786266495990e+00,9.504140782226663253e-01
3.266666666666666607e+00,1.715274224304793411e-03,3.057113289833068848e-01,1.648940294981002808e-01,4.428631663322448730e-01,9.946934472307945863e-02,-4.846423305234153767e-01,-1.596894260120184164e-02,-2.334771381699177084e+00,6.706739169519824184e-01,1.402836173541561093e+00,9.501735972105150863e-01
3.283333333333333215e+00,1.758819657992145369e-03,3.054480552673339844e-01,1.646212935447692871e-01,4.420626759529113770e-01,9.944424008354584010e-02,-4.817973820104498595e-01,-1.844186876422772639e-02,-2.336011043278767740e+00,6.733632906660590445e-01,1.399522028799210505e+00,9.501779029725154757e-01
3.299999999999999822e+00,1.868678356150995116e-03,3.052299916744232178e-01,1.642889976501464844e-01,4.411779344081878662e-01,9.960654529784843114e-02,-4.786117786316292921e-01,-2.118254153993464825e-02,-2.337180280781892439e+00,6.758403785844006029e-01,1.396163220271815719e+00,9.504933277230862565e-01
3.316666666666666430e+00,2.077232639226747526e-03,3.050620853900909424e-01,1.639548540115356445e-01,4.404970407485961914e-01,9.967619864286846043e-02,-4.755243558305164986e-01,-2.383149640499560018e-02,-2.337901128315467147e+00,6.782562640617448846e-01,1.392657820330214902e+00,9.503692143739866927e-01
3.333333333333333481e+00,2.366149197022405452e-03,3.048356175422668457e-01,1.635422557592391968e-01,4.397473931312561035e-01,9.959022764264455208e-02,-4.726278117979073601e-01,-2.663763636050457337e-02,-2.339052683336727334e+00,6.808184390577532996e-01,1.389153886712846786e+00,9.504646631270029511e-01
3.350000000000000089e+00,2.631513254133479272e-03,3.046227693557739258e-01,1.630655378103256226e-01,4.389027655124664307e-01,9.922585108586809421e-02,-4.695434777284302474e-01,-2.952646980046277556e-02,-2.340429668637505234e+00,6.836363133318803520e-01,1.385549734621638107e+00,9.505681387375392033e-01
3.366666666666666696e+00,2.927284338220642514e-03,3.044312596321105957e-01,1.625372320413589478e-01,4.382750391960144043e-01,9.903731720471088684e-02,-4.668656658173238050e-01,-3.250761005131586057e-02,-2.341456131188795364e+00,6.860207785113238144e-01,1.382019484074962445e+00,9.501429506561653859e-01
3.383333333333333304e+00,3.004612969671633608e-03,3.043437600135803223e-01,1.617625802755355835e-01,4.374974071979522705e-01,9.835330721033190560e-02,-4.638640765597569215e-01,-3.577336813973922003e-02,-2.342654965822750235e+00,6.883533398342097653e-01,1.378430972763838858e+00,9.498742510565287844e-01
3.399999999999999911e+00,2.986065065766755743e-03,3.043541014194488525e-01,1.609256118535995483e-01,4.367820024490356445e-01,9.756676105269954102e-02,-4.608980025909888978e-01,-3.919838209284404185e-02,-2.343788956539878399e+00,6.908020391203706367e-01,1.375042329582317091e+00,9.496341967418328034e-01
3.416666666666666519e+00,2.977185062768680258e-03,3.043811321258544922e-01,1.601341515779495239e-01,4.360826909542083740e-01,9.706763653924543878e-02,-4.578379053006196853e-01,-4.263511179714932903e-02,-2.344726456105523216e+00,6.930142681466882060e-01,1.371733908191311802e+00,9.493080258511921166e-01
3.433333333333333126e+00,2.789128933457099904e-03,3.045248091220855713e-01,1.591582447290420532e-01,4.353719353675842285e-01,9.608915017060276620e-02,-4.546022426268874761e-01,-4.630899769176641256e-02,-2.345676023526118925e+00,6.954174880057767405e-01,1.368358157878269754e+00,9.492141581405185713e-01
3.449999999999999734e+00,2.675501230756219956e-03,3.045947849750518799e-01,1.582171618938446045e-01,4.346048235893249512e-01,9.530303568427177241e-02,-4.513489528217000668e-01,-5.001806548309514072e-02,-2.346758038857754691e+00,6.977361220547115828e-01,1.364914702761244936e+00,9.493048581746168502e-01
3.466666666666666785e+00,2.559502654493741279e-03,3.047210872173309326e-01,1.573643237352371216e-01,4.338726103305816650e-01,9.472597650324875163e-02,-4.479686696700726500e-01,-5.362120862722317971e-02,-2.347598082641200179e+00,6.999996603347967694e-01,1.361660520530658225e+00,9.487342552975159826e-01
3.483333333333333393e+00,2.374456529267888680e-03,3.048830628395080566e-01,1.563833206892013550e-01,4.332242310047149658e-01,9.360499121352854057e-02,-4.446802707114855813e-01,-5.723627366024125473e-02,-2.348420189078666898e+00,7.024836946950667738e-01,1.358169641589395571e+00,9.480833753929265306e-01
3.500000000000000000e+00,2.288931842707361049e-03,3.049943745136260986e-01,1.554814130067825317e-01,4.327086508274078369e-01,9.285285119835191836e-02,-4.416257114860773214e-01,-6.084057368197619275e-02,-2.349023611308520998e+00,7.047587684404120756e-01,1.354646348854926963e+00,9.473258827592195841e-01
3.516666666666666607e+00,2.227835986039815395e-03,3.050941526889801025e-01,1.546060591936111450e-01,4.321513473987579346e-01,9.209959875935945506e-02,-4.385029668998350894e-01,-6.443526176799259375e-02,-2.349744261547040747e+00,7.071688734514431918e-01,1.351143052231871478e+00,9.469587805987436102e-01
3.533333333333333215e+00,2.047185134305327687e-03,3.052365779876708984e-01,1.535595953464508057e-01,4.315424263477325439e-01,9.118884195867950349e-02,-4.353836903261112390e-01,-6.822087785170308227e-02,-2.350499467467221937e+00,7.092147542923332715e-01,1.347713246013325872e+00,9.467731575079968431e-01
3.549999999999999822e+00,2.046663632133626908e-03,3.051832616329193115e-01,1.525131016969680786e-01,4.309266805648803711e-01,9.022035492633295739e-02,-4.326048247829179516e-01,-7.187904567459088567e-02,-2.351546051407739757e+00,7.110919160402432437e-01,1.343940672785375101e+00,9.461445060129038964e-01
3.566666666666666430e+00,2.117643457393875162e-03,3.051752746105194092e-01,1.516426652669906616e-01,4.305846393108367920e-01,8.928303874794990547e-02,-4.301533484171752852e-01,-7.507606569190411472e-02,-2.352121250356871140e+00,7.131273490870194687e-01,1.340321444162404063e+00,9.455644444807046467e-01
3.583333333333333481e+00,2.222937325266001549e-03,3.051282167434692383e-01,1.507470607757568359e-01,4.302278757095336914e-01,8.858281750214025418e-02,-4.276946714369834757e-01,-7.866778587983715154e-02,-2.352875052954690460e+00,7.153052011821132705e-01,1.336589487281114819e+00,9.449423457890439026e-01
3.600000000000000089e+00,2.272388550822940397e-03,3.051273822784423828e-01,1.497217416763305664e-01,4.300269186496734619e-01,8.758951757241954794e-02,-4.253008785516939616e-01,-8.243609813244760776e-02,-2.353376794251508475e+00,7.175510205981255885e-01,1.332509697367076029e+00,9.445295382010991947e-01
3.616666666666666696e+00,2.479678716068726800e-03,3.050749897956848145e-01,1.488661617040634155e-01,4.298572242259979248e-01,8.698074727737441225e-02,-4.228110616766760366e-01,-8.595685545467909860e-02,-2.353637743764344314e+00,7.196393104411434871e-01,1.328356773381168754e+00,9.438318538126363455e-01
3.633333333333333304e+00,2.548975125940984836e-03,3.051342964172363281e-01,1.478914022445678711e-01,4.296612441539764404e-01,8.604223062749220829e-02,-4.201576592215976458e-01,-8.957084550012976709e-02,-2.353869654962010838e+00,7.218015445509075034e-01,1.324307626392836612e+00,9.431908954333757533e-01
3.649999999999999911e+00,2.552565031205343993e-03,3.052383065223693848e-01,1.467814147472381592e-01,4.295057356357574463e-01,8.495686724886279684e-02,-4.177910606156842177e-01,-9.332124992095805482e-02,-2.354136477073307088e+00,7.237214265912357281e-01,1.320499059992771951e+00,9.426991265531760034e-01
3.666666666666666519e+00,2.777238033561210250e-03,3.052076697349548340e-01,1.458692252635955811e-01,4.293819665908813477e-01,8.405032643023520322e-02,-4.155902326185896278e-01,-9.668605350796656561e-02,-2.354487972957288289e+00,7.257548871394345902e-01,1.316575394883349848e+00,9.418934524300753841e-01
3.683333333333333126e+00,2.944517067680535449e-03,3.052293956279754639e-01,1.448739618062973022e-01,4.292813837528228760e-01,8.330534517099616454e-02,-4.134218476622847360e-01,-1.004238764027818309e-01,-2.354819643189769440e+00,7.277234651452089143e-01,1.312774740379683225e+00,9.411497539891285902e-01
3.699999999999999734e+00,2.898153172594501725e-03,3.053138256072998047e-01,1.437111347913742065e-01,4.290305376052856445e-01,8.231129610207023328e-02,-4.109972019712775371e-01,-1.042972618607473784e-01,-2.355232987879462669e+00,7.293866263495258906e-01,1.309069721613133508e+00,9.406206721368187695e-01
3.716666666666666785e+00,2.961344347994397490e-03,3.052181899547576904e-01,1.426958441734313965e-01,4.286760985851287842e-01,8.138759842846134129e-02,-4.085573793503917694e-01,-1.079181253742201585e-01,-2.356037114662889120e+00,7.312502566918026581e-01,1.305108294511858169e+00,9.397589801799953735e-01
3.733333333333333393e+00,3.086730479888979018e-03,3.051528036594390869e-01,1.418004333972930908e-01,4.283469617366790771e-01,8.057514715277389050e-02,-4.061992064032751149e-01,-1.114071806316807578e-01,-2.356910888287265138e+00,7.334157429859312627e-01,1.301468953377926230e+00,9.390767228994999494e-01
3.750000000000000000e+00,3.195832590678334383e-03,3.050573468208312988e-01,1.409288048744201660e-01,4.278962612152099609e-01,8.016885378162003084e-02,-4.034556160028398564e-01,-1.150258856131207846e-01,-2.357675966138250701e+00,7.351902108596847230e-01,1.297702610384691591e+00,9.383125011702263540e-01
3.766666666666666607e+00,3.246215202389252270e-03,3.050542771816253662e-01,1.400326937437057495e-01,4.273950457572937012e-01,7.965106052610800014e-02,-4.006156637785630026e-01,-1.186616717055371389e-01,-2.358502308512672396e+00,7.370835871429087804e-01,1.294271384403320235e+00,9.372155194023739089e-01
3.783333333333333215e+00,3.341125455446961306e-03,3.049345910549163818e-01,1.390527188777923584e-01,4.268553555011749268e-01,7.932032451054669975e-02,-3.977911991254254320e-01,-1.226283969368837101e-01,-2.359458374392751079e+00,7.386780337774468963e-01,1.290464221674501255e+00,9.363756377583866142e-01
3.799999999999999822e+00,3.479462294846359140e-03,3.047693371772766113e-01,1.380234360694885254e-01,4.263071119785308838e-01,7.870837159880336720e-02,-3.951412712938370264e-01,-1.265365900448394421e-01,-2.360646480677889958e+00,7.403397107640834474e-01,1.286618595258218534e+00,9.352952410100779934e-01
3.816666666666666430e+00,3.569357025011864974e-03,3.047021627426147461e-01,1.369356811046600342e-01,4.258288741111755371e-01,7.809827949036511618e-02,-3.923821958185685355e-01,-1.304971578071081051e-01,-2.361453104306158846e+00,7.417842350428595077e-01,1.282807302721316267e+00,9.343838235577620610e-01
3.833333333333333481e+00,3.768671117600840437e-03,3.046251535415649414e-01,1.359312236309051514e-01,4.255252480506896973e-01,7.739387503712293059e-02,-3.897143491497795931e-01,-1.344285097767532189e-01,-2.362184871914231543e+00,7.438453321688004438e-01,1.278679889907446521e+00,9.332829851128420229e-01
3.850000000000000089e+00,3.936769993642383336e-03,3.045437932014465332e-01,1.348517090082168579e-01,4.251699149608612061e-01,7.678261921604774554e-02,-3.871007066060749846e-01,-1.384341049947238889e-01,-2.362897166002582594e+00,7.454220157899218435e-01,1.274705979622710039e+00,9.323059398445356916e-01
3.866666666666666696e+00,4.112221663592938517e-03,3.045381307601928711e-01,1.338144689798355103e-01,4.248817265033721924e-01,7.601865779333166762e-02,-3.843663443702127203e-01,-1.423292769693896564e-01,-2.363463226880877510e+00,7.473604397599420412e-01,1.270727561815520046e+00,9.313980861149996349e-01
3.883333333333333304e+00,4.087073708005641189e-03,3.046667575836181641e-01,1.326199322938919067e-01,4.247504770755767822e-01,7.504184256610695047e-02,-3.816346255546340660e-01,-1.463956193177292919e-01,-2.363549397098966498e+00,7.491419551511570019e-01,1.266664492717088697e+00,9.301317724157236455e-01
3.899999999999999911e+00,4.122676675895275977e-03,3.047210276126861572e-01,1.314218938350677490e-01,4.246064424514770508e-01,7.438186039600874766e-02,-3.791189718314999513e-01,-1.507316043742032430e-01,-2.363851362373677212e+00,7.508085883715751585e-01,1.262670834601865133e+00,9.287425717432176153e-01
3.916666666666666519e+00,4.175519922682233501e-03,3.048278689384460449e-01,1.302859485149383545e-01,4.246099889278411865e-01,7.339364948824393664e-02,-3.764834578782406127e-01,-1.545095880185214932e-01,-2.363605080860300856e+00,7.524616410224799212e-01,1.258391249459525518e+00,9.273905846181337287e-01
3.933333333333333126e+00,3.825713571210268872e-03,3.051126897335052490e-01,1.287792474031448364e-01,4.247339367866516113e-01,7.168289654791555610e-02,-3.742084997051227657e-01,-1.586844793480447491e-01,-2.363290709846321391e+00,7.540419119352588240e-01,1.254389453740923921e+00,9.259232901952035855e-01
3.949999999999999734e+00,3.579006477048672294e-03,3.053684234619140625e-01,1.273684948682785034e-01,4.249783456325531006e-01,7.036124092695984766e-02,-3.721553268631739297e-01,-1.628713600409861240e-01,-2.362800316870609318e+00,7.555722201235374191e-01,1.250411959675548967e+00,9.243444977642322202e-01
3.966666666666666785e+00,3.414818972656313151e-03,3.056199252605438232e-01,1.260169446468353271e-01,4.252833724021911621e-01,6.909820884857219292e-02,-3.699686380008903597e-01,-1.670932557435815258e-01,-2.362231688203703328e+00,7.574414643158823290e-01,1.246173385639526288e+00,9.228666607485663809e-01
3.983333333333333393e+00,3.253569258020935339e-03,3.058891892433166504e-01,1.246336475014686584e-01,4.254380762577056885e-01,6.784094249209535188e-02,-3.675099675559821422e-01,-1.713446880999608957e-01,-2.361763491523043879e+00,7.591560749826787857e-01,1.242068650143927089e+00,9.212493684090574675e-01
4.000000000000000000e+00,3.084524584022283605e-03,3.060536086559295654e-01,1.231793016195297241e-01,4.255951941013336182e-01,6.644015687563067929e-02,-3.652853306657299903e-01,-1.755978192809379557e-01,-2.361462089874766246e+00,7.606427740713003205e-01,1.237773186780394052e+00,9.195832365649789786e-01
4.016666666666666607e+00,2.693216039363036281e-03,3.063370883464813232e-01,1.215031147003173828e-01,4.259456992149353027e-01,6.475982356489992653e-02,-3.632951958676637894e-01,-1.801797164344762781e-01,-2.360804524844489549e+00,7.620471738161914699e-01,1.233448862649979327e+00,9.179486765563192874e-01
4.033333333333333215e+00,2.484578471235951175e-03,3.065813481807708740e-01,1.199455931782722473e-01,4.264010488986968994e-01,6.323780005334593557e-02,-3.616203745654235080e-01,-1.845587665864006077e-01,-2.360124905580137433e+00,7.635505580590824515e-01,1.229241563014782601e+00,9.162017444514551912e-01
4.049999999999999822e+00,2.433046278951936977e-03,3.067181110382080078e-01,1.185025274753570557e-01,4.267636835575103760e-01,6.177966070876186183e-02,-3.597105401625526055e-01,-1.886585596556527022e-01,-2.359542128748927325e+00,7.650227320125805308e-01,1.224748071810459971e+00,9.146144335604982079e-01
4.066666666666666430e+00,2.252529559866692579e-03,3.070060312747955322e-01,1.168713197112083435e-01,4.272019267082214355e-01,6.010322684611313360e-02,-3.578455865992545282e-01,-1.930935795990132708e-01,-2.358764011671166116e+00,7.665292078016955335e-01,1.220477680079293803e+00,9.129505381785513185e-01
4.083333333333333037e+00,2.235521935272619196e-03,3.072295188903808594e-01,1.153764277696609497e-01,4.275918900966644287e-01,5.861308710398148436e-02,-3.559178780310945922e-01,-1.971370734215363851e-01,-2.357904285076504625e+00,7.677713052935931648e-01,1.216222439180407955e+00,9.114206498777616128e-01
4.099999999999999645e+00,2.355285082162129895e-03,3.074314892292022705e-01,1.139299422502517700e-01,4.281058013439178467e-01,5.714571655258641331e-02,-3.540397929446693626e-01,-2.013053738580796725e-01,-2.357066243792874882e+00,7.695385225098506643e-01,1.211658731778658238e+00,9.098451057232593842e-01
4.116666666666666252e+00,2.398533500729127434e-03,3.076171576976776123e-01,1.124117299914360046e-01,4.285373985767364502e-01,5.534324121468073981e-02,-3.521450193331474576e-01,-2.053083431822036731e-01,-2.356361682402283719e+00,7.711405500216562681e-01,1.207150719607572364e+00,9.082776252241231418e-01
4.133333333333332860e+00,2.412831755537272766e-03,3.078172206878662109e-01,1.109035760164260864e-01,4.288718998432159424e-01,5.369399583939150900e-02,-3.502996686083576505e-01,-2.093306935909357014e-01,-2.355809274582152391e+00,7.725732057330878533e-01,1.203072512116975856e+00,9.065761929035680566e-01
4.150000000000000355e+00,2.420891709878780860e-03,3.080835640430450439e-01,1.091806739568710327e-01,4.293495118618011475e-01,5.181768191707301907e-02,-3.484575975855370156e-01,-2.138042759208773069e-01,-2.354991879178416792e+00,7.740749564077492595e-01,1.198659357751502785e+00,9.047940060065032819e-01
4.166666666666666963e+00,2.381827189456804834e-03,3.082213997840881348e-01,1.076251566410064697e-01,4.296392500400543213e-01,5.005111590099557695e-02,-3.465138084864101131e-01,-2.180076108900894372e-01,-2.354696583698866252e+00,7.757244308520775400e-01,1.194324434525154022e+00,9.035174711698574779e-01
4.183333333333333570e+00,2.510606556014938814e-03,3.083027601242065430e-01,1.061943247914314270e-01,4.301239848136901855e-01,4.841967990015537404e-02,-3.449634061865016199e-01,-2.217926355658136894e-01,-2.354059994892339081e+00,7.771650274827285321e-01,1.189904850114570589e+00,9.022283062624456562e-01
4.200000000000000178e+00,2.409503958664321877e-03,3.083285093307495117e-01,1.046888306736946106e-01,4.303756058216094971e-01,4.672491558945328360e-02,-3.430052706971687959e-01,-2.259553951312348041e-01,-2.353960501370683023e+00,7.788204365311137689e-01,1.185333785570122700e+00,9.005407380242643756e-01
4.216666666666666785e+00,2.359715644664289041e-03,3.083745539188385010e-01,1.031514480710029602e-01,4.307258427143096924e-01,4.486936529904721194e-02,-3.411292582376475035e-01,-2.298793060281184297e-01,-2.353505691269250466e+00,7.802069207820618857e-01,1.180674826464186644e+00,8.988587650363015769e-01
4.233333333333333393e+00,2.299616715340017242e-03,3.083220720291137695e-01,1.017818078398704529e-01,4.309994280338287354e-01,4.354532917390793734e-02,-3.393827183162280159e-01,-2.337599175284693631e-01,-2.353297366426045478e+00,7.814675481776163224e-01,1.176240713243778213e+00,8.972328270434554165e-01
4.250000000000000000e+00,2.409404516354847307e-03,3.084734380245208740e-01,1.004371419548988342e-01,4.313163161277770996e-01,4.201450418104597795e-02,-3.373130724917777767e-01,-2.374616282927711208e-01,-2.352758256074916954e+00,7.831739900547221023e-01,1.172060013346156948e+00,8.954266582227068394e-01
4.266666666666666607e+00,2.443515514087423509e-03,3.083816766738891602e-01,9.911758452653884888e-02,4.317106604576110840e-01,4.048199870259472366e-02,-3.357222569723530281e-01,-2.410697711846356284e-01,-2.352489619520614195e+00,7.846417849494218277e-01,1.167394556595192423e+00,8.940476052989243527e-01
4.283333333333333215e+00,2.419778061127372728e-03,3.083722293376922607e-01,9.767217934131622314e-02,4.320338368415832520e-01,3.879636765813073568e-02,-3.338867106208880386e-01,-2.448841247517921926e-01,-2.352179411847466373e+00,7.860707900545300664e-01,1.162830365019921208e+00,8.924031160773604476e-01
4.299999999999999822e+00,2.428923892256747152e-03,3.083420991897583008e-01,9.620258957147598267e-02,4.325084388256072998e-01,3.741873703837170217e-02,-3.325862128723890976e-01,-2.489819434821000932e-01,-2.351828384974162134e+00,7.873896837517670999e-01,1.158468998401140482e+00,8.908260262095951676e-01
4.316666666666666430e+00,2.531364637251886165e-03,3.083196282386779785e-01,9.483058005571365356e-02,4.330070316791534424e-01,3.599054859092269687e-02,-3.311535453342455693e-01,-2.528004257321126436e-01,-2.351389104544232556e+00,7.889159346949872198e-01,1.153999958876047005e+00,8.891880448182368779e-01
4.333333333333333037e+00,2.717546852447135820e-03,3.083729743957519531e-01,9.344305098056793213e-02,4.336801171302795410e-01,3.434695286986672036e-02,-3.299218131202152349e-01,-2.564279903565092056e-01,-2.350624803823690101e+00,7.905750676921247111e-01,1.149573387383989731e+00,8.872941355882659753e-01
4.349999999999999645e+00,2.666283042981202125e-03,3.084197044372558594e-01,9.179021418094635010e-02,4.342806041240692139e-01,3.246312146753452255e-02,-3.286580320823739298e-01,-2.605096805961285011e-01,-2.349938470735250640e+00,7.918627740240613555e-01,1.145086353399221490e+00,8.858885187756109225e-01
4.366666666666666252e+00,2.700051911448086896e-03,3.083655536174774170e-01,9.026685357093811035e-02,4.349803924560546875e-01,3.067031926585775392e-02,-3.275491646228946285e-01,-2.643800658998068931e-01,-2.349281734154271994e+00,7.933380404086562976e-01,1.140276648898086442e+00,8.842530257189111786e-01
4.383333333333332860e+00,2.713776390000972264e-03,3.082969188690185547e-01,8.872682601213455200e-02,4.356712400913238525e-01,2.894698586280839217e-02,-3.264955265507109572e-01,-2.680971538119973907e-01,-2.348401733324417595e+00,7.943046940036965209e-01,1.135557703305317689e+00,8.825142428958652197e-01
4.400000000000000355e+00,2.865392151485456149e-03,3.083956241607666016e-01,8.722232282161712646e-02,4.364396929740905762e-01,2.704476542976212705e-02,-3.254434028644569987e-01,-2.717944561264182268e-01,-2.347532640200604259e+00,7.960428891327127054e-01,1.131242923616264662e+00,8.811753907668854469e-01
4.416666666666666963e+00,2.932558046055725679e-03,3.083283603191375732e-01,8.577407896518707275e-02,4.370710551738739014e-01,2.573208942089957527e-02,-3.243475702619638135e-01,-2.757667301307295538e-01,-2.346917273239933266e+00,7.973231641160263283e-01,1.126767926892258354e+00,8.797946753091974159e-01
4.433333333333333570e+00,3.048807842875457096e-03,3.082533776760101318e-01,8.436913788318634033e-02,4.377250969409942627e-01,2.419207148277025335e-02,-3.233471002025375407e-01,-2.794152055924665756e-01,-2.346327026663012738e+00,7.986849072204257327e-01,1.122346926053362060e+00,8.783288966506551665e-01
4.450000000000000178e+00,3.047030592120888830e-03,3.082560300827026367e-01,8.278049528598785400e-02,4.383809566497802734e-01,2.238862669242961193e-02,-3.223443643765048217e-01,-2.832645115842258310e-01,-2.345606203661319000e+00,7.998916789860373022e-01,1.118085250588847446e+00,8.769260497253510422e-01
4.466666666666666785e+00,3.069496078579814213e-03,3.082383871078491211e-01,8.120452612638473511e-02,4.390997886657714844e-01,2.053117198314340780e-02,-3.213994480627683226e-01,-2.870972468558095625e-01,-2.344886942869722102e+00,8.012764949451074425e-01,1.113674178308515783e+00,8.756440212124046996e-01
4.483333333333333393e+00,3.216015260974799516e-03,3.081153035163879395e-01,7.981716096401214600e-02,4.397964477539062500e-01,1.908577447960637524e-02,-3.205349140491580706e-01,-2.907461134035450590e-01,-2.344297337768435963e+00,8.025970271613475093e-01,1.109221482466984599e+00,8.742510314239325675e-01
4.500000000000000000e+00,3.389150803105970243e-03,3.081218004226684570e-01,7.840865105390548706e-02,4.404429495334625244e-01,1.763465874035192310e-02,-3.192184489892102017e-01,-2.945674104822544881e-01,-2.343617946699404264e+00,8.043112030740814378e-01,1.104816820075174233e+00,8.729871025174897881e-01
4.516666666666666607e+00,3.470031455682236459e-03,3.082059025764465332e-01,7.683949917554855347e-02,4.411814510822296143e-01,1.576892703609879612e-02,-3.179704162554450320e-01,-2.983077766550220056e-01,-2.342575913854524572e+00,8.058319056365012001e-01,1.100440490842790497e+00,8.709214530854488823e-01
4.533333333333333215e+00,3.549989272181750151e-03,3.082399070262908936e-01,7.530564814805984497e-02,4.417887032032012939e-01,1.390867008904405309e-02,-3.163376070748663005e-01,-3.020781434393130516e-01,-2.341767840171304904e+00,8.075014155672557425e-01,1.095793952906737978e+00,8.686530101882273813e-01
4.549999999999999822e+00,3.572236690819915496e-03,3.083369433879852295e-01,7.362923771142959595e-02,4.426719844341278076e-01,1.232097836433188737e-02,-3.152825673302802612e-01,-3.062882915863610611e-01,-2.340456748096042539e+00,8.089395906669132330e-01,1.091339575541112827e+00,8.666437975462683019e-01
4.566666666666666430e+00,3.583280120534007573e-03,3.085049986839294434e-01,7.188712060451507568e-02,4.436220526695251465e-01,1.040677840434454417e-02,-3.142558998246001711e-01,-3.104244113002813110e-01,-2.339039885520033835e+00,8.106119987420248307e-01,1.086960744090258002e+00,8.646228115087178923e-01
4.583333333333333037e+00,3.639184637153606953e-03,3.086398541927337646e-01,7.018510997295379639e-02,4.446175992488861084e-01,8.486830026975750521e-03,-3.132341151287351133e-01,-3.144008570325055318e-01,-2.337520426807818907e+00,8.122741174813199461e-01,1.082408917154394024e+00,8.627046578548850375e-01
4.599999999999999645e+00,3.673602589825803420e-03,3.088162243366241455e-01,6.845302879810333252e-02,4.455007910728454590e-01,6.485804552726995645e-03,-3.119926978080106994e-01,-3.183712455679981734e-01,-2.336067195127156992e+00,8.139150765991385317e-01,1.078044265868725038e+00,8.608069536058885474e-01
4.616666666666666252e+00,3.533663027002293452e-03,3.090403079986572266e-01,6.645888835191726685e-02,4.463801085948944092e-01,4.290240362654417633e-03,-3.106448258208593938e-01,-3.227600697699977150e-01,-2.334369147359998564e+00,8.152231050439275872e-01,1.073635093917027605e+00,8.586791307160914766e-01
4.633333333333332860e+00,3.390637106663889691e-03,3.092689216136932373e-01,6.439769268035888672e-02,4.472728669643402100e-01,2.038217828943277021e-03,-3.093407847759095386e-01,-3.271996327382279413e-01,-2.332568097814910590e+00,8.163866923912900253e-01,1.069275361994837636e+00,8.566604452627629707e-01
4.650000000000000355e+00,3.435058378399346093e-03,3.095145225524902344e-01,6.245788186788558960e-02,4.483470320701599121e-01,-1.625027906577942516e-04,-3.082707606794954369e-01,-3.315171760943030344e-01,-2.330754419177151426e+00,8.181883014600609405e-01,1.064870888746019650e+00,8.546544143431173968e-01
4.666666666666666963e+00,3.442903836404282835e-03,3.097084462642669678e-01,6.050969287753105164e-02,4.493177831172943115e-01,-2.280891063720483919e-03,-3.069797631365886459e-01,-3.358120410303957470e-01,-2.328916873315758806e+00,8.196526378182874550e-01,1.060338239731867915e+00,8.526581548735644445e-01
4.683333333333333570e+00,3.333109721225819416e-03,3.097531199455261230e-01,5.852395668625831604e-02,4.502749741077423096e-01,-4.425033802444798200e-03,-3.060937538296826244e-01,-3.402804252614583524e-01,-2.327517831943059612e+00,8.210166912835712427e-01,1.055804763312227834e+00,8.506849275225538687e-01
4.700000000000000178e+00,3.361206159957668468e-03,3.099358677864074707e-01,5.655138939619064331e-02,4.512121379375457764e-01,-6.648160510295216853e-03,-3.049478837557929034e-01,-3.446039442694683319e-01,-2.325910110645071249e+00,8.226080870336865969e-01,1.051548491932330576e+00,8.487097971739795410e-01
4.716666666666666785e+00,3.381985892097784212e-03,3.099943101406097412e-01,5.477336049079895020e-02,4.521732628345489502e-01,-8.778577195519190329e-03,-3.040188316701916138e-01,-3.484610375229807988e-01,-2.324453902027917795e+00,8.241680239508913930e-01,1.047173315197110544e+00,8.467072987669354012e-01
4.733333333333333393e+00,3.564370187152856879e-03,3.102021813392639160e-01,5.285336822271347046e-02,4.533900916576385498e-01,-1.074418495560960050e-02,-3.031926398806166767e-01,-3.527117869951282847e-01,-2.322298329438559517e+00,8.258701471651832549e-01,1.042820851444973718e+00,8.449747617921323783e-01
4.750000000000000000e+00,3.696209177950054645e-03,3.103140294551849365e-01,5.129045993089675903e-02,4.543288648128509521e-01,-1.236120759926902929e-02,-3.020648736466289841e-01,-3.562655556545132884e-01,-2.320582773285437383e+00,8.274191118738778439e-01,1.038659669164948784e+00,8.431176795823711601e-01
4.766666666666666607e+00,3.802637736710225581e-03,3.103929460048675537e-01,4.976063594222068787e-02,4.552122652530670166e-01,-1.371506005298536376e-02,-3.007414490926303419e-01,-3.600526882705031295e-01,-2.319008492180235415e+00,8.290952487614879907e-01,1.034321714655459079e+00,8.415255288486781504e-01
4.783333333333333215e+00,3.877444734245600374e-03,3.104327023029327393e-01,4.814796894788742065e-02,4.562055170536041260e-01,-1.537287878197968020e-02,-2.999150562363573358e-01,-3.636875995114500215e-01,-2.317370406315382603e+00,8.305464567269357223e-01,1.030166658481094899e+00,8.400016665722463971e-01
4.799999999999999822e+00,4.002961218514193044e-03,3.103576600551605225e-01,4.687599465250968933e-02,4.571201503276824951e-01,-1.661725980859068974e-02,-2.990109436198704618e-01,-3.667625843981419664e-01,-2.315959849617980737e+00,8.320034585521880466e-01,1.025865016268084684e+00,8.385410433693316623e-01
4.816666666666666430e+00,4.115737956559596677e-03,3.103292584419250488e-01,4.543128609657287598e-02,4.580141603946685791e-01,-1.781270379967985970e-02,-2.980756805727139969e-01,-3.702742091248727441e-01,-2.314422503398230635e+00,8.332580705196640514e-01,1.021724661725566197e+00,8.368963318695994413e-01
4.833333333333333037e+00,4.356975537044832994e-03,3.103281259536743164e-01,4.407976940274238586e-02,4.590883255004882812e-01,-1.895885400491988115e-02,-2.973206018603269385e-01,-3.737903461097338287e-01,-2.312931188331029286e+00,8.352616269055554987e-01,1.017468836687652534e+00,8.356397953007660417e-01
4.849999999999999645e+00,4.568044035357090790e-03,3.102275133132934570e-01,4.276394471526145935e-02,4.601038992404937744e-01,-2.023832304364974952e-02,-2.964045295171353067e-01,-3.770084786423344436e-01,-2.311434952620250893e+00,8.369621046868332970e-01,1.012840008758737254e+00,8.339831070782665057e-01
4.866666666666666252e+00,4.768687463230147569e-03,3.101001679897308350e-01,4.142335429787635803e-02,4.610091447830200195e-01,-2.131937643112323186e-02,-2.956345266870642474e-01,-3.804685982100129982e-01,-2.310219679296713569e+00,8.384548496114938576e-01,1.008598229431285631e+00,8.323203338458474709e-01
4.883333333333332860e+00,4.998043711243589822e-03,3.100056052207946777e-01,4.004442319273948669e-02,4.619279503822326660e-01,-2.251554570004696276e-02,-2.948170310323303678e-01,-3.840116674597180979e-01,-2.309049746333196040e+00,8.401981192260949971e-01,1.004371281093109136e+00,8.308455551554740914e-01
4.900000000000000355e+00,5.330752262733625887e-03,3.097910881042480469e-01,3.882962837815284729e-02,4.628100097179412842e-01,-2.356426963198599359e-02,-2.940258325005671858e-01,-3.872965947624966709e-01,-2.308134020325522062e+00,8.419343166099336750e-01,9.998976502795917654e-01,8.292903969081992788e-01
4.916666666666666963e+00,5.751165418109690890e-03,3.097601830959320068e-01,3.755458071827888489e-02,4.636541008949279785e-01,-2.460276015169125460e-02,-2.930896066369979569e-01,-3.904833612802984799e-01,-2.306769718572366124e+00,8.434290092783980342e-01,9.960437433005133734e-01,8.275219694408382232e-01
4.933333333333333570e+00,5.952301095944427869e-03,3.096778392791748047e-01,3.603936359286308289e-02,4.645999670028686523e-01,-2.621955555058645693e-02,-2.925175994359825449e-01,-3.939425913787333866e-01,-2.305565070285054752e+00,8.450497253204509729e-01,9.921145929173589284e-01,8.257091111758450008e-01
4.950000000000000178e+00,6.283680524335119415e-03,3.095588386058807373e-01,3.466588258743286133e-02,4.655195772647857666e-01,-2.762335120153163945e-02,-2.918485504998645230e-01,-3.971454455292545149e-01,-2.304333749698959100e+00,8.465897606601299197e-01,9.880747687820620184e-01,8.242088890286677350e-01
4.966666666666666785e+00,6.642026708939638424e-03,3.094662129878997803e-01,3.331164643168449402e-02,4.666065871715545654e-01,-2.897241722316231533e-02,-2.910875947913279527e-01,-4.003620131555173933e-01,-2.302787763246928243e+00,8.484885325366762210e-01,9.836234510320225333e-01,8.227105114475392611e-01
4.983333333333333393e+00,6.886174100170026034e-03,3.094597458839416504e-01,3.179530054330825806e-02,4.677394330501556396e-01,-3.029862861916984493e-02,-2.906782475458985493e-01,-4.039466954308504887e-01,-2.301130230906942131e+00,8.502789421842543716e-01,9.798160425691445630e-01,8.211730443507584409e-01
5.000000000000000000e+00,6.946987382426029166e-03,3.094052076339721680e-01,3.009633533656597137e-02,4.688820540904998779e-01,-3.155647065205887530e-02,-2.901113041967194328e-01,-4.080306768696717601e-01,-2.299285340795019561e+00,8.518059438816147910e-01,9.756251929745316520e-01,8.194350963294345647e-01
5.016666666666666607e+00,7.107939333009963973e-03,3.094488382339477539e-01,2.847172506153583527e-02,4.700829684734344482e-01,-3.268212323148368681e-02,-2.893256885407946566e-01,-4.119014495390425079e-01,-2.297045931429016807e+00,8.534739814422331872e-01,9.714418503502200153e-01,8.176815425337535803e-01
5.033333333333333215e+00,7.114847875223461945e-03,3.093917369842529297e-01,2.671732939779758453e-02,4.713008105754852295e-01,-3.420649718233686326e-02,-2.887755909995121661e-01,-4.157181639693123265e-01,-2.294841374236963105e+00,8.548046971723011200e-01,9.671542666831404178e-01,8.156182060052334926e-01
5.049999999999999822e+00,7.110527334018226439e-03,3.095257580280303955e-01,2.486654929816722870e-02,4.724077284336090088e-01,-3.602386925924378619e-02,-2.877661988711600616e-01,-4.197068189920294401e-01,-2.292763577895758242e+00,8.567897621748251646e-01,9.632317082818364629e-01,8.141114571606151706e-01
5.066666666666666430e+00,6.961541912867704081e-03,3.095776140689849854e-01,2.290066331624984741e-02,4.736440181732177734e-01,-3.802301174614419743e-02,-2.874327914929001304e-01,-4.237890988408062332e-01,-2.290707732144698916e+00,8.585406749198415399e-01,9.595779682204454986e-01,8.120438101728997271e-01
5.083333333333333037e+00,6.691005578020555768e-03,3.096224069595336914e-01,2.081651240587234497e-02,4.750528931617736816e-01,-4.012151229253956702e-02,-2.870116099149087607e-01,-4.280678298944488591e-01,-2.288248584221027393e+00,8.604552111058085817e-01,9.554076971879044144e-01,8.099947119333721357e-01
5.099999999999999645e+00,6.480321433256006416e-03,3.097245097160339355e-01,1.875185221433639526e-02,4.763226211071014404e-01,-4.216242388771473254e-02,-2.863503362515827932e-01,-4.322883180347587562e-01,-2.285832066530649520e+00,8.622930203596239629e-01,9.515456247528720768e-01,8.081274201918834388e-01
5.116666666666666252e+00,6.109930929747724518e-03,3.097788095474243164e-01,1.652708463370800018e-02,4.776886105537414551e-01,-4.449433220322170091e-02,-2.858088279664955933e-01,-4.366992601654481332e-01,-2.283315355106691147e+00,8.641645037716070288e-01,9.474609690117659078e-01,8.064268481965757296e-01
5.133333333333332860e+00,5.785000764935005306e-03,3.097949028015136719e-01,1.435171347111463547e-02,4.788298308849334717e-01,-4.688052170540773361e-02,-2.853145229315160458e-01,-4.409148783982443365e-01,-2.281215604040846667e+00,8.656883051297595832e-01,9.439008684610007416e-01,8.047003255787159581e-01
5.150000000000000355e+00,5.558712024174713821e-03,3.099441230297088623e-01,1.220166869461536407e-02,4.799764156341552734e-01,-4.905519496732475837e-02,-2.843785260913273549e-01,-4.452166822450071559e-01,-2.278831856383862320e+00,8.675886625372635219e-01,9.403136458282408405e-01,8.029085364113297540e-01
5.166666666666666963e+00,5.146307869494570232e-03,3.099550902843475342e-01,9.902801364660263062e-03,4.811920225620269775e-01,-5.159462609116616943e-02,-2.838468206523012127e-01,-4.497410851350087113e-01,-2.276732768589438294e+00,8.695184417121376574e-01,9.365942390787760363e-01,8.013621614968713391e-01
5.183333333333333570e+00,4.754378794787484167e-03,3.100216686725616455e-01,7.570572197437286377e-03,4.825444519519805908e-01,-5.421051759712364193e-02,-2.833709641614030605e-01,-4.541590363925565033e-01,-2.274231805563079245e+00,8.715590320890386211e-01,9.329057692965030402e-01,7.996421299932175986e-01
5.200000000000000178e+00,4.330505337051605494e-03,3.099882304668426514e-01,5.236731376498937607e-03,4.837476015090942383e-01,-5.703615983279795854e-02,-2.827318764809894081e-01,-4.585011865004466336e-01,-2.272099265904230503e+00,8.734887372580989462e-01,9.290411443686328319e-01,7.978068728550969935e-01
5.216666666666666785e+00,3.905009549786189749e-03,3.099803924560546875e-01,2.830027602612972260e-03,4.849603176116943359e-01,-5.971042959566166819e-02,-2.822084324944327260e-01,-4.631289872927135676e-01,-2.269909487616227128e+00,8.753943178054408580e-01,9.254771029601442933e-01,7.962320329271843633e-01
5.233333333333333393e+00,3.507473080643562242e-03,3.099308609962463379e-01,4.352875694166868925e-04,4.861060678958892822e-01,-6.247755073647765639e-02,-2.813938114811624369e-01,-4.677138264592995420e-01,-2.267830665221982844e+00,8.773969264108294475e-01,9.215951468117929979e-01,7.946653513605066443e-01
5.250000000000000000e+00,3.335370482657261208e-03,3.099221587181091309e-01,-1.685217139311134815e-03,4.872554242610931396e-01,-6.490341034252188057e-02,-2.807275526347865480e-01,-4.719211295947510210e-01,-2.265983153163839248e+00,8.797922483367228708e-01,9.180680111885535233e-01,7.930580640534938830e-01
5.266666666666666607e+00,3.186753518968665419e-03,3.099358677864074707e-01,-3.844757797196507454e-03,4.884691238403320312e-01,-6.723815173656826072e-02,-2.799302179983942374e-01,-4.762030560598473072e-01,-2.263803278200970492e+00,8.821801084159827111e-01,9.143835174472723093e-01,7.916021588045220048e-01
5.283333333333333215e+00,3.080082244950573759e-03,3.098897337913513184e-01,-5.836708005517721176e-03,4.895679950714111328e-01,-6.956756564938153253e-02,-2.792278246585762069e-01,-4.801142893407673307e-01,-2.262041918535013796e+00,8.845288850858151752e-01,9.108842961442695785e-01,7.903655997731626748e-01
5.299999999999999822e+00,3.004741582481350055e-03,3.098515272140502930e-01,-7.794060744345188141e-03,4.906574785709381104e-01,-7.190697499523739100e-02,-2.784391846661604109e-01,-4.838698789520526899e-01,-2.260201064033377172e+00,8.868605587835546311e-01,9.073735154511695100e-01,7.891628864634018248e-01
5.316666666666666430e+00,2.871269877535011748e-03,3.097598552703857422e-01,-9.730640798807144165e-03,4.918995797634124756e-01,-7.409487960381931637e-02,-2.777677931131392053e-01,-4.877311238429387630e-01,-2.258230028730925376e+00,8.894205529080999595e-01,9.035048744433253898e-01,7.881473066997282118e-01
5.333333333333333037e+00,2.684523745339124044e-03,3.096289336681365967e-01,-1.170649379491806030e-02,4.932499527931213379e-01,-7.628896388617170676e-02,-2.775093417593552103e-01,-4.915666215007258866e-01,-2.256071467231002270e+00,8.917498404374190057e-01,8.998627607357353453e-01,7.867450282617877155e-01
5.349999999999999645e+00,2.528934074381641948e-03,3.094913363456726074e-01,-1.358197256922721863e-02,4.945033192634582520e-01,-7.836731499899439457e-02,-2.773686007645799756e-01,-4.953384070858707910e-01,-2.254319408297059901e+00,8.941947054221607294e-01,8.965803614995500048e-01,7.860433721437626309e-01
5.366666666666666252e+00,2.428913738247857803e-03,3.094035089015960693e-01,-1.543785817921161652e-02,4.957251250743865967e-01,-8.061788939021126421e-02,-2.769911471459879926e-01,-4.987728892673133907e-01,-2.252332434407360306e+00,8.965426092777268874e-01,8.933077195179921492e-01,7.850040101695442418e-01
5.383333333333332860e+00,2.339319951628129456e-03,3.093270063400268555e-01,-1.732205227017402649e-02,4.968736171722412109e-01,-8.267761424585914898e-02,-2.764517095723937334e-01,-5.025319557341560994e-01,-2.250513030395347780e+00,8.990407949005503330e-01,8.900694990123259043e-01,7.834819568760877928e-01
5.400000000000000355e+00,2.257586036878739006e-03,3.092012703418731689e-01,-1.896241120994091034e-02,4.979047775268554688e-01,-8.440122707631279864e-02,-2.758620367584342370e-01,-5.059738080384317271e-01,-2.249009541421586711e+00,9.014368799828760270e-01,8.868205438905317761e-01,7.825584496412697488e-01
5.416666666666666963e+00,2.159886739584407789e-03,3.090511262416839600e-01,-2.062309347093105316e-02,4.989886879920959473e-01,-8.621616333772254281e-02,-2.753506996276585683e-01,-5.094043847651993362e-01,-2.247487519515242393e+00,9.039266866070967410e-01,8.835006078012810349e-01,7.813534270197812770e-01
5.433333333333333570e+00,2.092995174756247505e-03,3.089096844196319580e-01,-2.221882715821266174e-02,5.001668930053710938e-01,-8.798245867647710994e-02,-2.747537013152229202e-01,-5.125811919450056209e-01,-2.245624570289357358e+00,9.064268042240809509e-01,8.799261282150032670e-01,7.801762870602523270e-01
5.450000000000000178e+00,2.249688637379341268e-03,3.089613616466522217e-01,-2.382792718708515167e-02,5.011392831802368164e-01,-8.959621478666683625e-02,-2.738160173456746782e-01,-5.157554659665218866e-01,-2.243670909510132816e+00,9.087734822855212391e-01,8.771424129879167308e-01,7.788550620213074982e-01
5.466666666666666785e+00,2.254566365603548686e-03,3.089084029197692871e-01,-2.550368197262287140e-02,5.022894144058227539e-01,-9.114937607700041022e-02,-2.730310556130405852e-01,-5.191544764298930970e-01,-2.241476009749788112e+00,9.111499924624930635e-01,8.738387148715266450e-01,7.775648186719885668e-01
5.483333333333333393e+00,2.247403331873660311e-03,3.088580667972564697e-01,-2.721494063735008240e-02,5.034328699111938477e-01,-9.283882677894926549e-02,-2.725221213673357235e-01,-5.225256752981579655e-01,-2.239403367693363567e+00,9.134955931110457783e-01,8.709725414046084468e-01,7.764100435005175660e-01
