IAMHAADICOOL/ee_tracking/outputs/policy_residual_figure_eight_ep0.csv
t,error_m,ee_x,ee_y,ee_z,q0,q1,q2,q3,q4,q5,q6
0.000000000000000000e+00,2.124516912751344896e-03,3.070428073406219482e-01,6.367821333697065711e-05,4.852454066276550293e-01,9.692313125381735140e-05,-7.848448478383960314e-01,-3.493381894412030759e-05,-2.355943466226861904e+00,2.135341348404942718e-04,1.570963643495854711e+00,7.849575023053719791e-01
1.666666666666666644e-02,4.171298129393094696e-03,3.070980012416839600e-01,9.522312757326290011e-05,4.854079782962799072e-01,-8.774358449121041252e-05,-7.849086040818981092e-01,1.060763414584030349e-04,-2.355666046384234935e+00,4.137174671894357073e-04,1.571100203555871655e+00,7.850106211241932863e-01
3.333333333333333287e-02,2.672564985253377684e-03,3.077234625816345215e-01,2.943203086033463478e-03,4.880830049514770508e-01,4.523114877009774219e-04,-7.862543858809406538e-01,6.762616497013687958e-03,-2.351093245778810736e+00,2.791846577533285256e-03,1.572311967074027095e+00,7.876280635521685225e-01
5.000000000000000278e-02,2.160954515385145238e-03,3.080165386199951172e-01,5.463902838528156281e-03,4.908819794654846191e-01,-1.871234986820900583e-05,-7.888741923200603967e-01,1.372360575639852698e-02,-2.347037628692489442e+00,4.501401334320412860e-03,1.573345158485099926e+00,7.907921129380449665e-01
6.666666666666666574e-02,1.809945760618921883e-03,3.074919879436492920e-01,8.795670233666896820e-03,4.929952025413513184e-01,1.313424586855130782e-03,-7.931672738700348280e-01,2.141180983773668250e-02,-2.345280385308619930e+00,6.279524503051820555e-03,1.573332151648689115e+00,7.941037558684206354e-01
8.333333333333332871e-02,1.686027718700855438e-03,3.063510656356811523e-01,1.132521312683820724e-02,4.939059317111968994e-01,1.901397088940335548e-03,-7.980825838489479240e-01,2.798449936595466883e-02,-2.346276451903194449e+00,7.224211754091613286e-03,1.572493264108694611e+00,7.974595736318071948e-01
1.000000000000000056e-01,2.076181296311607923e-03,3.060508668422698975e-01,1.247910317033529282e-02,4.954751431941986084e-01,3.860531129812517668e-04,-8.014605826823040235e-01,3.220327430127774282e-02,-2.345205657492519080e+00,8.221808760982909220e-03,1.573173544968390347e+00,8.012377420541612061e-01
1.166666666666666685e-01,2.680777155938925474e-03,3.063832521438598633e-01,1.385934371501207352e-02,4.973792731761932373e-01,-1.295379837323542248e-03,-8.027900668318584954e-01,3.747741121683282467e-02,-2.342168288250046970e+00,8.698808093446403975e-03,1.574264747130676101e+00,8.044512230345386428e-01
1.333333333333333315e-01,4.300645562113164684e-03,3.081965148448944092e-01,1.571233570575714111e-02,5.001214742660522461e-01,-2.970894355213784133e-03,-8.003648674027723509e-01,4.366376718671111795e-02,-2.335367211116532893e+00,9.506050668259703046e-03,1.577554709941770161e+00,8.074809302700189928e-01
1.499999999999999944e-01,5.539432296328360671e-03,3.088217675685882568e-01,1.731240563094615936e-02,5.023863315582275391e-01,-4.545458575210494304e-03,-8.008107248400164746e-01,4.942717509044167179e-02,-2.331013178774007155e+00,9.779519619156802623e-03,1.578801108838489009e+00,8.107386824433336914e-01
1.666666666666666574e-01,4.491173279743917481e-03,3.084947466850280762e-01,1.972919330000877380e-02,5.026051998138427734e-01,-5.080696445325029453e-03,-8.015432714738280895e-01,5.637829490120137288e-02,-2.330647863175315138e+00,1.092382692715852116e-02,1.578033229300825901e+00,8.142014555999010916e-01
1.833333333333333204e-01,2.969355259001594388e-03,3.073753118515014648e-01,2.257930114865303040e-02,5.022934675216674805e-01,-4.536638492178723080e-03,-8.044243407800842904e-01,6.345827833247995320e-02,-2.332599500724849229e+00,1.265822786220149876e-02,1.576612311976599123e+00,8.171145307761653598e-01
2.000000000000000111e-01,2.094723985432821439e-03,3.061375916004180908e-01,2.439747191965579987e-02,5.022689700126647949e-01,-5.131215869670493340e-03,-8.085261291451069088e-01,6.911658599014383619e-02,-2.334840177471988909e+00,1.350355685131137719e-02,1.575551905946390496e+00,8.207365139483252525e-01
2.166666666666666741e-01,2.325140284172993576e-03,3.055841326713562012e-01,2.661814913153648376e-02,5.028971433639526367e-01,-5.495482503737630052e-03,-8.107329517941053165e-01,7.537460242264673593e-02,-2.334560004636593078e+00,1.463762385056707228e-02,1.575061415018716993e+00,8.241037727877842389e-01
2.333333333333333370e-01,2.500685652497899782e-03,3.060311973094940186e-01,2.862556464970111847e-02,5.045157074928283691e-01,-6.178899800657065670e-03,-8.110536351320736248e-01,8.095314118202717735e-02,-2.331369946794645376e+00,1.572723823605451376e-02,1.576323359169132576e+00,8.272780393465123394e-01
2.500000000000000000e-01,3.784342607873286430e-03,3.066354393959045410e-01,3.102613985538482666e-02,5.070857405662536621e-01,-6.476073567707362616e-03,-8.119207375724659670e-01,8.679971481379633591e-02,-2.326639206304780938e+00,1.730553003380153054e-02,1.578226679854449532e+00,8.305696867934929672e-01
2.666666666666666630e-01,4.835792084438706243e-03,3.068044185638427734e-01,3.393706679344177246e-02,5.086252093315124512e-01,-5.892973928475094686e-03,-8.125932679831026073e-01,9.321840432166621226e-02,-2.323653215982706133e+00,1.938641333635928929e-02,1.579052657733354570e+00,8.335987454340634262e-01
2.833333333333333259e-01,5.742849099777653545e-03,3.067544698715209961e-01,3.599223494529724121e-02,5.107327103614807129e-01,-6.257802487095049000e-03,-8.149651206907917445e-01,9.834713893056902523e-02,-2.320668064633415018e+00,2.076666794433492530e-02,1.580035775305689727e+00,8.363704758146465190e-01
2.999999999999999889e-01,6.310755249850871253e-03,3.070179820060729980e-01,3.782299160957336426e-02,5.125416517257690430e-01,-7.291697431571317507e-03,-8.157726854972253694e-01,1.032954029617895869e-01,-2.317288276938712865e+00,2.222042455318944468e-02,1.580956502174677869e+00,8.395546842887134931e-01
3.166666666666666519e-01,6.239828135703744463e-03,3.062749803066253662e-01,3.932768851518630981e-02,5.136998295783996582e-01,-7.946807751239425011e-03,-8.201838970862723732e-01,1.083749501246664415e-01,-2.317569745061525133e+00,2.204037461546637031e-02,1.581834945356718203e+00,8.424004767697109708e-01
3.333333333333333148e-01,5.739009445979797140e-03,3.058903813362121582e-01,4.108230024576187134e-02,5.140930414199829102e-01,-8.880259683885194724e-03,-8.216087240543072934e-01,1.140483470387629594e-01,-2.317234641203567147e+00,2.247975630364330499e-02,1.581640417736930537e+00,8.457675307957499555e-01
3.499999999999999778e-01,5.220014374743755375e-03,3.055383861064910889e-01,4.257884249091148376e-02,5.145916938781738281e-01,-1.006482348673714590e-02,-8.228539412586973745e-01,1.189722840430509632e-01,-2.316530370393881100e+00,2.321383273216751433e-02,1.581174861583957147e+00,8.483773680417663332e-01
3.666666666666666408e-01,4.951901558810648668e-03,3.052999377250671387e-01,4.457841068506240845e-02,5.149089694023132324e-01,-1.085563372241118985e-02,-8.236726642953314803e-01,1.246927500193687477e-01,-2.315950977730849125e+00,2.445198811387644736e-02,1.581198463689189149e+00,8.511737442461024816e-01
3.833333333333333037e-01,5.739279848377917305e-03,3.048296868801116943e-01,4.728551208972930908e-02,5.157874226570129395e-01,-1.067012310689099443e-02,-8.259994560154548804e-01,1.311976974682494690e-01,-2.315182166985586321e+00,2.623625998797544240e-02,1.581778226016377076e+00,8.538595879917544318e-01
4.000000000000000222e-01,6.354750901042584450e-03,3.053420782089233398e-01,4.964570701122283936e-02,5.174153447151184082e-01,-1.106833465188633049e-02,-8.255764797376012876e-01,1.365097784795719360e-01,-2.311358819396351461e+00,2.825852103037327506e-02,1.583196569721814662e+00,8.572602416527485003e-01
4.166666666666666852e-01,5.954088881472518850e-03,3.051218092441558838e-01,5.150208249688148499e-02,5.172088742256164551e-01,-1.155159413212199747e-02,-8.262748805119287665e-01,1.421870372495295798e-01,-2.311884042200287759e+00,2.860740610736115311e-02,1.583797374159504612e+00,8.595079765519939574e-01
4.333333333333333481e-01,4.643791461497483002e-03,3.049268722534179688e-01,5.156013369560241699e-02,5.182610154151916504e-01,-1.382546749926028863e-02,-8.293667329538995103e-01,1.451219685344053989e-01,-2.311813077163655361e+00,2.714364264142242467e-02,1.585405537504416484e+00,8.613955871259749708e-01
4.500000000000000111e-01,4.169861623224468093e-03,3.048895001411437988e-01,5.283009260892868042e-02,5.189646482467651367e-01,-1.559024526242211786e-02,-8.303253388750564401e-01,1.498604168092483591e-01,-2.310661666089778965e+00,2.760670821796561494e-02,1.585997096400537654e+00,8.641962629631468884e-01
4.666666666666666741e-01,3.664942716664695496e-03,3.053761422634124756e-01,5.379238724708557129e-02,5.204626917839050293e-01,-1.760666216475744589e-02,-8.301992455865783160e-01,1.537575060832637175e-01,-2.307367723122173420e+00,2.764062722470144243e-02,1.587088769195160731e+00,8.667180978168912420e-01
4.833333333333333370e-01,3.580329597880733353e-03,3.049086928367614746e-01,5.573767051100730896e-02,5.205231904983520508e-01,-1.844568379898036889e-02,-8.317180757167820238e-01,1.596479217425532671e-01,-2.307637258430398131e+00,2.852223903178633529e-02,1.587151273728836909e+00,8.694602840890979234e-01
5.000000000000000000e-01,3.576609904227944815e-03,3.042799234390258789e-01,5.714107304811477661e-02,5.206896066665649414e-01,-1.914881827308295009e-02,-8.342527084809842064e-01,1.643817899908669444e-01,-2.308481587130041923e+00,2.866827770978407422e-02,1.587373121848203672e+00,8.719529873244967755e-01
5.166666666666666075e-01,4.172853585130351095e-03,3.035874366760253906e-01,5.895768478512763977e-02,5.206797122955322266e-01,-1.917862585819591487e-02,-8.363138680705681782e-01,1.695609310490969190e-01,-2.309209262057887901e+00,2.913977010170560461e-02,1.587108263340291314e+00,8.744595205307221786e-01
5.333333333333333259e-01,4.266945409030127763e-03,3.034941554069519043e-01,6.058632954955101013e-02,5.212336778640747070e-01,-2.008939796499670943e-02,-8.369953820034156111e-01,1.741759448266558541e-01,-2.308071012647135767e+00,3.023313278861298678e-02,1.587543372780767514e+00,8.773488512370668513e-01
5.500000000000000444e-01,3.735209554441447800e-03,3.044572174549102783e-01,6.270761042833328247e-02,5.234489440917968750e-01,-2.133247330265377814e-02,-8.359395080577145531e-01,1.790230671136210372e-01,-2.302811513612223138e+00,3.205817133591384177e-02,1.590119617487290027e+00,8.800844818309921935e-01
5.666666666666666519e-01,3.482237696247651119e-03,3.047856986522674561e-01,6.431479752063751221e-02,5.245638489723205566e-01,-2.307739065133041292e-02,-8.358284042713488571e-01,1.841989012720224861e-01,-2.300090371460504546e+00,3.261618574045595936e-02,1.591186499391467501e+00,8.828910338867056451e-01
5.833333333333333703e-01,2.756294886360524752e-03,3.055494427680969238e-01,6.525621563196182251e-02,5.262556672096252441e-01,-2.537734038520087290e-02,-8.350734354968931683e-01,1.878748153612259941e-01,-2.296081351985344021e+00,3.269837852277714813e-02,1.592848343092510222e+00,8.853063960411354794e-01
5.999999999999999778e-01,2.417264911377441094e-03,3.058304190635681152e-01,6.547513604164123535e-02,5.277959704399108887e-01,-2.841460342295620833e-02,-8.362512119393376020e-01,1.908752830959521141e-01,-2.293609914776368441e+00,3.205856677974260743e-02,1.594079135369657951e+00,8.872868681160692717e-01
6.166666666666666963e-01,1.978500971509397025e-03,3.060438036918640137e-01,6.663752347230911255e-02,5.283212065696716309e-01,-3.023970887876547761e-02,-8.357805457214741995e-01,1.951813556231775937e-01,-2.291777379538414650e+00,3.238402407764614382e-02,1.594351326793464363e+00,8.891596370698433560e-01
6.333333333333333037e-01,1.602132187066415562e-03,3.056325912475585938e-01,6.854074448347091675e-02,5.282611250877380371e-01,-3.131674781193165280e-02,-8.367734684360357278e-01,2.006979131328294752e-01,-2.291761545314838777e+00,3.383711459918974790e-02,1.594179281261392633e+00,8.918832870528490275e-01
6.500000000000000222e-01,2.934060327417585719e-03,3.054634034633636475e-01,7.178197056055068970e-02,5.301390886306762695e-01,-3.056291696021412249e-02,-8.379736912023934003e-01,2.064127937937468571e-01,-2.287982447854842061e+00,3.704218989243054927e-02,1.595109927662415439e+00,8.946383891263619548e-01
6.666666666666666297e-01,3.247550874213468199e-03,3.050429522991180420e-01,7.385831326246261597e-02,5.306192636489868164e-01,-3.075138102414828531e-02,-8.393034634978783215e-01,2.113527338395962130e-01,-2.287153874808643739e+00,3.858259542882992027e-02,1.595259959428187768e+00,8.972945274137961169e-01
6.833333333333333481e-01,4.087569493132802920e-03,3.053798675537109375e-01,7.649897783994674683e-02,5.320449471473693848e-01,-3.102862740518150253e-02,-8.387107892065548409e-01,2.166511927903008172e-01,-2.283328255745621593e+00,4.096816670576652886e-02,1.596579745645164028e+00,9.003351976274708290e-01
6.999999999999999556e-01,3.937843450864498412e-03,3.052353262901306152e-01,7.794694602489471436e-02,5.327032208442687988e-01,-3.215502018758283065e-02,-8.396921628787985536e-01,2.210212499885832182e-01,-2.282097328986295359e+00,4.154284276643974150e-02,1.597133143716018555e+00,9.030868941267523597e-01
7.166666666666666741e-01,4.661601240237864784e-03,3.052766323089599609e-01,8.007057011127471924e-02,5.341827273368835449e-01,-3.270399148495213570e-02,-8.403770767458584867e-01,2.257963564840434201e-01,-2.278998025508086389e+00,4.292401116622239499e-02,1.598234181083651118e+00,9.058742230475286261e-01
7.333333333333332815e-01,4.056449809452893768e-03,3.051616847515106201e-01,8.109715580940246582e-02,5.345372557640075684e-01,-3.436476621954063365e-02,-8.411692986500061142e-01,2.295265748711270426e-01,-2.278286532702763267e+00,4.356317202043090420e-02,1.598582421241874885e+00,9.086056783019538230e-01
7.500000000000000000e-01,3.368162579396445817e-03,3.053110539913177490e-01,8.236782997846603394e-02,5.345509052276611328e-01,-3.592707309509685781e-02,-8.405331834900712229e-01,2.337292593029833832e-01,-2.277296234771278627e+00,4.435014813508255521e-02,1.598912042899116148e+00,9.112332648848040506e-01
7.666666666666666075e-01,2.509165677448259649e-03,3.051549792289733887e-01,8.283076435327529907e-02,5.347718000411987305e-01,-3.802978697874613567e-02,-8.417328960824187467e-01,2.369436631377111468e-01,-2.277213805522369405e+00,4.405427774472908675e-02,1.599215557235245333e+00,9.139359938336584221e-01
7.833333333333333259e-01,3.125857666619338837e-03,3.043728768825531006e-01,8.476625382900238037e-02,5.346592068672180176e-01,-3.857776015563920552e-02,-8.442516508889318372e-01,2.423081415361074409e-01,-2.278201417729802447e+00,4.538130050511644809e-02,1.599417352424308492e+00,9.171781323403759290e-01
8.000000000000000444e-01,3.739652999850134538e-03,3.038247823715209961e-01,8.634809404611587524e-02,5.340487957000732422e-01,-3.864530367461755517e-02,-8.453449694262219483e-01,2.466589973181846640e-01,-2.279416115103717999e+00,4.626774599935400134e-02,1.599313888332586586e+00,9.193259248631157066e-01
8.166666666666666519e-01,3.126792951720241878e-03,3.045360445976257324e-01,8.811069279909133911e-02,5.351938605308532715e-01,-3.978654846019098051e-02,-8.438232926035471593e-01,2.506598604640952188e-01,-2.275840584126741728e+00,4.764297136545983524e-02,1.601150728012406876e+00,9.221285113107183795e-01
8.333333333333333703e-01,1.771469323012272003e-03,3.054737150669097900e-01,8.871043473482131958e-02,5.366089344024658203e-01,-4.205113283562851578e-02,-8.421595693641573677e-01,2.531000761991515358e-01,-2.271889584383242067e+00,4.754007187152368280e-02,1.602777546513422413e+00,9.241284993553263716e-01
8.499999999999999778e-01,3.287235090981840881e-03,3.066793084144592285e-01,9.183607995510101318e-02,5.392367243766784668e-01,-4.233220379282692097e-02,-8.398425946127757724e-01,2.586404081865876226e-01,-2.264890922532011519e+00,4.947244114650143493e-02,1.606412663847431421e+00,9.264322260821452604e-01
8.666666666666666963e-01,4.186081837493187130e-03,3.071166872978210449e-01,9.439433366060256958e-02,5.400532484054565430e-01,-4.237020565597720417e-02,-8.381094417436972810e-01,2.637755018162502019e-01,-2.261486327995613443e+00,5.113171356961637715e-02,1.607678480398514909e+00,9.293404695279919858e-01
8.833333333333333037e-01,4.056528016170285814e-03,3.068661689758300781e-01,9.562849998474121094e-02,5.408177375793457031e-01,-4.368575307053890189e-02,-8.393883623274682737e-01,2.673461351337335645e-01,-2.260122191446084727e+00,5.205842257099226739e-02,1.607962410742092674e+00,9.320232073003945628e-01
9.000000000000000222e-01,3.198587631777127707e-03,3.067566156387329102e-01,9.659580141305923462e-02,5.407044291496276855e-01,-4.540114075670843852e-02,-8.395388881038325923e-01,2.708601899720256556e-01,-2.259755100451575682e+00,5.302874870888391740e-02,1.607802002669904695e+00,9.347092682121492802e-01
9.166666666666666297e-01,2.418048927788562022e-03,3.070263862609863281e-01,9.670212119817733765e-02,5.414347052574157715e-01,-4.786596651917647549e-02,-8.399026343601044831e-01,2.727114833812420702e-01,-2.258345704057623138e+00,5.307003675316435826e-02,1.608583661433869993e+00,9.372491228771677729e-01
9.333333333333333481e-01,1.459338792926726793e-03,3.070868253707885742e-01,9.818591922521591187e-02,5.407965779304504395e-01,-4.926674416224190861e-02,-8.389236365794586758e-01,2.772451081812649099e-01,-2.258203340630505096e+00,5.441231074485151920e-02,1.608661251976855278e+00,9.396089005248827730e-01
9.499999999999999556e-01,1.895800446483801756e-03,3.075974881649017334e-01,9.965781867504119873e-02,5.417720079421997070e-01,-5.062823014364520313e-02,-8.377089177401289000e-01,2.808161848328276644e-01,-2.255007183020488970e+00,5.547752556979396871e-02,1.609801840296749109e+00,9.426490267992229111e-01
9.666666666666666741e-01,3.938143592830880592e-03,3.076292276382446289e-01,1.031135246157646179e-01,5.432608723640441895e-01,-4.980323424857180381e-02,-8.370458301078262942e-01,2.863378145482959325e-01,-2.250577801991479721e+00,5.878402152726280167e-02,1.610929976147122078e+00,9.452724745049614352e-01
9.833333333333332815e-01,3.145611700142596223e-03,3.071651756763458252e-01,1.042923107743263245e-01,5.428699254989624023e-01,-5.093593881211304353e-02,-8.379668681476402092e-01,2.901346397284354506e-01,-2.251062826406025064e+00,5.988386222092501737e-02,1.610404398631184009e+00,9.477413021403974236e-01
1.000000000000000000e+00,4.529103062351804744e-03,3.063937127590179443e-01,1.072765886783599854e-01,5.432923436164855957e-01,-5.026272047161885193e-02,-8.393612343334747594e-01,2.954393283499330836e-01,-2.249810389371028396e+00,6.337282141620030618e-02,1.610323289022638216e+00,9.503191523772835936e-01
1.016666666666666607e+00,3.582171353959481396e-03,3.063833713531494141e-01,1.079256907105445862e-01,5.431461334228515625e-01,-5.164346058500166037e-02,-8.393857647941094235e-01,2.976848939904711000e-01,-2.249652408659159164e+00,6.454252070974389466e-02,1.610437088854911769e+00,9.529478126747672473e-01
1.033333333333333215e+00,2.360206196469228582e-03,3.062511086463928223e-01,1.082526147365570068e-01,5.427283644676208496e-01,-5.376830068075083569e-02,-8.403604790386555168e-01,3.005032421003165921e-01,-2.250669624887359443e+00,6.478474997203045871e-02,1.610823210593505861e+00,9.543044163738229058e-01
1.050000000000000044e+00,1.701600830744159605e-03,3.065931200981140137e-01,1.090874969959259033e-01,5.431725382804870605e-01,-5.554031339829627878e-02,-8.399598543389996674e-01,3.033774567395282618e-01,-2.249179949614814600e+00,6.536094043599775805e-02,1.611926375673077727e+00,9.567796294160396675e-01
1.066666666666666652e+00,2.189984057673035472e-03,3.062932193279266357e-01,1.109982132911682129e-01,5.430079698562622070e-01,-5.644485649279237099e-02,-8.401389274775602489e-01,3.079317232367694279e-01,-2.248555512564229808e+00,6.769453635922388635e-02,1.611842802900237404e+00,9.593122927030877101e-01
1.083333333333333259e+00,4.148343654853098479e-03,3.067198991775512695e-01,1.142313554883003235e-01,5.448551774024963379e-01,-5.622320124604491404e-02,-8.386388526073712546e-01,3.129959327199978159e-01,-2.243044414919481699e+00,7.063238805477649318e-02,1.613751022001832514e+00,9.617952916319867374e-01
1.100000000000000089e+00,3.289331327107108266e-03,3.067752718925476074e-01,1.145225018262863159e-01,5.454744100570678711e-01,-5.814200878342401513e-02,-8.394366580239424058e-01,3.151510929536956440e-01,-2.241974371148798717e+00,7.029592464864363455e-02,1.614282333852920193e+00,9.638441991399699926e-01
1.116666666666666696e+00,3.146002783850274358e-03,3.069252371788024902e-01,1.150404363870620728e-01,5.464786291122436523e-01,-6.039370348491149287e-02,-8.401125448573744103e-01,3.176432297620322420e-01,-2.239973658796315714e+00,7.036962788472357622e-02,1.614998488910702967e+00,9.659183470576002684e-01
1.133333333333333304e+00,3.110134594504852974e-03,3.065187036991119385e-01,1.169845461845397949e-01,5.460845232009887695e-01,-6.071984889091489729e-02,-8.405638656353405791e-01,3.223475363197234045e-01,-2.240017498872027168e+00,7.198818751706931307e-02,1.615146314987642606e+00,9.683797842006833800e-01
1.149999999999999911e+00,3.443263817046396912e-03,3.064498305320739746e-01,1.179138123989105225e-01,5.471733808517456055e-01,-6.217669820368203204e-02,-8.414810640403302955e-01,3.244933817558468547e-01,-2.237874324650850788e+00,7.345094868058048287e-02,1.615577389681289056e+00,9.705566433581865882e-01
1.166666666666666741e+00,3.040742408633821583e-03,3.072320818901062012e-01,1.187183633446693420e-01,5.472856163978576660e-01,-6.401119132090866970e-02,-8.385499077219182862e-01,3.269098115096124024e-01,-2.235306619281192564e+00,7.440330074069495536e-02,1.615858207376941857e+00,9.725400479714672031e-01
1.183333333333333348e+00,1.708751805305092899e-03,3.070836067199707031e-01,1.195145696401596069e-01,5.462518930435180664e-01,-6.560371645536904051e-02,-8.382436633995089537e-01,3.302404240837577554e-01,-2.236333555936840689e+00,7.556328001570843111e-02,1.615332871636303125e+00,9.749703826306030940e-01
1.199999999999999956e+00,9.876447935352396668e-04,3.075144290924072266e-01,1.208856105804443359e-01,5.449997186660766602e-01,-6.648766687770063522e-02,-8.351565416228354799e-01,3.336266854451747088e-01,-2.236094411830643391e+00,7.770645433237882704e-02,1.615191870181898581e+00,9.780950469047745566e-01
1.216666666666666563e+00,1.206682149500606926e-03,3.066606819629669189e-01,1.225238963961601257e-01,5.450183153152465820e-01,-6.754147854166771270e-02,-8.380238185485967550e-01,3.378786588660873669e-01,-2.236782314886299972e+00,7.997505064972841582e-02,1.615358305962734109e+00,9.797235777458118688e-01
1.233333333333333393e+00,2.704957019604375869e-03,3.057036399841308594e-01,1.250269412994384766e-01,5.447357296943664551e-01,-6.752866501160069423e-02,-8.400241394702138154e-01,3.429582056817106483e-01,-2.237182739930082764e+00,8.341168923151233427e-02,1.615200659961898877e+00,9.816744432939842335e-01
1.250000000000000000e+00,3.470428619928975136e-03,3.052811026573181152e-01,1.269393116235733032e-01,5.458375215530395508e-01,-6.828405662443962076e-02,-8.412259820026106727e-01,3.464651706281446364e-01,-2.234642603379346060e+00,8.599846922300204144e-02,1.615237307577198855e+00,9.836230408654920154e-01
1.266666666666666607e+00,3.465964171766059039e-03,3.058857619762420654e-01,1.285716146230697632e-01,5.454698801040649414e-01,-6.889676145511156036e-02,-8.382804596740104364e-01,3.499934972916804998e-01,-2.232893250762491455e+00,8.750364779948660576e-02,1.616131307146670970e+00,9.858314841759313607e-01
1.283333333333333215e+00,4.818389748461941041e-03,3.060348927974700928e-01,1.312287151813507080e-01,5.461218357086181641e-01,-6.881406088868199933e-02,-8.373688103564513874e-01,3.543423498290374507e-01,-2.230185345311640699e+00,9.051381982986407559e-02,1.617905951171523693e+00,9.883785318192030989e-01
1.300000000000000044e+00,3.793013483004412534e-03,3.061508834362030029e-01,1.313904523849487305e-01,5.441744923591613770e-01,-7.008422512735916488e-02,-8.359540316247414671e-01,3.564293503488251691e-01,-2.232714777495338865e+00,9.141479927831326624e-02,1.617489866601522497e+00,9.906074014441837994e-01
1.316666666666666652e+00,3.655127476308005826e-03,3.062997162342071533e-01,1.323951929807662964e-01,5.437805056571960449e-01,-7.110131571748569412e-02,-8.348354992225851534e-01,3.587987875986714537e-01,-2.232165821883258516e+00,9.338135004341804879e-02,1.617600858478354775e+00,9.927205758890953469e-01
1.333333333333333259e+00,3.463777835836544857e-03,3.066527247428894043e-01,1.332656741142272949e-01,5.433292984962463379e-01,-7.247601727612686118e-02,-8.333213005640502935e-01,3.609773272783035614e-01,-2.231613768220929828e+00,9.549695457587593916e-02,1.618066126537225591e+00,9.946515304356550180e-01
1.350000000000000089e+00,3.443457615050556520e-03,3.063401579856872559e-01,1.345749646425247192e-01,5.435189008712768555e-01,-7.367003059206220228e-02,-8.339439257898605407e-01,3.642553251601672315e-01,-2.230611813671905086e+00,9.727735053007063870e-02,1.617810174285925662e+00,9.959775330929975246e-01
1.366666666666666696e+00,3.168691616522033034e-03,3.060433864593505859e-01,1.355743706226348877e-01,5.437887310981750488e-01,-7.492990795736302612e-02,-8.348119220692022946e-01,3.669282757141577589e-01,-2.229760547162366713e+00,9.877456228962629148e-02,1.617585662371226585e+00,9.974109242689047639e-01
1.383333333333333304e+00,4.085032895616611849e-03,3.054614663124084473e-01,1.377635449171066284e-01,5.443092584609985352e-01,-7.563552784287606856e-02,-8.361008239245708573e-01,3.712606955982544754e-01,-2.228181820621272013e+00,1.017438841657080789e-01,1.617630208185422136e+00,9.985101636224922306e-01
1.399999999999999911e+00,5.219363225917244414e-03,3.050782084465026855e-01,1.400343477725982666e-01,5.441403985023498535e-01,-7.551101850008272443e-02,-8.359244174792153093e-01,3.752453668322242586e-01,-2.227214223584731645e+00,1.050001014621041451e-01,1.617753697461498108e+00,1.000012483087044934e+00
1.416666666666666741e+00,4.796502508994507363e-03,3.050684332847595215e-01,1.402064710855484009e-01,5.424122810363769531e-01,-7.690881192548465473e-02,-8.353022667458729345e-01,3.773641833723996308e-01,-2.229781780457580798e+00,1.061200887912624180e-01,1.617526278247741089e+00,1.002243432802343071e+00
1.433333333333333348e+00,3.429758418920759826e-03,3.056473731994628906e-01,1.402164697647094727e-01,5.427023768424987793e-01,-7.897770018893505994e-02,-8.339761846704784043e-01,3.779413629433385213e-01,-2.228203741862255782e+00,1.071811679399227724e-01,1.617820380043039741e+00,1.004094267117494388e+00
1.449999999999999956e+00,2.183706107709295578e-03,3.061775565147399902e-01,1.401198804378509521e-01,5.427372455596923828e-01,-8.137688955918664924e-02,-8.328265055286415697e-01,3.788696722686286655e-01,-2.227165900389874054e+00,1.079981731939801404e-01,1.617986610644050360e+00,1.005409490349549628e+00
1.466666666666666563e+00,2.810330958247135927e-03,3.062345981597900391e-01,1.425621956586837769e-01,5.437387228012084961e-01,-8.201985846932589863e-02,-8.319061791819496454e-01,3.829212810392619848e-01,-2.223387542199486866e+00,1.110476687681312552e-01,1.618626955083706909e+00,1.006620891214350166e+00
1.483333333333333393e+00,1.803550576327921052e-03,3.068888783454895020e-01,1.427756100893020630e-01,5.434196591377258301e-01,-8.399235680182572106e-02,-8.293274268427047735e-01,3.844703435607454978e-01,-2.221938122318458220e+00,1.116073283927001697e-01,1.618308480970380048e+00,1.008116155699510630e+00
1.500000000000000000e+00,2.807422986394385832e-03,3.069268763065338135e-01,1.448821276426315308e-01,5.438543558120727539e-01,-8.497430996755442334e-02,-8.282571591991945148e-01,3.885762855237613334e-01,-2.219152125413852428e+00,1.142106958119896432e-01,1.618541165798708104e+00,1.009452581513242908e+00
1.516666666666666607e+00,2.255796656059908239e-03,3.075044155120849609e-01,1.448942124843597412e-01,5.445266962051391602e-01,-8.719907855265586483e-02,-8.272282649642772601e-01,3.891726512518045578e-01,-2.216969601299248804e+00,1.150108400694316579e-01,1.618869878051121480e+00,1.011302643690191072e+00
1.533333333333333215e+00,2.914761065051985588e-03,3.072763085365295410e-01,1.469276696443557739e-01,5.439947843551635742e-01,-8.786332106834841837e-02,-8.260721707492481025e-01,3.933857067480363012e-01,-2.215864279038733731e+00,1.180294243528400289e-01,1.618237846866817709e+00,1.012644716954427482e+00
1.550000000000000044e+00,1.243386288013957923e-03,3.075951337814331055e-01,1.464146971702575684e-01,5.427455306053161621e-01,-8.982833141642936059e-02,-8.246195681922771081e-01,3.939101513363253981e-01,-2.217176215208756851e+00,1.188841252023882522e-01,1.617390816344099536e+00,1.014663105467673576e+00
1.566666666666666652e+00,1.986904614157638648e-03,3.068650662899017334e-01,1.473093628883361816e-01,5.402801632881164551e-01,-9.055877225961593557e-02,-8.251709503406752244e-01,3.976432553174779616e-01,-2.221291399883616791e+00,1.210317166876773015e-01,1.616367417052763100e+00,1.016622163633897902e+00
1.583333333333333259e+00,2.637856072050158863e-03,3.067195713520050049e-01,1.472703516483306885e-01,5.390340089797973633e-01,-9.184471267469666855e-02,-8.242606717360093649e-01,3.984476173681221201e-01,-2.222542542807214527e+00,1.229105026799690303e-01,1.614558424811536774e+00,1.018609921455500000e+00
1.600000000000000089e+00,4.203568152228849726e-03,3.055519759654998779e-01,1.487396955490112305e-01,5.372959971427917480e-01,-9.222348390805840124e-02,-8.260096569512712650e-01,4.025279979024274923e-01,-2.225565458757440940e+00,1.260760217550214446e-01,1.613038801305634484e+00,1.019029243310368260e+00
1.616666666666666696e+00,2.801354984692384746e-03,3.055461347103118896e-01,1.508619934320449829e-01,5.388346910476684570e-01,-9.233667827272692974e-02,-8.253814123399848546e-01,4.051970481987651751e-01,-2.221058363280274506e+00,1.286587490108510590e-01,1.613295651084995619e+00,1.020398142355477766e+00
1.633333333333333304e+00,2.898676573226124757e-03,3.057217895984649658e-01,1.529152095317840576e-01,5.394154787063598633e-01,-9.233822830805829551e-02,-8.234813914797690648e-01,4.085215118644039411e-01,-2.217676801171158729e+00,1.304862498710542551e-01,1.613605532049172675e+00,1.021566124780124207e+00
1.649999999999999911e+00,1.738139968260433077e-03,3.067987561225891113e-01,1.531887203454971313e-01,5.398074984550476074e-01,-9.407306998985842661e-02,-8.201587256647142610e-01,4.095495368011463078e-01,-2.214693014831174089e+00,1.304960041455100195e-01,1.614317695371189076e+00,1.022775503171324818e+00
1.666666666666666741e+00,3.358598925517214482e-03,3.076722323894500732e-01,1.552118957042694092e-01,5.410817265510559082e-01,-9.531230033625913423e-02,-8.175316912154840798e-01,4.126757215783493637e-01,-2.209855955754994827e+00,1.328109896083927433e-01,1.616389711575418886e+00,1.023984408545894231e+00
1.683333333333333348e+00,3.948807513433708234e-03,3.082868456840515137e-01,1.562539041042327881e-01,5.411778688430786133e-01,-9.682834580119940859e-02,-8.152300269964906088e-01,4.150635941070815460e-01,-2.207614602213364474e+00,1.343405056902027273e-01,1.617064331415331457e+00,1.025326682309328552e+00
1.699999999999999956e+00,5.105299971047918932e-03,3.087626397609710693e-01,1.574389338493347168e-01,5.418733358383178711e-01,-9.822157180255883246e-02,-8.133203797907516686e-01,4.172941285271651313e-01,-2.204268914758094056e+00,1.359197611377006287e-01,1.617300294513267067e+00,1.026300710497691560e+00
1.716666666666666563e+00,3.039032448522455392e-03,3.088185191154479980e-01,1.570835262537002563e-01,5.392619371414184570e-01,-9.938243247911771050e-02,-8.116378604318836842e-01,4.184465507730699696e-01,-2.208059739372320696e+00,1.372662928769815827e-01,1.616231861080317689e+00,1.028618211178506936e+00
1.733333333333333393e+00,1.984158688368813962e-03,3.081994950771331787e-01,1.574528515338897705e-01,5.379626750946044922e-01,-1.005630244256138367e-01,-8.126159217458909234e-01,4.203345661036029801e-01,-2.210357538472105698e+00,1.396205676331274126e-01,1.614861283121090896e+00,1.029429543070796926e+00
1.750000000000000000e+00,1.349039021732989984e-03,3.075812160968780518e-01,1.576109528541564941e-01,5.353689789772033691e-01,-1.012782408268279727e-01,-8.123573567441977339e-01,4.223870805155962582e-01,-2.214466243295721615e+00,1.416528158190593634e-01,1.612878562654797010e+00,1.031135808963088207e+00
1.766666666666666607e+00,2.661547065072317544e-03,3.063911497592926025e-01,1.599369794130325317e-01,5.342207551002502441e-01,-1.007615571345918948e-01,-8.133675371448368940e-01,4.269224154117088887e-01,-2.215568012658992281e+00,1.455838788612667800e-01,1.611454280581319676e+00,1.031003766953375367e+00
1.783333333333333215e+00,2.505813289042673440e-03,3.061772286891937256e-01,1.601550579071044922e-01,5.332546234130859375e-01,-1.014656645083484576e-01,-8.126914565050775696e-01,4.278057094645380531e-01,-2.216464110379156249e+00,1.473901397097725496e-01,1.610029567458460154e+00,1.031992658100422622e+00
1.800000000000000044e+00,2.922404215100371083e-03,3.062122464179992676e-01,1.620760709047317505e-01,5.331634283065795898e-01,-1.012374535580867485e-01,-8.106137719179280499e-01,4.307586322658391031e-01,-2.214304954114339807e+00,1.499180556209910586e-01,1.609938244779108629e+00,1.033087066274727128e+00
1.816666666666666652e+00,3.553503513100153034e-03,3.064285814762115479e-01,1.638872027397155762e-01,5.332913994789123535e-01,-1.013661376100233047e-01,-8.091372477548007813e-01,4.337246974385869924e-01,-2.212390851475392939e+00,1.521364089969929612e-01,1.611162678410965610e+00,1.034447154378546951e+00
1.833333333333333259e+00,4.862015288051204330e-03,3.065068721771240234e-01,1.660598814487457275e-01,5.331509113311767578e-01,-1.010700398269303302e-01,-8.069011820020965953e-01,4.373044717344650167e-01,-2.210172023982462708e+00,1.544973345795500053e-01,1.611560220116023290e+00,1.035769472040290795e+00
1.849999999999999867e+00,5.331274914477206195e-03,3.073889315128326416e-01,1.673355102539062500e-01,5.324333310127258301e-01,-1.015480669535161334e-01,-8.019398202068466208e-01,4.394657289275424872e-01,-2.207927679826509948e+00,1.563718904999390480e-01,1.611819795637073893e+00,1.038299061343750385e+00
1.866666666666666696e+00,5.944687889531926998e-03,3.070060014724731445e-01,1.687168776988983154e-01,5.320855379104614258e-01,-1.019692900351765880e-01,-8.024514892115847120e-01,4.424328881478507558e-01,-2.208009585893323745e+00,1.585584791962642293e-01,1.612129920360239943e+00,1.038507339122974216e+00
1.883333333333333304e+00,5.808913431929510138e-03,3.066497743129730225e-01,1.693489104509353638e-01,5.309638977050781250e-01,-1.025880791879511394e-01,-8.017699550277408438e-01,4.440457130251981854e-01,-2.208949381082022434e+00,1.611029923338309078e-01,1.610652874458704975e+00,1.038821800801131623e+00
1.899999999999999911e+00,4.470103881436633328e-03,3.065837025642395020e-01,1.684984117746353149e-01,5.285475254058837891e-01,-1.035874286204027384e-01,-8.001983241501363642e-01,4.438028542452472358e-01,-2.212645854918183996e+00,1.625921809039512778e-01,1.608707926859323178e+00,1.040447851932135848e+00
1.916666666666666741e+00,3.660236698038243832e-03,3.067010641098022461e-01,1.671086698770523071e-01,5.262113809585571289e-01,-1.050267411441013904e-01,-7.984352110251065060e-01,4.427534801232231310e-01,-2.216321972030090404e+00,1.635067338182437657e-01,1.606654398711603982e+00,1.043211521576670631e+00
1.933333333333333348e+00,2.639943314041155124e-03,3.077626228332519531e-01,1.669740527868270874e-01,5.261678695678710938e-01,-1.070199041199999535e-01,-7.944130190147512538e-01,4.428336949235548436e-01,-2.213719723117931970e+00,1.642265859161778918e-01,1.606085763536371225e+00,1.045180738756850136e+00
1.949999999999999956e+00,2.905298711854784922e-03,3.074661493301391602e-01,1.668783426284790039e-01,5.246987938880920410e-01,-1.072115012873266771e-01,-7.937698905756899181e-01,4.436472597436161847e-01,-2.215867860644153531e+00,1.648234317595991816e-01,1.604766810698760482e+00,1.045879888742871078e+00
1.966666666666666563e+00,2.599197397958246791e-03,3.066715300083160400e-01,1.681977361440658569e-01,5.243408679962158203e-01,-1.064793018860849122e-01,-7.937403159020330889e-01,4.454773113605356438e-01,-2.215397106633295810e+00,1.673250605786484879e-01,1.602712088464659734e+00,1.046478774020258351e+00
1.983333333333333393e+00,3.175434644030250119e-03,3.063504695892333984e-01,1.691765338182449341e-01,5.230316519737243652e-01,-1.059416196133249333e-01,-7.913400348366960158e-01,4.471370741100690882e-01,-2.215573239185974153e+00,1.695143666048252729e-01,1.600609447436086130e+00,1.048298711999872124e+00
2.000000000000000000e+00,3.333885559673310274e-03,3.055737316608428955e-01,1.703226268291473389e-01,5.225871801376342773e-01,-1.049933950004810213e-01,-7.916829595057126578e-01,4.488186759611720311e-01,-2.215755742955590080e+00,1.714090071187190090e-01,1.599169171777950815e+00,1.048519637974715701e+00
2.016666666666666607e+00,3.559028852544474791e-03,3.050355613231658936e-01,1.715726703405380249e-01,5.224773287773132324e-01,-1.045344829378589274e-01,-7.913890485282938370e-01,4.503079242506680679e-01,-2.214844357171566358e+00,1.740622335792761100e-01,1.597772113396107363e+00,1.048956502974853766e+00
2.033333333333333215e+00,3.254497197729848412e-03,3.052789866924285889e-01,1.720930933952331543e-01,5.218129754066467285e-01,-1.045033746296982619e-01,-7.885199593077625302e-01,4.509698579254028949e-01,-2.213978782219745423e+00,1.753454745735279485e-01,1.596754345953931065e+00,1.050278455110739362e+00
2.049999999999999822e+00,3.547290644341379549e-03,3.056986629962921143e-01,1.734889000654220581e-01,5.215930938720703125e-01,-1.043380772544946489e-01,-7.853702245606963839e-01,4.529292802346605584e-01,-2.211868647392862375e+00,1.771104043207553658e-01,1.597091168444477960e+00,1.051616372265898658e+00
2.066666666666666430e+00,4.522521575047165968e-03,3.053630888462066650e-01,1.750254034996032715e-01,5.211536288261413574e-01,-1.033079924796086180e-01,-7.839893126442352145e-01,4.549650681000488306e-01,-2.211045413480767330e+00,1.793054866139893733e-01,1.596476582764312369e+00,1.052185901630737552e+00
2.083333333333333481e+00,4.147315531830122852e-03,3.052281439304351807e-01,1.750972121953964233e-01,5.198278427124023438e-01,-1.032937151033303386e-01,-7.819195472136861724e-01,4.552728206062873206e-01,-2.211991403357881136e+00,1.806968875644948680e-01,1.594533786095748029e+00,1.053327664169865896e+00
2.100000000000000089e+00,2.503776887395572481e-03,3.058161139488220215e-01,1.739141047000885010e-01,5.183121562004089355e-01,-1.044215253183249648e-01,-7.784878554926518701e-01,4.537374579637614147e-01,-2.213192040472423017e+00,1.810483649662334715e-01,1.592764601772666433e+00,1.055801675082105984e+00
2.116666666666666696e+00,3.251146144669358421e-03,3.057023286819458008e-01,1.754148900508880615e-01,5.182739496231079102e-01,-1.040496091918433064e-01,-7.768900694758038572e-01,4.554314244323133809e-01,-2.211473104704716697e+00,1.839046377185583059e-01,1.592283201679502547e+00,1.056799399228091962e+00
2.133333333333333304e+00,2.103195383183103714e-03,3.062410354614257812e-01,1.749033331871032715e-01,5.171665549278259277e-01,-1.040140255990899404e-01,-7.731710263799060900e-01,4.543990546101754346e-01,-2.211589720001949200e+00,1.839391663681299305e-01,1.591005765259309257e+00,1.059012121671218498e+00
2.149999999999999911e+00,2.566350313161843907e-03,3.066562116146087646e-01,1.758030652999877930e-01,5.171335935592651367e-01,-1.024868790947680158e-01,-7.692865385689644508e-01,4.544257073440252648e-01,-2.209058131309307171e+00,1.845331309979748036e-01,1.590378157093511158e+00,1.060136218256650942e+00
2.166666666666666519e+00,3.098494407850533108e-03,3.070068955421447754e-01,1.761562377214431763e-01,5.173029303550720215e-01,-1.019404834130034077e-01,-7.671585015477894176e-01,4.541182633966500126e-01,-2.207389208884326326e+00,1.848946093882221087e-01,1.590155961500572479e+00,1.060688248330427630e+00
2.183333333333333126e+00,2.818692557916177045e-03,3.066225647926330566e-01,1.768277585506439209e-01,5.154381990432739258e-01,-9.927222086568732173e-02,-7.639678239450859998e-01,4.543617678781429747e-01,-2.208910286086628094e+00,1.858249598914263334e-01,1.588390584893389912e+00,1.062769413861985202e+00
2.200000000000000178e+00,2.324122959719357884e-03,3.070594668388366699e-01,1.767072826623916626e-01,5.143980979919433594e-01,-9.757193706139484501e-02,-7.592404462016152378e-01,4.529432216782875997e-01,-2.208278102121910891e+00,1.855278805280216048e-01,1.586682258879799967e+00,1.065704224410634060e+00
2.216666666666666785e+00,1.471866932311864922e-03,3.075459301471710205e-01,1.763620674610137939e-01,5.127675533294677734e-01,-9.532686493454918530e-02,-7.540906550246582185e-01,4.510729102767386811e-01,-2.208895724729865506e+00,1.849710895424654666e-01,1.585367744477795382e+00,1.069091989907601459e+00
2.233333333333333393e+00,1.413611039608312020e-03,3.082417547702789307e-01,1.757293641567230225e-01,5.116156935691833496e-01,-9.249211028969275827e-02,-7.492441123606772280e-01,4.479635883175894229e-01,-2.209262480821744923e+00,1.836859516240937906e-01,1.584952878679467547e+00,1.072798894954146931e+00
2.250000000000000000e+00,1.984219588697395693e-03,3.077525198459625244e-01,1.773710250854492188e-01,5.110725164413452148e-01,-8.797799788336128912e-02,-7.465590536685620116e-01,4.483209265693716694e-01,-2.208443073375810251e+00,1.841218362362262440e-01,1.584176448835367790e+00,1.074999424294494466e+00
2.266666666666666607e+00,2.555399546423890809e-03,3.078227341175079346e-01,1.776381283998489380e-01,5.107988715171813965e-01,-8.480661223160897155e-02,-7.433151397100234981e-01,4.463860745969805977e-01,-2.207285338425696075e+00,1.836910266796931424e-01,1.582813478985780398e+00,1.076882101480602705e+00
2.283333333333333215e+00,2.316943395761235976e-03,3.075376451015472412e-01,1.778259277343750000e-01,5.095900297164916992e-01,-8.108529199683628397e-02,-7.402930043786400960e-01,4.446287760962144286e-01,-2.208162517243797307e+00,1.834252237079945225e-01,1.581119747741009052e+00,1.079414484438335320e+00
2.299999999999999822e+00,3.678086462462507207e-03,3.074145317077636719e-01,1.783619672060012817e-01,5.099149346351623535e-01,-7.772061370330404784e-02,-7.383868922423727499e-01,4.426949595870640630e-01,-2.206603006804296108e+00,1.834784394619217995e-01,1.580157707598222050e+00,1.081017865421999735e+00
2.316666666666666430e+00,4.313632364294741478e-03,3.067914545536041260e-01,1.780633479356765747e-01,5.096220374107360840e-01,-7.466167793990498291e-02,-7.385971630690773004e-01,4.401328233782665911e-01,-2.207814624547512761e+00,1.831686650776835068e-01,1.578637152502769814e+00,1.081655495901700625e+00
2.333333333333333481e+00,4.905451143498958284e-03,3.055735230445861816e-01,1.787839829921722412e-01,5.087893605232238770e-01,-7.080316162917114908e-02,-7.382435151054679290e-01,4.392438178630449497e-01,-2.208986743280777265e+00,1.842831554219929724e-01,1.575754553120108481e+00,1.082459817963780324e+00
2.350000000000000089e+00,4.770427276752417685e-03,3.054398596286773682e-01,1.792372912168502808e-01,5.074074864387512207e-01,-6.759506813899897326e-02,-7.338926343046059397e-01,4.382449281059920820e-01,-2.209040636212499464e+00,1.843994321136759040e-01,1.573549402700340050e+00,1.085261934590083355e+00
2.366666666666666696e+00,4.041886463180443395e-03,3.055306673049926758e-01,1.792211681604385376e-01,5.055642127990722656e-01,-6.303828860773437459e-02,-7.292057697411706840e-01,4.356952709311420202e-01,-2.210665396440976593e+00,1.835717274632232832e-01,1.572705774174956161e+00,1.088877052666488821e+00
2.383333333333333304e+00,3.432643174293429928e-03,3.063964247703552246e-01,1.793823242187500000e-01,5.040345788002014160e-01,-5.779962541650758567e-02,-7.226964143128074003e-01,4.324423480613032167e-01,-2.211046881539456166e+00,1.822157662674816769e-01,1.573828318611556476e+00,1.093469282091685590e+00
2.399999999999999911e+00,4.432671509997761911e-03,3.072821795940399170e-01,1.807465106248855591e-01,5.035415887832641602e-01,-5.207113042581049123e-02,-7.165923601508121799e-01,4.306747603508239708e-01,-2.209204120605489763e+00,1.813351515730989294e-01,1.576193704261543926e+00,1.097323486074851751e+00
2.416666666666666519e+00,3.203504161137122122e-03,3.075446486473083496e-01,1.801780015230178833e-01,5.013451576232910156e-01,-4.635636430592827983e-02,-7.120937375659031066e-01,4.266314864294988851e-01,-2.212400019798052231e+00,1.791691128276126643e-01,1.576712051506963030e+00,1.101096613321012496e+00
2.433333333333333126e+00,3.867732005423351899e-03,3.076969087123870850e-01,1.811047047376632690e-01,5.005124211311340332e-01,-4.061625255360092751e-02,-7.078807265607857113e-01,4.243881881396993072e-01,-2.212251939823371760e+00,1.786155609311821102e-01,1.577425361534422699e+00,1.104729358287081853e+00
2.450000000000000178e+00,2.075092186317003227e-03,3.073144257068634033e-01,1.786900609731674194e-01,4.980791211128234863e-01,-3.691319873566643872e-02,-7.061152456527057808e-01,4.185257290937544616e-01,-2.217558096005106449e+00,1.759840364405829416e-01,1.574691487765194964e+00,1.107619628603079498e+00
2.466666666666666785e+00,2.886185224050306398e-03,3.065970838069915771e-01,1.773769557476043701e-01,4.969246983528137207e-01,-3.237492695103771218e-02,-7.058292281446328920e-01,4.133155118639230130e-01,-2.220879844761614041e+00,1.746744387851664748e-01,1.572381464014782182e+00,1.110340811341375522e+00
2.483333333333333393e+00,3.300371363035938411e-03,3.056305050849914551e-01,1.772030442953109741e-01,4.955965876579284668e-01,-2.741946508335934771e-02,-7.048859665127730212e-01,4.102753495639150372e-01,-2.223535653419344893e+00,1.742079090320077239e-01,1.570092322355144177e+00,1.112513728476731689e+00
2.500000000000000000e+00,3.801800199627258011e-03,3.046766519546508789e-01,1.775354146957397461e-01,4.946492612361907959e-01,-2.162073380018789473e-02,-7.040086575750014175e-01,4.072187147918074346e-01,-2.225531259637998360e+00,1.742432038558167917e-01,1.568555261732795802e+00,1.115123787255352772e+00
2.516666666666666607e+00,3.644114012235816474e-03,3.039515614509582520e-01,1.782203912734985352e-01,4.925680458545684814e-01,-1.516623997894485029e-02,-7.007238149005982075e-01,4.048982867193127722e-01,-2.228354342133612942e+00,1.742474455880879680e-01,1.567658445374095821e+00,1.118561885707060055e+00
2.533333333333333215e+00,3.432059921327957393e-03,3.043640553951263428e-01,1.798696666955947876e-01,4.923338294029235840e-01,-9.637191852577178808e-03,-6.957642351755525256e-01,4.036647074110379929e-01,-2.226145729195193823e+00,1.740960324574611084e-01,1.568894481881366820e+00,1.121787613059408883e+00
2.549999999999999822e+00,2.847687872089452090e-03,3.050884306430816650e-01,1.804716438055038452e-01,4.909801483154296875e-01,-3.818405071010015552e-03,-6.898244341545878289e-01,4.008614937427872893e-01,-2.226268777257746301e+00,1.724622704950800056e-01,1.570638730064326527e+00,1.125437639085954622e+00
2.566666666666666430e+00,4.279492775711019048e-03,3.059706985950469971e-01,1.820085793733596802e-01,4.913729429244995117e-01,1.369625580128051466e-03,-6.847377507557669274e-01,3.990928398920299269e-01,-2.222891499511551405e+00,1.718716099444798362e-01,1.572829506821388446e+00,1.127746017064154449e+00
2.583333333333333481e+00,4.495792131253359067e-03,3.065468966960906982e-01,1.823996454477310181e-01,4.903306365013122559e-01,6.615533643180720319e-03,-6.793173665067805400e-01,3.960710222185914176e-01,-2.222440524737124168e+00,1.703436447862794467e-01,1.573366810314961839e+00,1.131187724018845930e+00
2.600000000000000089e+00,2.440839811830957697e-03,3.063039779663085938e-01,1.813167184591293335e-01,4.872916936874389648e-01,1.200960807086905689e-02,-6.756382007734990092e-01,3.915206763940403678e-01,-2.227669571929581593e+00,1.684545832049904324e-01,1.572692965349169913e+00,1.135091614613083832e+00
2.616666666666666696e+00,1.904017882107429671e-03,3.065165877342224121e-01,1.805003136396408081e-01,4.859299063682556152e-01,1.646056544593340470e-02,-6.718224433586149624e-01,3.868023326749790991e-01,-2.229064523391664832e+00,1.668589998780824757e-01,1.571612491168383530e+00,1.138897578593333071e+00
2.633333333333333304e+00,1.621201833596675910e-03,3.066458404064178467e-01,1.799407601356506348e-01,4.845429956912994385e-01,2.171491199989413617e-02,-6.680754209005284050e-01,3.822603149328840377e-01,-2.230585711554092132e+00,1.649180913283040117e-01,1.570979659623973790e+00,1.142916748836849239e+00
2.649999999999999911e+00,2.560278218273016881e-03,3.070302009582519531e-01,1.813160926103591919e-01,4.839153289794921875e-01,2.799991467518875635e-02,-6.633359602152989476e-01,3.801376150451007963e-01,-2.229557037286982624e+00,1.642202888564910368e-01,1.572711750229772276e+00,1.146557560295490497e+00
2.666666666666666519e+00,3.436503305753156774e-03,3.063733279705047607e-01,1.820996850728988647e-01,4.830964505672454834e-01,3.384715774431885926e-02,-6.616414989122181289e-01,3.778611065929248225e-01,-2.230646678967056484e+00,1.639160259664912966e-01,1.572238493883117538e+00,1.148158798546851100e+00
2.683333333333333126e+00,4.485548844666635039e-03,3.061159253120422363e-01,1.827506124973297119e-01,4.826137423515319824e-01,3.859893466762438774e-02,-6.593711655689187268e-01,3.758142349517734626e-01,-2.230566458412763797e+00,1.633387256928176823e-01,1.571839953259219103e+00,1.150383389300006387e+00
2.700000000000000178e+00,4.691817100474827279e-03,3.057876527309417725e-01,1.817684620618820190e-01,4.822008013725280762e-01,4.267835808640845635e-02,-6.587859212032054490e-01,3.712089304769184972e-01,-2.231866531845098311e+00,1.614567696292111276e-01,1.570083605526691573e+00,1.151197716174870322e+00
2.716666666666666785e+00,2.946973540003144498e-03,3.058533966541290283e-01,1.796772181987762451e-01,4.796958565711975098e-01,4.604461035284257431e-02,-6.555383547856479254e-01,3.658918376848472875e-01,-2.236097973673430328e+00,1.583497711370785987e-01,1.568251359781401622e+00,1.154770291157519280e+00
2.733333333333333393e+00,2.329766400325858008e-03,3.058698177337646484e-01,1.791688054800033569e-01,4.778134524822235107e-01,5.113782385008576459e-02,-6.522022828589963961e-01,3.614356612069684616e-01,-2.238963099901016385e+00,1.573128312483786650e-01,1.568360289104209881e+00,1.158711423471291413e+00
2.750000000000000000e+00,1.185218287463394270e-03,3.063215017318725586e-01,1.794165372848510742e-01,4.755704700946807861e-01,5.725513947501385814e-02,-6.466490365825002806e-01,3.577586202126049053e-01,-2.241175993754354945e+00,1.559779836701672973e-01,1.570119492446298448e+00,1.163564920668288538e+00
2.766666666666666607e+00,1.750193521382400075e-03,3.059940338134765625e-01,1.794930547475814819e-01,4.748100042343139648e-01,6.340233815638569859e-02,-6.458356258064626987e-01,3.536140949837139336e-01,-2.243372822744657658e+00,1.549266528437444612e-01,1.571175562673532422e+00,1.166776338284724490e+00
2.783333333333333215e+00,2.211740905538498152e-03,3.054789602756500244e-01,1.796477138996124268e-01,4.736832678318023682e-01,6.971520721033283574e-02,-6.445072365412469750e-01,3.495196132906830955e-01,-2.245852383835614141e+00,1.543859803187046242e-01,1.571469949493047746e+00,1.169956338412058594e+00
2.799999999999999822e+00,2.529890282154260810e-03,3.050537109375000000e-01,1.799449175596237183e-01,4.721209406852722168e-01,7.577268076180346257e-02,-6.418037458123116989e-01,3.462166202432764850e-01,-2.248099561492372445e+00,1.535370748359194126e-01,1.571397747142448731e+00,1.173916727029549412e+00
2.816666666666666430e+00,2.007954897124668552e-03,3.054169714450836182e-01,1.796053498983383179e-01,4.704280495643615723e-01,8.125877005488581217e-02,-6.370802348428151740e-01,3.415874314418427260e-01,-2.249534843726830324e+00,1.517292667159015063e-01,1.571575847596790698e+00,1.178000848110337007e+00
2.833333333333333481e+00,1.387657157556575899e-03,3.065263926982879639e-01,1.795100420713424683e-01,4.691218733787536621e-01,8.671032648159633649e-02,-6.308139809683694921e-01,3.368496138622277813e-01,-2.249245250639666516e+00,1.494748316257440701e-01,1.573144379977844398e+00,1.182695369284965103e+00
2.850000000000000089e+00,1.396773291112051590e-03,3.069206178188323975e-01,1.782237589359283447e-01,4.662544429302215576e-01,9.230980404683179763e-02,-6.262048288126157436e-01,3.309382482322074659e-01,-2.253691365572363825e+00,1.465614735554033043e-01,1.574169963072014067e+00,1.187330311337291056e+00
2.866666666666666696e+00,1.570813327650633518e-03,3.068770170211791992e-01,1.776452958583831787e-01,4.649239182472229004e-01,9.816880976988885676e-02,-6.246950372450105204e-01,3.257656784364617031e-01,-2.256790718440362387e+00,1.446740706517336272e-01,1.575463549381961981e+00,1.191888141765076181e+00
2.883333333333333304e+00,2.247676942844674397e-03,3.067344427108764648e-01,1.768430769443511963e-01,4.631994068622589111e-01,1.038552340420636488e-01,-6.223462506858764565e-01,3.203905142131173722e-01,-2.259981660687030214e+00,1.427292999100187865e-01,1.575493684882135259e+00,1.196218249511918685e+00
2.899999999999999911e+00,2.337357520009433060e-03,3.061913549900054932e-01,1.762415319681167603e-01,4.622200429439544678e-01,1.095902510318301909e-01,-6.224125018809918419e-01,3.150783068539163012e-01,-2.263209560801217712e+00,1.417548704249778357e-01,1.575576278496217952e+00,1.200301634048429600e+00
2.916666666666666519e+00,2.443025776082244187e-03,3.057960569858551025e-01,1.761647015810012817e-01,4.610823988914489746e-01,1.157678767512349133e-01,-6.212593946661285615e-01,3.105391441020672882e-01,-2.265838224569987513e+00,1.407421236070642845e-01,1.576186572699508126e+00,1.204486712715649777e+00
2.933333333333333126e+00,2.055747912685202718e-03,3.053658604621887207e-01,1.757521033287048340e-01,4.609837234020233154e-01,1.211536695207027781e-01,-6.219546593852514071e-01,3.056918368799079744e-01,-2.267432867303457833e+00,1.394394611009834306e-01,1.576099016528243579e+00,1.206280702675496919e+00
2.950000000000000178e+00,2.209080623654428432e-03,3.049154281616210938e-01,1.755840629339218140e-01,4.604315757751464844e-01,1.265039994456503836e-01,-6.215863074742479233e-01,3.012122482163336890e-01,-2.269151194207846611e+00,1.388913281602461858e-01,1.575841053064239938e+00,1.208403745082875735e+00
2.966666666666666785e+00,2.935832783572587656e-03,3.042004704475402832e-01,1.749164462089538574e-01,4.595366716384887695e-01,1.320120169971935042e-01,-6.221424978700020869e-01,2.960871748815286364e-01,-2.272358803907994496e+00,1.378306091188143401e-01,1.575291395132148997e+00,1.210181532993027442e+00
2.983333333333333393e+00,2.526203230734025938e-03,3.047451376914978027e-01,1.746772229671478271e-01,4.596293866634368896e-01,1.361776000693412647e-01,-6.198963288526303517e-01,2.918927343613801906e-01,-2.271337476939727207e+00,1.359628481555426038e-01,1.575669341675531410e+00,1.212539465383524639e+00
3.000000000000000000e+00,1.850782193694270076e-03,3.052800297737121582e-01,1.744744330644607544e-01,4.581365585327148438e-01,1.412088249627637959e-01,-6.151731886155448192e-01,2.877215611183061017e-01,-2.272051817046700783e+00,1.337765773568442007e-01,1.576260414891987871e+00,1.216001053638127161e+00
3.016666666666666607e+00,1.596374402989416590e-03,3.057042658329010010e-01,1.742780208587646484e-01,4.574780166149139404e-01,1.461516314061722943e-01,-6.133567351703880233e-01,2.835238029451411235e-01,-2.273222587820294738e+00,1.317379600227576164e-01,1.578347753862624714e+00,1.218685870163759732e+00
3.033333333333333215e+00,1.312664966802090920e-03,3.057846426963806152e-01,1.735443621873855591e-01,4.554933905601501465e-01,1.512756773257267207e-01,-6.100161064034386182e-01,2.785515163794189952e-01,-2.276053814203204517e+00,1.296837575163861667e-01,1.578547644324248322e+00,1.222988292695418755e+00
3.049999999999999822e+00,1.100200607663882283e-03,3.060501217842102051e-01,1.731322258710861206e-01,4.548535645008087158e-01,1.562286279587218607e-01,-6.080546165250612090e-01,2.737066807779598987e-01,-2.276926952286235206e+00,1.279053243477814295e-01,1.579205151965292320e+00,1.226433986480035099e+00
3.066666666666666430e+00,1.727378959670330515e-03,3.057107329368591309e-01,1.719169765710830688e-01,4.532976746559143066e-01,1.611347837627780666e-01,-6.074055123188902838e-01,2.680765197179716952e-01,-2.280780358870005742e+00,1.258477643944252156e-01,1.579028388149041895e+00,1.229957069114747670e+00
3.083333333333333481e+00,1.188147535430018756e-03,3.060489296913146973e-01,1.718670725822448730e-01,4.522759318351745605e-01,1.664974147182653463e-01,-6.043741120445278447e-01,2.635541386928496044e-01,-2.281695446048397802e+00,1.244223514705396078e-01,1.580180466061974931e+00,1.233716489459900423e+00
3.100000000000000089e+00,1.510150274118673757e-03,3.059430122375488281e-01,1.710580438375473022e-01,4.509914815425872803e-01,1.714640950739005909e-01,-6.034988659739238814e-01,2.583889787273287442e-01,-2.284814613093380409e+00,1.225871285975466546e-01,1.581019703016558031e+00,1.237033556994936223e+00
3.116666666666666696e+00,1.089591952149271317e-03,3.062235713005065918e-01,1.711005270481109619e-01,4.498358666896820068e-01,1.768073113552225961e-01,-6.007059004973626104e-01,2.544789284840857646e-01,-2.286142560658305456e+00,1.207316922426652783e-01,1.582627617888320959e+00,1.241198139151314050e+00
3.133333333333333304e+00,7.836222693204216360e-04,3.064777553081512451e-01,1.705967187881469727e-01,4.490412473678588867e-01,1.817102697841833092e-01,-5.991742661261972858e-01,2.493793946948115736e-01,-2.287690020555984916e+00,1.191288475411038938e-01,1.583826073287029512e+00,1.243994577365457044e+00
3.149999999999999911e+00,1.076031779668342771e-03,3.059740364551544189e-01,1.703348159790039062e-01,4.483036696910858154e-01,1.867077546440364111e-01,-5.997800725710796810e-01,2.450712849163900475e-01,-2.290480371805717397e+00,1.185830152016575656e-01,1.584498154275511661e+00,1.245898804451541109e+00
3.166666666666666519e+00,1.671663016711892385e-03,3.054199814796447754e-01,1.692913621664047241e-01,4.477932155132293701e-01,1.908474885057869219e-01,-6.012438291210725483e-01,2.399264110784198323e-01,-2.293330523207275373e+00,1.173972903032454024e-01,1.583873034579340811e+00,1.247535039824212877e+00
3.183333333333333126e+00,1.999161284107400967e-03,3.050813674926757812e-01,1.686565130949020386e-01,4.467894434928894043e-01,1.952102102282690099e-01,-6.006467457986366387e-01,2.354504682448005093e-01,-2.295685238020138907e+00,1.161983818236680122e-01,1.583482561094195828e+00,1.250745791502154924e+00
3.200000000000000178e+00,3.024445410587270518e-03,3.040285706520080566e-01,1.689563989639282227e-01,4.457180500030517578e-01,1.998886042914947703e-01,-6.012571757148222895e-01,2.335883009949639155e-01,-2.298742613112178645e+00,1.156155387528856743e-01,1.583227713986349316e+00,1.253221224169777104e+00
3.216666666666666785e+00,2.826420982134621087e-03,3.043469786643981934e-01,1.687903553247451782e-01,4.448689222335815430e-01,2.040206671593990384e-01,-5.987823344733752551e-01,2.297716402835496829e-01,-2.299425026221910251e+00,1.142759241364717654e-01,1.584030939716224662e+00,1.256585154068720511e+00
3.233333333333333393e+00,2.861182057606047845e-03,3.044326305389404297e-01,1.684249937534332275e-01,4.441604614257812500e-01,2.080525686529895169e-01,-5.978273407093877001e-01,2.257089134575422651e-01,-2.300955757592481277e+00,1.131254607239926130e-01,1.584968370043403629e+00,1.259101255598612967e+00
3.250000000000000000e+00,2.507570995899523203e-03,3.051147162914276123e-01,1.681240051984786987e-01,4.435206353664398193e-01,2.116215511201632871e-01,-5.953202699556676691e-01,2.217116501964454811e-01,-2.301252570278243592e+00,1.116333545368376479e-01,1.586588275461350284e+00,1.262143164276598339e+00
3.266666666666666607e+00,2.288492728655668832e-03,3.054770231246948242e-01,1.675338149070739746e-01,4.421872496604919434e-01,2.154786202560936004e-01,-5.930377109181261819e-01,2.174531789563252659e-01,-2.303257000409790756e+00,1.098255283431837370e-01,1.588022810163785437e+00,1.265050264598472918e+00
3.283333333333333215e+00,1.752332472582561083e-03,3.061704933643341064e-01,1.666387319564819336e-01,4.417823553085327148e-01,2.183002241355030959e-01,-5.910989106607017485e-01,2.128137029126339064e-01,-2.303361936177897640e+00,1.078561664505573864e-01,1.588595590590761608e+00,1.267397490978762864e+00
3.299999999999999822e+00,1.250381123643489172e-03,3.063103854656219482e-01,1.650978773832321167e-01,4.414251148700714111e-01,2.204992054126772016e-01,-5.908662313821951839e-01,2.076536181574537565e-01,-2.304435203002662913e+00,1.060068028731380313e-01,1.587291413201889378e+00,1.268579312542588378e+00
3.316666666666666430e+00,8.495574527360340170e-04,3.063614666461944580e-01,1.631407588720321655e-01,4.397920668125152588e-01,2.223987287008074021e-01,-5.891021711729367283e-01,2.022968843798574057e-01,-2.307179326327031266e+00,1.038115077104588557e-01,1.585629303845674576e+00,1.271624880079464948e+00
3.333333333333333481e+00,1.403563108013644502e-03,3.062954246997833252e-01,1.620261967182159424e-01,4.382778704166412354e-01,2.257239904627060811e-01,-5.877049388739816749e-01,1.974947299450035831e-01,-2.310055811097633249e+00,1.022500225049630118e-01,1.585515687398463047e+00,1.275686004599109413e+00
3.350000000000000089e+00,1.397588873665273545e-03,3.060573041439056396e-01,1.620584726333618164e-01,4.373193383216857910e-01,2.295570506578927528e-01,-5.872651787436197202e-01,1.942766652110038961e-01,-2.312392168490204014e+00,1.024007287262802823e-01,1.586803610550534760e+00,1.279274707179002712e+00
3.366666666666666696e+00,2.141299838483354517e-03,3.054705262184143066e-01,1.610736548900604248e-01,4.361396431922912598e-01,2.334718953574053402e-01,-5.883768170844613232e-01,1.892103563809780786e-01,-2.316457416024152671e+00,1.018317200848144755e-01,1.587070914531009569e+00,1.282716315818132058e+00
3.383333333333333304e+00,1.880535758906260986e-03,3.057270646095275879e-01,1.600992381572723389e-01,4.355820417404174805e-01,2.361860141604135710e-01,-5.875190282122039198e-01,1.844668850973849861e-01,-2.317576781688929888e+00,1.006821757192493672e-01,1.587132290201744622e+00,1.286524976825609956e+00
3.399999999999999911e+00,2.036326421433590477e-03,3.057064712047576904e-01,1.606364399194717407e-01,4.349111318588256836e-01,2.400335404239311854e-01,-5.858885983320252233e-01,1.829032659904353542e-01,-2.318153146277965870e+00,9.959969562567819179e-02,1.588195719467322409e+00,1.289561329246178722e+00
3.416666666666666519e+00,1.597350434471185143e-03,3.067809939384460449e-01,1.598013043403625488e-01,4.342048764228820801e-01,2.426060143078647424e-01,-5.824581709464825563e-01,1.786221749228528721e-01,-2.317735917433395798e+00,9.691978846413293325e-02,1.589352123598785749e+00,1.293059964347688773e+00
3.433333333333333126e+00,2.188957373017917825e-03,3.065938949584960938e-01,1.573828011751174927e-01,4.327867925167083740e-01,2.441686501367742179e-01,-5.830091906145148384e-01,1.724100029792680899e-01,-2.321824183865464519e+00,9.494519651141422600e-02,1.588260665854704490e+00,1.296328882893277967e+00
3.449999999999999734e+00,2.292242018503520221e-03,3.057142496109008789e-01,1.561200618743896484e-01,4.326244294643402100e-01,2.462656770209664392e-01,-5.861095972849122981e-01,1.681682169852870556e-01,-2.324725432605435849e+00,9.474984335134853386e-02,1.586505980791309334e+00,1.299217136272220241e+00
3.466666666666666785e+00,2.713418422873450659e-03,3.046619892120361328e-01,1.555059552192687988e-01,4.324748814105987549e-01,2.480765169525101232e-01,-5.880151816727748892e-01,1.658219887463972808e-01,-2.326362489456561988e+00,9.491343262190682362e-02,1.583526614976976221e+00,1.300241780830187155e+00
3.483333333333333393e+00,3.824316663731647248e-03,3.034422099590301514e-01,1.547721773386001587e-01,4.317661523818969727e-01,2.500077983637345458e-01,-5.902340411304084489e-01,1.637877585221648447e-01,-2.329552832500047632e+00,9.444093082803368955e-02,1.581282198043320930e+00,1.301538977106438733e+00
3.500000000000000000e+00,4.756666871823997216e-03,3.024165332317352295e-01,1.538036614656448364e-01,4.313943684101104736e-01,2.520450655727508593e-01,-5.931093335616735018e-01,1.606063520595936434e-01,-2.332641451554407386e+00,9.418340529907076597e-02,1.579564001393022554e+00,1.303442458363762935e+00
3.516666666666666607e+00,5.484714247642680576e-03,3.018213212490081787e-01,1.524468958377838135e-01,4.304661750793457031e-01,2.533867425190894918e-01,-5.943646072823982607e-01,1.565130475395992149e-01,-2.335905073399066723e+00,9.412173582020921803e-02,1.578280875928603999e+00,1.307381473818705286e+00
3.533333333333333215e+00,4.135733668942443049e-03,3.030750155448913574e-01,1.515204310417175293e-01,4.319516718387603760e-01,2.519990354425345469e-01,-5.938923685909227590e-01,1.533986494571973613e-01,-2.332457650861887721e+00,9.438091912166629571e-02,1.578113652383315468e+00,1.308738459273136812e+00
3.549999999999999822e+00,4.125265196943230309e-03,3.033894300460815430e-01,1.498894691467285156e-01,4.317118525505065918e-01,2.507930372523128892e-01,-5.932665754192869567e-01,1.505198602866937296e-01,-2.332560884547398850e+00,9.316103268883342559e-02,1.576206823699838333e+00,1.308653341397718606e+00
3.566666666666666430e+00,3.641315892137888307e-03,3.042162656784057617e-01,1.502477675676345825e-01,4.325898885726928711e-01,2.493302078580725556e-01,-5.915648356057907620e-01,1.517560740921245765e-01,-2.329199657530374168e+00,9.318739920247942621e-02,1.576271259615448450e+00,1.308317688568040538e+00
3.583333333333333481e+00,3.801556708562392126e-03,3.044099807739257812e-01,1.490419954061508179e-01,4.325265884399414062e-01,2.469819471480262651e-01,-5.907374058400022276e-01,1.508357729972926164e-01,-2.328508278152282340e+00,9.263890521796008803e-02,1.573747136959649406e+00,1.305774969445451683e+00
3.600000000000000089e+00,4.087637362951219294e-03,3.058631718158721924e-01,1.479889005422592163e-01,4.332478940486907959e-01,2.435691786528713654e-01,-5.872244189413012849e-01,1.496912530287121679e-01,-2.324132439470210088e+00,9.219871287619239852e-02,1.571984073641878643e+00,1.305673023852923054e+00
3.616666666666666696e+00,2.612994748934665146e-03,3.054346144199371338e-01,1.469782590866088867e-01,4.309327304363250732e-01,2.432696374842655274e-01,-5.844457060446316410e-01,1.488245646193789851e-01,-2.327142148894359330e+00,9.097285870043275713e-02,1.570075052248936398e+00,1.305281687886302944e+00
3.633333333333333304e+00,3.111708319811892168e-03,3.039261400699615479e-01,1.462571322917938232e-01,4.286449849605560303e-01,2.445406915587424457e-01,-5.847767639031652420e-01,1.480293760280247395e-01,-2.332417206904393137e+00,9.042624528258935701e-02,1.567850808895426606e+00,1.306735940430598930e+00
3.649999999999999911e+00,3.858543423564138927e-03,3.031897544860839844e-01,1.450739502906799316e-01,4.282898008823394775e-01,2.436974383114124398e-01,-5.857863890857537559e-01,1.462789045110474695e-01,-2.333761914229681711e+00,9.064374560872427711e-02,1.564366021703793352e+00,1.308566410760590326e+00
3.666666666666666519e+00,4.841011333601735744e-03,3.023148477077484131e-01,1.435128450393676758e-01,4.271846711635589600e-01,2.435322498049661832e-01,-5.863974270123336607e-01,1.437908463516970048e-01,-2.336599841276423728e+00,8.975075339944688091e-02,1.561012435526759612e+00,1.310409834514672855e+00
3.683333333333333126e+00,5.493642330295066441e-03,3.016076982021331787e-01,1.435372978448867798e-01,4.265502095222473145e-01,2.444518597420073380e-01,-5.865695011617323429e-01,1.440182855639926263e-01,-2.338022033977673608e+00,8.944679996514331988e-02,1.559665575765028622e+00,1.311545994780041191e+00
3.699999999999999734e+00,5.646895042817571403e-03,3.016526401042938232e-01,1.426473408937454224e-01,4.254519045352935791e-01,2.445123017358092898e-01,-5.851051749430291604e-01,1.423699683839679542e-01,-2.339525680515137651e+00,8.822443063787571704e-02,1.559187990847709537e+00,1.313743871976297495e+00
3.716666666666666785e+00,5.657947981834174703e-03,3.018638491630554199e-01,1.411293298006057739e-01,4.245524406433105469e-01,2.438747283020359646e-01,-5.838623703227010520e-01,1.394962588800820746e-01,-2.340781253733768885e+00,8.686658485212844782e-02,1.558126621794535982e+00,1.316083065729532153e+00
3.733333333333333393e+00,7.656934982282395837e-03,3.007096350193023682e-01,1.401688605546951294e-01,4.222818315029144287e-01,2.453888754013978657e-01,-5.835116934043698134e-01,1.375514241912633162e-01,-2.345742895681845575e+00,8.593831031817199262e-02,1.556533252781951315e+00,1.318045051777892773e+00
3.750000000000000000e+00,7.641297407318751664e-03,3.008726835250854492e-01,1.390860527753829956e-01,4.218404293060302734e-01,2.453324549058247539e-01,-5.824284987538914660e-01,1.351492457130437363e-01,-2.346004407380497092e+00,8.472782091776609459e-02,1.555201895967082804e+00,1.320471797825953253e+00
3.766666666666666607e+00,6.003616061978861961e-03,3.027009069919586182e-01,1.374696046113967896e-01,4.219988286495208740e-01,2.436315500796019384e-01,-5.781372122770155331e-01,1.317356960069094585e-01,-2.342635056351147771e+00,8.217743279781773713e-02,1.554969487742921652e+00,1.322900412081654320e+00
3.783333333333333215e+00,3.817930944353002242e-03,3.045625090599060059e-01,1.365063339471817017e-01,4.230440855026245117e-01,2.416058177775155802e-01,-5.748972570512136393e-01,1.296686217390110585e-01,-2.337928544332754655e+00,8.072192258335184056e-02,1.555062087974054874e+00,1.321734871299159897e+00
3.799999999999999822e+00,2.916161260778798309e-03,3.055205643177032471e-01,1.357164829969406128e-01,4.233108758926391602e-01,2.392462722494523297e-01,-5.723184927847552173e-01,1.291974608517384160e-01,-2.335285625560737266e+00,7.983949638616572031e-02,1.554001773894712946e+00,1.319832183746710186e+00
3.816666666666666430e+00,1.715864367453694096e-03,3.065596818923950195e-01,1.347655355930328369e-01,4.240851998329162598e-01,2.363607186680677652e-01,-5.700903906350758277e-01,1.286082079730893335e-01,-2.331669753165570125e+00,7.897735298018065953e-02,1.552185408687603019e+00,1.318620486014575821e+00
3.833333333333333481e+00,8.681355677035218011e-04,3.070559501647949219e-01,1.328103542327880859e-01,4.246840178966522217e-01,2.328755658272513851e-01,-5.694021888946757537e-01,1.262128231391559385e-01,-2.329592071901356753e+00,7.840461466134696078e-02,1.548567746860133543e+00,1.318081518314502931e+00
3.850000000000000089e+00,2.375607548032575116e-03,3.072216808795928955e-01,1.297311037778854370e-01,4.242797493934631348e-01,2.291213958288565167e-01,-5.688339984806759508e-01,1.222757949256503135e-01,-2.329972487580244778e+00,7.647967854514794994e-02,1.544313971843321420e+00,1.319393967771743670e+00
3.866666666666666696e+00,2.316126051011072485e-03,3.071232438087463379e-01,1.282735913991928101e-01,4.250621795654296875e-01,2.259454870701321227e-01,-5.696716981199921870e-01,1.210830164940903675e-01,-2.328518806855237600e+00,7.665607462993576093e-02,1.540357201781139551e+00,1.318988508405886551e+00
3.883333333333333304e+00,3.111771163002179184e-03,3.063581883907318115e-01,1.264359802007675171e-01,4.243486523628234863e-01,2.239241667965629068e-01,-5.703023358519894170e-01,1.192127109682601382e-01,-2.330420642240128348e+00,7.582050375969735800e-02,1.536334862158056147e+00,1.319239670334940495e+00
3.899999999999999911e+00,2.794573474235834045e-03,3.046240806579589844e-01,1.270882338285446167e-01,4.242173433303833008e-01,2.250547256002549956e-01,-5.729280860689796029e-01,1.213303661185588384e-01,-2.332287443299158713e+00,7.639801586974134806e-02,1.533084650100795754e+00,1.318591145066055681e+00
3.916666666666666519e+00,4.777129641655038748e-03,3.030094802379608154e-01,1.265541464090347290e-01,4.226861894130706787e-01,2.255035883095485860e-01,-5.736195852656474914e-01,1.214540504332538018e-01,-2.336071000707951484e+00,7.599582929377105001e-02,1.529565139460513201e+00,1.319488913801068808e+00
3.933333333333333126e+00,4.934442082832155886e-03,3.025166392326354980e-01,1.261794120073318481e-01,4.233886599540710449e-01,2.241896074310190945e-01,-5.750820975139340208e-01,1.219327745538690000e-01,-2.335257070255690515e+00,7.614327287274201550e-02,1.526663345462379251e+00,1.318760632018094459e+00
3.949999999999999734e+00,4.756664081764547247e-03,3.029495775699615479e-01,1.242165341973304749e-01,4.228756129741668701e-01,2.216591719969938645e-01,-5.730472731266316178e-01,1.193525386576097802e-01,-2.334887491867528198e+00,7.457503293732971328e-02,1.524170950131983338e+00,1.319189755207510695e+00
3.966666666666666785e+00,2.928739433512580516e-03,3.042738437652587891e-01,1.230314821004867554e-01,4.243954718112945557e-01,2.185245319593992763e-01,-5.715217974658622913e-01,1.174910804574234024e-01,-2.330162638734020408e+00,7.441397818440530221e-02,1.522494774072839396e+00,1.318241536981907602e+00
3.983333333333333393e+00,2.057912192217523865e-03,3.051283359527587891e-01,1.214456260204315186e-01,4.247001111507415771e-01,2.152724283700065411e-01,-5.692500113629410663e-01,1.157231624333896203e-01,-2.327651304714808855e+00,7.354338832057523423e-02,1.520176295018596635e+00,1.317593373715536975e+00
4.000000000000000000e+00,1.036086640797759337e-03,3.059989213943481445e-01,1.204044967889785767e-01,4.255277216434478760e-01,2.126089988846773804e-01,-5.672439460923295318e-01,1.148163240969940768e-01,-2.324055516960833678e+00,7.273788000491782091e-02,1.517866121996749973e+00,1.316493489805329764e+00
4.016666666666666607e+00,1.272826601621141482e-03,3.063586652278900146e-01,1.197327896952629089e-01,4.264627099037170410e-01,2.104112775027876525e-01,-5.667559076434302012e-01,1.145118490349387591e-01,-2.321314632789931220e+00,7.271722099263512595e-02,1.515431771353631607e+00,1.314496248472502904e+00
4.033333333333333215e+00,1.333538160001985617e-03,3.066450953483581543e-01,1.179214417934417725e-01,4.271460175514221191e-01,2.075978730139870776e-01,-5.666974053516617982e-01,1.122734022008675114e-01,-2.319544825011091493e+00,7.172149594496188274e-02,1.512146937943237512e+00,1.314247817081540592e+00
4.049999999999999822e+00,1.135861037388356028e-03,3.063013553619384766e-01,1.156476438045501709e-01,4.268123507499694824e-01,2.050861161585308401e-01,-5.666822374854445510e-01,1.094482453277239725e-01,-2.320158817938188012e+00,7.022422337638083156e-02,1.507943099902895101e+00,1.314478165633945927e+00
4.066666666666666430e+00,1.335370352121211749e-03,3.061011433601379395e-01,1.138596609234809875e-01,4.260776340961456299e-01,2.036501618989535745e-01,-5.652504999925498375e-01,1.069094349080465245e-01,-2.320684914196272874e+00,6.864298706328363087e-02,1.504468858287761224e+00,1.314095894149130972e+00
4.083333333333333037e+00,1.658196457530157226e-03,3.057232499122619629e-01,1.129549443721771240e-01,4.256272912025451660e-01,2.027606497955327380e-01,-5.645430128387689539e-01,1.062512431474861990e-01,-2.321035770951444199e+00,6.750204455502703538e-02,1.501673510963177138e+00,1.313263200210760928e+00
4.099999999999999645e+00,9.402824373068291702e-04,3.062323629856109619e-01,1.121161952614784241e-01,4.263156354427337646e-01,2.010205123400716221e-01,-5.629970828197268240e-01,1.052997531301528289e-01,-2.318099348560877626e+00,6.685891129445947767e-02,1.499124169909889170e+00,1.313324023588974931e+00
4.116666666666666252e+00,3.032543983432278278e-03,3.046332299709320068e-01,1.107551679015159607e-01,4.252357482910156250e-01,2.007793285758681656e-01,-5.653106051162083423e-01,1.037472617630042226e-01,-2.322247109751248040e+00,6.594171020255180926e-02,1.495495195276129952e+00,1.311295833872813343e+00
4.133333333333332860e+00,4.264774081852496825e-03,3.036847114562988281e-01,1.092023029923439026e-01,4.247471392154693604e-01,1.998650194621650888e-01,-5.666522906653999048e-01,1.015242519363437762e-01,-2.324305652468001693e+00,6.509538565337820437e-02,1.491896102351895737e+00,1.311357054496169905e+00
4.150000000000000355e+00,4.252810737124157817e-03,3.035473525524139404e-01,1.072264164686203003e-01,4.253295958042144775e-01,1.978719814888308948e-01,-5.670790874221641742e-01,9.830365734382692788e-02,-2.323139466461396463e+00,6.405478647879263299e-02,1.487623993733419914e+00,1.311608857365428982e+00
4.166666666666666963e+00,4.186780871514678322e-03,3.036482036113739014e-01,1.068455129861831665e-01,4.256692528724670410e-01,1.974443478325886292e-01,-5.658155247146949840e-01,9.780180585956221861e-02,-2.321236724025901310e+00,6.343637969400436893e-02,1.485202156783368199e+00,1.309948705903648092e+00
4.183333333333333570e+00,2.640002743837120604e-03,3.046936988830566406e-01,1.052142530679702759e-01,4.272757470607757568e-01,1.945089458737884469e-01,-5.651393103352220226e-01,9.524517578461334788e-02,-2.316884917084644169e+00,6.258770288913136082e-02,1.482872285657588440e+00,1.310543195208562439e+00
4.200000000000000178e+00,1.212508854579419544e-03,3.060322403907775879e-01,1.039507612586021423e-01,4.284898936748504639e-01,1.918683994349211774e-01,-5.625272701194243830e-01,9.337803563318339273e-02,-2.311982720290336246e+00,6.161444658721756951e-02,1.481012330846247060e+00,1.310057756883594049e+00
4.216666666666666785e+00,6.665378752932640078e-04,3.065446615219116211e-01,1.022679582238197327e-01,4.295273423194885254e-01,1.893890998710154594e-01,-5.621737699735867011e-01,9.098686192563990027e-02,-2.309175496700645258e+00,6.048682421992016001e-02,1.478121074078406982e+00,1.309058761410523353e+00
4.233333333333333393e+00,1.826249037079454365e-03,3.057090938091278076e-01,1.015481278300285339e-01,4.292102754116058350e-01,1.895560622054793531e-01,-5.627109710177414792e-01,8.983337802679045025e-02,-2.310185102509298538e+00,5.981409247385909705e-02,1.474892242619596061e+00,1.307210278078656529e+00
4.250000000000000000e+00,2.978204381190568614e-03,3.046689927577972412e-01,9.881512075662612915e-02,4.283578097820281982e-01,1.874223294135049511e-01,-5.646104342203446258e-01,8.574905557251490118e-02,-2.313627241939873347e+00,5.833330536017948542e-02,1.471067471003400184e+00,1.307063773731096390e+00
4.266666666666666607e+00,2.496782231893107488e-03,3.048073649406433105e-01,9.670043736696243286e-02,4.297312200069427490e-01,1.848533992736809406e-01,-5.657190979409418841e-01,8.225189003617543182e-02,-2.311106121762571242e+00,5.741551971372689522e-02,1.467042680620799677e+00,1.307877058619826505e+00
4.283333333333333215e+00,2.031069035357352393e-03,3.051129281520843506e-01,9.649362415075302124e-02,4.308910667896270752e-01,1.845706261511628199e-01,-5.648373878341691467e-01,8.176596206130198885e-02,-2.307515993404928967e+00,5.697340222264195286e-02,1.464340100565590275e+00,1.305684962691084472e+00
4.299999999999999822e+00,1.692753766136205875e-03,3.053269088268280029e-01,9.433195739984512329e-02,4.317287504673004150e-01,1.824410215320192430e-01,-5.658359650242362759e-01,7.793287983577772138e-02,-2.306296019861207913e+00,5.576256369334453566e-02,1.461868778404548985e+00,1.305069484259639534e+00
4.316666666666666430e+00,2.240813954694687374e-03,3.049487173557281494e-01,9.302964061498641968e-02,4.314403533935546875e-01,1.818327028444164106e-01,-5.653983733930305622e-01,7.571317074255946855e-02,-2.306562377277418197e+00,5.457274470063179506e-02,1.458791347549511119e+00,1.304193531186858879e+00
4.333333333333333037e+00,2.857498374556011189e-03,3.044185936450958252e-01,9.197682142257690430e-02,4.319065511226654053e-01,1.815916411662463203e-01,-5.666713447086797473e-01,7.356074066604892381e-02,-2.306315728743701055e+00,5.391701883509119470e-02,1.455633039925032568e+00,1.303068481184356697e+00
4.349999999999999645e+00,3.210048691237886009e-03,3.048205077648162842e-01,9.198676049709320068e-02,4.338532090187072754e-01,1.814852642987326292e-01,-5.672016755278174172e-01,7.296945187652956188e-02,-2.301953759330078952e+00,5.417443862284715417e-02,1.453523525926785354e+00,1.301411784679127548e+00
4.366666666666666252e+00,5.072038995701739009e-03,3.046354353427886963e-01,9.251181781291961670e-02,4.349213242530822754e-01,1.826040259940959753e-01,-5.671046045821844794e-01,7.332942235507150519e-02,-2.299137857521249551e+00,5.431106539395714333e-02,1.450761464127777289e+00,1.299503054949393333e+00
4.383333333333332860e+00,5.901400522319097050e-03,3.036045432090759277e-01,9.135136753320693970e-02,4.349824488162994385e-01,1.830584404137524934e-01,-5.695403642466508876e-01,7.108310662201455798e-02,-2.300738370356993912e+00,5.298019773745116928e-02,1.447641246516704117e+00,1.297552957980563804e+00
4.400000000000000355e+00,5.436857235612940417e-03,3.040675818920135498e-01,8.953072875738143921e-02,4.352710843086242676e-01,1.816282284795088242e-01,-5.678495009177990660e-01,6.807505039994302121e-02,-2.298720130505137682e+00,5.078603093037486332e-02,1.444905210444118904e+00,1.298646089279662519e+00
4.416666666666666963e+00,3.825091631525464816e-03,3.039243221282958984e-01,8.531378954648971558e-02,4.348730444908142090e-01,1.780709399018671479e-01,-5.686847783666602041e-01,6.108015655208583888e-02,-2.300370791025040607e+00,4.768804758165205021e-02,1.441402068817636994e+00,1.299976173557790604e+00
4.433333333333333570e+00,3.806043567504878433e-03,3.042161762714385986e-01,8.268716931343078613e-02,4.342963099479675293e-01,1.765094271057938979e-01,-5.664956882166573005e-01,5.647758003749600575e-02,-2.300099574604153929e+00,4.472443696610792219e-02,1.438595236664293564e+00,1.300066887819014472e+00
4.450000000000000178e+00,4.299472370275671598e-03,3.046160638332366943e-01,7.953219115734100342e-02,4.339100420475006104e-01,1.743208030409013620e-01,-5.648207814050499875e-01,5.105835352043155972e-02,-2.299786103331884046e+00,4.136782226229637066e-02,1.435962657301635526e+00,1.300938458997487723e+00
4.466666666666666785e+00,2.493173628829207459e-03,3.057798147201538086e-01,7.896629720926284790e-02,4.360283613204956055e-01,1.733070098299936690e-01,-5.642395027967749277e-01,4.958849345667327296e-02,-2.294222202968742685e+00,4.103878002856641005e-02,1.434958818215901655e+00,1.299359221769749162e+00
4.483333333333333393e+00,1.472621417380065752e-03,3.070311248302459717e-01,7.700552791357040405e-02,4.374331235885620117e-01,1.708845425615172497e-01,-5.622977470487672269e-01,4.659148643142383556e-02,-2.289327479859051717e+00,3.880339518284992018e-02,1.432970802901097684e+00,1.300127451787798538e+00
4.500000000000000000e+00,1.361041485703829703e-03,3.071678578853607178e-01,7.546004652976989746e-02,4.383314251899719238e-01,1.696059668935065434e-01,-5.624839843111671955e-01,4.376570985258108198e-02,-2.287227513643726340e+00,3.768495639618399395e-02,1.430201191024732532e+00,1.299627341852673146e+00
4.516666666666666607e+00,6.453958283456738424e-04,3.071472942829132080e-01,7.302787154912948608e-02,4.404139816761016846e-01,1.673266414016374715e-01,-5.656226448852041955e-01,3.908063827059827383e-02,-2.284527313847473540e+00,3.686036041027971472e-02,1.426757602191115470e+00,1.298661029102727849e+00
4.533333333333333215e+00,2.640092224907036487e-04,3.070980310440063477e-01,7.205733656883239746e-02,4.415186941623687744e-01,1.668095002696867724e-01,-5.653026969847496641e-01,3.699458200296280169e-02,-2.281448835224343608e+00,3.625979532903188945e-02,1.422736078321190867e+00,1.297429685289859247e+00
4.549999999999999822e+00,2.948774549947270375e-04,3.068646788597106934e-01,7.015991955995559692e-02,4.419428408145904541e-01,1.656958410430511841e-01,-5.655719382875387113e-01,3.349763617204112864e-02,-2.280514805480344354e+00,3.471166299873858913e-02,1.419274769811857073e+00,1.297386244605596373e+00
4.566666666666666430e+00,1.030832515890829594e-03,3.064945340156555176e-01,6.874056160449981689e-02,4.420509934425354004e-01,1.654109402746030133e-01,-5.659257032776009444e-01,3.061754608829057520e-02,-2.280428698587642078e+00,3.333847941829921890e-02,1.416501972093757722e+00,1.297049895166527911e+00
4.583333333333333037e+00,1.231934824410530361e-03,3.066113889217376709e-01,6.811369210481643677e-02,4.433709383010864258e-01,1.654021904153147593e-01,-5.659554895152917320e-01,2.900817312951801952e-02,-2.277134531198685696e+00,3.271151428813377088e-02,1.413557531339068252e+00,1.296744926037496803e+00
4.599999999999999645e+00,1.740143758417244790e-03,3.061494529247283936e-01,6.611697375774383545e-02,4.433694481849670410e-01,1.642125838489039424e-01,-5.662959720009890230e-01,2.532795153287851347e-02,-2.277278750204966951e+00,3.129754073849869839e-02,1.410095283707892388e+00,1.296709970269491308e+00
4.616666666666666252e+00,7.683688538590250023e-04,3.065567612648010254e-01,6.367675960063934326e-02,4.449496269226074219e-01,1.621846892061732659e-01,-5.668477620258851601e-01,2.072648115616945383e-02,-2.273776847306564708e+00,2.963142522706175772e-02,1.406936353542468598e+00,1.296259276893201973e+00
4.633333333333332860e+00,7.872236149536882130e-04,3.065789639949798584e-01,6.263102591037750244e-02,4.463450610637664795e-01,1.621606604649296068e-01,-5.674760062177358622e-01,1.818117724158473114e-02,-2.270746152457942202e+00,2.865635684303435501e-02,1.403842920846918085e+00,1.294912576058942832e+00
4.650000000000000355e+00,1.198028185509194448e-03,3.059863448143005371e-01,6.057203561067581177e-02,4.468526542186737061e-01,1.610723899005045978e-01,-5.693201817644123475e-01,1.405397564309009660e-02,-2.270791056709769773e+00,2.752833120485796356e-02,1.400548155091525304e+00,1.294430993271300512e+00
4.666666666666666963e+00,1.027347894842023683e-03,3.069604635238647461e-01,5.953929200768470764e-02,4.479223787784576416e-01,1.614279989490786382e-01,-5.670355075690445279e-01,1.179101135340651120e-02,-2.266395921649460465e+00,2.497247642842829671e-02,1.399024499139986721e+00,1.294843861236040672e+00
4.683333333333333570e+00,1.029575069635589634e-03,3.073604702949523926e-01,5.784207955002784729e-02,4.490725398063659668e-01,1.603901707159346712e-01,-5.668816120796806857e-01,8.708845689965244441e-03,-2.263392255702155520e+00,2.309276543849384661e-02,1.396768491901839271e+00,1.294877070492445270e+00
4.700000000000000178e+00,2.754086254172720839e-03,3.072591125965118408e-01,5.784006789326667786e-02,4.509378075599670410e-01,1.614876459395405417e-01,-5.689781774981160778e-01,7.449330154393750056e-03,-2.260378136260600357e+00,2.342277291066970774e-02,1.394849856422568868e+00,1.292711987831902443e+00
4.716666666666666785e+00,2.812981405943638935e-03,3.064692616462707520e-01,5.621550977230072021e-02,4.514746069908142090e-01,1.611509022735496399e-01,-5.708581252082415292e-01,3.870301960972558509e-03,-2.260323100354000303e+00,2.251731774849721757e-02,1.391117657706284483e+00,1.292822759117299158e+00
4.733333333333333393e+00,3.631585601140552809e-03,3.069650232791900635e-01,5.525201186537742615e-02,4.531737267971038818e-01,1.612586618342787270e-01,-5.703840623380203034e-01,1.279947771073494146e-03,-2.255716299686739479e+00,2.151990220464018375e-02,1.388428474101165877e+00,1.292829477815566230e+00
4.750000000000000000e+00,3.885208606699808252e-03,3.066590726375579834e-01,5.381786078214645386e-02,4.539694786071777344e-01,1.611867099419712901e-01,-5.718224883061060471e-01,-1.856963857804576172e-03,-2.254747468680915912e+00,2.009551262739225908e-02,1.386002362904846352e+00,1.292085499636856927e+00
4.766666666666666607e+00,3.239801680474635893e-03,3.074077069759368896e-01,5.148761346936225891e-02,4.545853734016418457e-01,1.594991047311821175e-01,-5.696860076115991545e-01,-5.781286465266477319e-03,-2.251507559417674997e+00,1.739057580515085064e-02,1.383740978681437861e+00,1.293342041101485984e+00
4.783333333333333215e+00,2.430846871828872078e-03,3.073481917381286621e-01,4.890109598636627197e-02,4.547615647315979004e-01,1.578257526760721563e-01,-5.693666745805503471e-01,-1.023848214511970285e-02,-2.250664443537316650e+00,1.486996266690688608e-02,1.380825628309387154e+00,1.293741372817450497e+00
4.799999999999999822e+00,2.338774347321818936e-03,3.068264722824096680e-01,4.698560386896133423e-02,4.554990828037261963e-01,1.571443799973278876e-01,-5.711842947897711742e-01,-1.398368915923016778e-02,-2.250065063887513261e+00,1.318772772268144398e-02,1.377766747251878865e+00,1.293169940523621886e+00
4.816666666666666430e+00,2.988052570999101022e-03,3.057326376438140869e-01,4.488875716924667358e-02,4.554070234298706055e-01,1.569911436719890752e-01,-5.730801866788439725e-01,-1.856158549602785271e-02,-2.251483990053309459e+00,1.149447804361820348e-02,1.373856332237716638e+00,1.292984130868641834e+00
4.833333333333333037e+00,4.068129343179167565e-03,3.054738640785217285e-01,4.473125934600830078e-02,4.568836092948913574e-01,1.581611984225763101e-01,-5.742743586429827074e-01,-2.005803485027735783e-02,-2.248637587496578494e+00,1.158276630878119461e-02,1.370945089364631997e+00,1.291598770561466658e+00
4.849999999999999645e+00,4.364367593394995540e-03,3.048209547996520996e-01,4.293180257081985474e-02,4.578516483306884766e-01,1.577355636654988458e-01,-5.767185873348910086e-01,-2.402278743640303207e-02,-2.247914962098501501e+00,1.043084843653991657e-02,1.367728599008337875e+00,1.291278678283187764e+00
4.866666666666666252e+00,4.736228744204402409e-03,3.045153915882110596e-01,4.160287231206893921e-02,4.593169689178466797e-01,1.579163836414205213e-01,-5.788184363385000530e-01,-2.748654084928816785e-02,-2.245743441755768011e+00,9.612337868062975979e-03,1.364990572104213040e+00,1.290182945747589072e+00
4.883333333333332860e+00,4.931871805617877962e-03,3.048853576183319092e-01,4.034221172332763672e-02,4.606009125709533691e-01,1.577202249381584875e-01,-5.783095131199900152e-01,-3.044346484644441450e-02,-2.242073859461297669e+00,8.497353380871888739e-03,1.362622473912621812e+00,1.290657235604261821e+00
4.900000000000000355e+00,4.229177741673411685e-03,3.062153160572052002e-01,3.839825466275215149e-02,4.623401761054992676e-01,1.563823074805658075e-01,-5.764363306864160874e-01,-3.417924217473695958e-02,-2.236321936711679559e+00,6.604233021481113047e-03,1.361654100651855881e+00,1.291252527060560817e+00
4.916666666666666963e+00,3.804901060740976341e-03,3.062272071838378906e-01,3.614656999707221985e-02,4.631762802600860596e-01,1.549799029606171441e-01,-5.774262074119467236e-01,-3.828376525972234518e-02,-2.234852063607000172e+00,4.668888346465623930e-03,1.359867028276916745e+00,1.290852778691980562e+00
4.933333333333333570e+00,4.800910607258170211e-03,3.065096139907836914e-01,3.550883382558822632e-02,4.651287198066711426e-01,1.552371970633705245e-01,-5.781820863348717809e-01,-4.023865513533491506e-02,-2.230529389022545050e+00,4.395683600548878911e-03,1.357798141117346535e+00,1.289324463048006297e+00
4.950000000000000178e+00,3.246026810091705902e-03,3.059781789779663086e-01,3.200414776802062988e-02,4.657818675041198730e-01,1.524257466947854522e-01,-5.803742750560140218e-01,-4.617737987750637069e-02,-2.230271867029955946e+00,1.829796159839241305e-03,1.354772405279357050e+00,1.290975078481060745e+00
4.966666666666666785e+00,2.975884232591584268e-03,3.056111335754394531e-01,2.977426722645759583e-02,4.669635891914367676e-01,1.510463805431667417e-01,-5.816329805958027066e-01,-5.036905932983829631e-02,-2.228029579889045486e+00,3.293054057874675983e-04,1.351113054967579385e+00,1.290800313499935958e+00
4.983333333333333393e+00,1.414164218370144973e-03,3.063220083713531494e-01,2.663147076964378357e-02,4.685311019420623779e-01,1.482023811127060886e-01,-5.809700965956475782e-01,-5.559794790292895555e-02,-2.223444183779070382e+00,-2.093365105107054813e-03,1.348919763958164930e+00,1.291907934678698799e+00
5.000000000000000000e+00,2.227944372870860855e-03,3.063936531543731689e-01,2.552587352693080902e-02,4.706262350082397461e-01,1.484293410808586455e-01,-5.829886189424651199e-01,-5.858738383814698220e-02,-2.219671349187217757e+00,-2.643157741606431358e-03,1.347098601248608141e+00,1.290141061629432651e+00
5.016666666666666607e+00,1.922525123049982979e-03,3.059949278831481934e-01,2.329562604427337646e-02,4.715333878993988037e-01,1.473037956723723674e-01,-5.844092153286615243e-01,-6.294731432861563891e-02,-2.218212480775670681e+00,-4.228238903410737326e-03,1.344216778132938606e+00,1.290745116946241611e+00
5.033333333333333215e+00,2.852642049611493150e-03,3.061654269695281982e-01,2.190684154629707336e-02,4.739746749401092529e-01,1.469636927068986298e-01,-5.858464122352221581e-01,-6.603286265042507264e-02,-2.213089937684178832e+00,-5.037010606503179895e-03,1.341495365610486878e+00,1.290088848988002246e+00
5.049999999999999822e+00,2.757997815181094815e-03,3.056814968585968018e-01,2.013229019939899445e-02,4.746763408184051514e-01,1.465741272461924538e-01,-5.873343456561265219e-01,-7.014325791759951079e-02,-2.212193430190564136e+00,-5.963995933170580452e-03,1.338976182603954568e+00,1.290406070387294601e+00
5.066666666666666430e+00,2.507453886076710901e-03,3.054619431495666504e-01,1.818742975592613220e-02,4.752830266952514648e-01,1.456785504835031719e-01,-5.877745762252847284e-01,-7.395624253925912883e-02,-2.210744310476826957e+00,-7.500081093332993699e-03,1.336548645190860141e+00,1.290510128148178781e+00
5.083333333333333037e+00,2.508968985434801777e-03,3.050405681133270264e-01,1.621076278388500214e-02,4.755976796150207520e-01,1.448840765737738068e-01,-5.881062227766236106e-01,-7.790086933490088239e-02,-2.209880511927900137e+00,-9.100480702559522045e-03,1.333630617932259899e+00,1.290588008809860465e+00
5.099999999999999645e+00,2.064383773187341339e-03,3.049589097499847412e-01,1.282272022217512131e-02,4.768199622631072998e-01,1.421416358737040975e-01,-5.895153155137167200e-01,-8.394206526665251578e-02,-2.207546891984298654e+00,-1.116093538647734001e-02,1.331491260028107027e+00,1.291336690188018554e+00
5.116666666666666252e+00,2.932767870022493905e-03,3.046694993972778320e-01,9.957611560821533203e-03,4.765482842922210693e-01,1.401018371280855768e-01,-5.886160017408120781e-01,-8.913716181031607066e-02,-2.207113845428302579e+00,-1.331614124808051976e-02,1.328620833271898505e+00,1.292108936899061700e+00
5.133333333333332860e+00,3.187527477864771953e-03,3.056789040565490723e-01,6.533882115036249161e-03,4.781906604766845703e-01,1.368900034528500731e-01,-5.872682301770231206e-01,-9.434912305975746982e-02,-2.201762747588662528e+00,-1.624536926451943669e-02,1.327617745837656349e+00,1.292485491797195740e+00
5.150000000000000355e+00,3.254378587964081547e-03,3.055404126644134521e-01,4.872967954725027084e-03,4.790260493755340576e-01,1.363596929432927540e-01,-5.881459604749049719e-01,-9.772159280068042075e-02,-2.200093776335295903e+00,-1.763038787290545015e-02,1.326040310414042134e+00,1.291451764883198905e+00
5.166666666666666963e+00,3.662878217653088315e-03,3.049796819686889648e-01,2.872745040804147720e-03,4.803222119808197021e-01,1.354627224384054029e-01,-5.906802349463718960e-01,-1.019160957741933049e-01,-2.198434680561911048e+00,-1.861271347886086364e-02,1.323682389461423803e+00,1.291280588609385882e+00
5.183333333333333570e+00,2.820012500863972038e-03,3.046800494194030762e-01,2.486694371327757835e-03,4.819580912590026855e-01,1.366507832394882327e-01,-5.923093771522143225e-01,-1.036114459069280291e-01,-2.195405236858152698e+00,-1.893945747915608963e-02,1.321175350860046560e+00,1.290304634510154758e+00
5.200000000000000178e+00,2.309950671594572773e-03,3.047117292881011963e-01,2.104683779180049896e-03,4.837813079357147217e-01,1.376327805778820856e-01,-5.934266885596840568e-01,-1.051564870313531491e-01,-2.191586583123143139e+00,-1.919786330005855690e-02,1.319283073697839148e+00,1.289784380504837014e+00
5.216666666666666785e+00,2.185238502004435788e-03,3.053140342235565186e-01,1.619493588805198669e-03,4.853785037994384766e-01,1.385158372811472194e-01,-5.928427091287861161e-01,-1.065705563268177225e-01,-2.187118498550542078e+00,-2.010989718097531270e-02,1.318335459741870830e+00,1.290446338562729167e+00
5.233333333333333393e+00,2.592381275806480024e-03,3.061276674270629883e-01,5.944463773630559444e-04,4.874958992004394531e-01,1.388063106337117381e-01,-5.926206199048974499e-01,-1.090134118745997721e-01,-2.181627395553523030e+00,-2.095750416718307474e-02,1.317832898865878066e+00,1.290357684382337222e+00
5.250000000000000000e+00,2.675225268342699882e-03,3.052076697349548340e-01,-1.614059903658926487e-03,4.884714186191558838e-01,1.381879092166655443e-01,-5.963583900284705752e-01,-1.138205801639443071e-01,-2.181573507092929631e+00,-2.223707856758824764e-02,1.315973651828832081e+00,1.290493351093184415e+00
5.266666666666666607e+00,3.063115080397201852e-03,3.041283786296844482e-01,-4.726910497993230820e-03,4.896119832992553711e-01,1.363034135289222237e-01,-5.997588960970353655e-01,-1.198818256587975140e-01,-2.180658762352229996e+00,-2.385016673908313400e-02,1.312641078997100808e+00,1.291189466990606771e+00
5.283333333333333215e+00,3.728452652785685037e-03,3.034383654594421387e-01,-6.148553919047117233e-03,4.905768334865570068e-01,1.366470957919168616e-01,-6.017811178473869704e-01,-1.235596894312537691e-01,-2.179352837454882064e+00,-2.468206480946001299e-02,1.309967575904476655e+00,1.291025148527917388e+00
5.299999999999999822e+00,4.521028204843933335e-03,3.029462695121765137e-01,-8.364629931747913361e-03,4.930003583431243896e-01,1.357172671439485223e-01,-6.059723509891496995e-01,-1.283060103964884235e-01,-2.176078836930995575e+00,-2.532123865940937718e-02,1.308442809361838322e+00,1.290738370791854717e+00
5.316666666666666430e+00,4.300316185723245151e-03,3.034312725067138672e-01,-9.601023048162460327e-03,4.944523572921752930e-01,1.350264372304769978e-01,-6.049099754090795367e-01,-1.304682050237700175e-01,-2.171503636622236666e+00,-2.614423392151111331e-02,1.306843024890880223e+00,1.291478946009838369e+00
5.333333333333333037e+00,3.194908407299914925e-03,3.042211532592773438e-01,-1.212586835026741028e-02,4.949840903282165527e-01,1.331537955270130080e-01,-6.025084123207155029e-01,-1.343286716758581023e-01,-2.168097425147863522e+00,-2.876575228924116434e-02,1.306412368500521559e+00,1.292644740748537080e+00
5.349999999999999645e+00,2.800411756037756317e-03,3.043591082096099854e-01,-1.421914063394069672e-02,4.955058395862579346e-01,1.320219454642387324e-01,-6.023841029326993946e-01,-1.380666030815016765e-01,-2.166378893310850540e+00,-3.062296033233080639e-02,1.305842866551189418e+00,1.293545051187307671e+00
5.366666666666666252e+00,2.795050884722311349e-03,3.042301833629608154e-01,-1.585040427744388580e-02,4.959961473941802979e-01,1.312229537808994595e-01,-6.020519441519437409e-01,-1.410773494635002845e-01,-2.164546731842892147e+00,-3.196546610568642977e-02,1.303913702506402927e+00,1.293801071313204654e+00
5.383333333333332860e+00,2.760861703959261847e-03,3.046379685401916504e-01,-1.669311709702014923e-02,4.979857206344604492e-01,1.317128299855858942e-01,-6.022156366416130391e-01,-1.433092934632199666e-01,-2.159570416050077046e+00,-3.225317864694321468e-02,1.302668083331603111e+00,1.292684858037738138e+00
5.400000000000000355e+00,3.325293449808752310e-03,3.039664030075073242e-01,-1.998078078031539917e-02,4.993933439254760742e-01,1.291275801985692084e-01,-6.051258424976322381e-01,-1.492017907691756962e-01,-2.157626093596631378e+00,-3.378100454461293450e-02,1.300880613536725017e+00,1.293934858650842346e+00
5.416666666666666963e+00,2.890839935619967001e-03,3.046410977840423584e-01,-2.163934707641601562e-02,5.009455680847167969e-01,1.279944131368217497e-01,-6.033949275964222148e-01,-1.516873710963551891e-01,-2.152259661367960319e+00,-3.514053947333809630e-02,1.299452656265465356e+00,1.294075928086617422e+00
5.433333333333333570e+00,2.603229884629351416e-03,3.055726587772369385e-01,-2.357902564108371735e-02,5.026080012321472168e-01,1.265951560763479977e-01,-6.014808672613597418e-01,-1.544748138092508771e-01,-2.146519077843671575e+00,-3.683057412548620957e-02,1.298883716043748970e+00,1.294618298063789474e+00
5.450000000000000178e+00,2.557811542731262822e-03,3.065029680728912354e-01,-2.433776482939720154e-02,5.041226148605346680e-01,1.267192809549101684e-01,-6.001478157764773558e-01,-1.556007493602044323e-01,-2.141781198538226683e+00,-3.797471117926219664e-02,1.299176216288573826e+00,1.294562175548520822e+00
5.466666666666666785e+00,2.811529219007290713e-03,3.061992526054382324e-01,-2.598429098725318909e-02,5.054321885108947754e-01,1.262801000011970487e-01,-6.015591721428392713e-01,-1.589434571149226649e-01,-2.139191365481086127e+00,-3.895303984292024235e-02,1.297541373670073162e+00,1.295015511407384912e+00
5.483333333333333393e+00,4.204227210216082006e-03,3.063676357269287109e-01,-2.629039250314235687e-02,5.075431466102600098e-01,1.270857937117622904e-01,-6.026314843227020823e-01,-1.600590807418747485e-01,-2.134681416812881150e+00,-3.882539001873568790e-02,1.296412199411329125e+00,1.294725525817512768e+00
